; GCode generated by CraftWare

G28 X0 Y0
G28 Z0


M104 S215 ;set head temp (no wait)
M190 S60 ;set bed temp (wait)
M109 S215 ;set head temp (wait)
; ------------------------------------
; Layer #0
; ------------------------------------
M106 S0 ;turn off fan
G21 ; mm
G90 ; abs
G92 E0 ;reset extr
G0 F1200 Z0.300
;segType:Skirt
G0 F3000 E-1.0000
G0 X108.389 Y95.462 F5400
G0 F3000 E0.0000
G1 X108.389 Y95.197 E0.0132 F2400
G1 X108.191 Y94.866 E0.0324
G1 X108.059 Y94.469 E0.0533
G1 X107.992 Y94.006 E0.0767
G1 X107.860 Y93.873 E0.0860
G1 X107.860 Y93.344 E0.1124
G1 X107.727 Y92.418 E0.1591
G1 X107.727 Y90.565 E0.2516
G1 X107.860 Y90.432 E0.2609
G1 X107.860 Y89.638 E0.3005
G1 X107.992 Y89.506 E0.3099
G1 X108.059 Y89.042 E0.3332
G1 X108.191 Y88.645 E0.3541
G1 X108.389 Y88.315 E0.3733
G1 X108.389 Y88.050 E0.3865
G1 X108.588 Y87.719 E0.4058
G1 X108.853 Y87.454 E0.4245
G1 X109.183 Y86.991 E0.4529
G1 X109.183 Y41.991 E2.6979
G1 X108.720 Y41.925 E2.7213
G1 X82.250 Y41.925 E4.0419
G1 X81.919 Y41.726 E4.0612
G1 X79.139 Y38.947 E4.2573
G1 X79.139 Y7.182 E5.8420
G1 X79.338 Y6.851 E5.8613
G1 X82.250 Y3.939 E6.0667
G1 X150.014 Y3.939 E9.4475
G1 X153.720 Y3.939 E9.6324
G1 X154.184 Y4.006 E9.6558
G1 X157.228 Y7.050 E9.8705
G1 X157.228 Y38.815 E11.4553
G1 X157.029 Y39.146 E11.4746
G1 X154.250 Y41.925 E11.6707
G1 X127.250 Y41.925 E13.0177
G1 X127.215 Y42.169 E13.0300
G0 F3000 E12.0300
G0 X125.167 Y40.592 F5400
G0 X123.119 Y39.015
G0 X104.689 Y24.823
G0 X102.641 Y23.246
G0 X92.402 Y15.361
G0 X90.354 Y13.784
G0 X84.210 Y9.054
G0 F3000 E13.0300
;segType:HShell
G1 X90.807 Y15.651 E13.4955 F2400
G0 X90.789 Y16.198 F5400
G1 X84.210 Y9.619 E13.9596 F2400
;segType:Perimeter
G0 X83.510 Y8.122 F5400
G1 X153.049 Y8.122 E17.4290 F1440
G1 X153.049 Y37.721 E18.9057
G1 X125.242 Y37.721 E20.2930
G1 X124.906 Y37.748 E20.3099
G1 X124.569 Y37.828 E20.3271
G1 X124.246 Y37.963 E20.3446
G1 X123.956 Y38.141 E20.3616
G1 X123.693 Y38.365 E20.3788
G1 X123.469 Y38.628 E20.3960
G1 X123.288 Y38.922 E20.4133
G1 X123.156 Y39.242 E20.4305
G1 X123.076 Y39.577 E20.4477
G1 X123.049 Y39.914 E20.4645
G1 X123.049 Y87.987 E22.8629
G1 X123.658 Y88.826 E22.9146
G1 X124.078 Y89.682 E22.9622
G1 X124.348 Y90.598 E23.0098
G1 X124.458 Y91.546 E23.0575
G1 X124.405 Y92.499 E23.1051
G1 X124.191 Y93.429 E23.1527
G1 X123.823 Y94.309 E23.2003
G1 X123.310 Y95.114 E23.2479
G1 X122.668 Y95.820 E23.2955
G1 X121.915 Y96.406 E23.3431
G1 X121.074 Y96.857 E23.3907
G1 X120.169 Y97.158 E23.4383
G1 X119.225 Y97.301 E23.4859
G1 X118.250 Y97.281 E23.5346
G1 X117.275 Y97.301 E23.5833
G1 X116.331 Y97.158 E23.6309
G1 X115.425 Y96.857 E23.6785
G1 X114.584 Y96.407 E23.7261
G1 X113.832 Y95.820 E23.7737
G1 X113.190 Y95.114 E23.8213
G1 X112.677 Y94.309 E23.8689
G1 X112.308 Y93.429 E23.9165
G1 X112.094 Y92.498 E23.9642
G1 X112.042 Y91.546 E24.0118
G1 X112.152 Y90.598 E24.0594
G1 X112.421 Y89.682 E24.1070
G1 X112.842 Y88.826 E24.1546
G1 X113.450 Y87.987 E24.2063
G1 X113.450 Y39.914 E26.6047
G1 X113.424 Y39.577 E26.6215
G1 X113.343 Y39.242 E26.6387
G1 X113.211 Y38.922 E26.6560
G1 X113.030 Y38.628 E26.6732
G1 X112.806 Y38.365 E26.6904
G1 X112.544 Y38.141 E26.7077
G1 X112.249 Y37.961 E26.7249
G1 X111.930 Y37.828 E26.7421
G1 X111.594 Y37.748 E26.7594
G1 X111.258 Y37.721 E26.7762
G1 X83.450 Y37.721 E28.1635
G1 X83.450 Y8.182 E29.6372
G0 X84.223 Y8.389 F5400
;segType:Loop
G0 X84.550 Y8.522
G1 X152.649 Y8.522 E33.0347 F2400
G1 X152.649 Y37.321 E34.4715
G1 X125.226 Y37.321 E35.8397
G1 X124.843 Y37.351 E35.8589
G1 X124.445 Y37.447 E35.8793
G1 X124.063 Y37.606 E35.8999
G1 X123.720 Y37.816 E35.9200
G1 X123.409 Y38.082 E35.9404
G1 X123.145 Y38.392 E35.9608
G1 X122.931 Y38.740 E35.9811
G1 X122.775 Y39.118 E36.0015
G1 X122.679 Y39.514 E36.0219
G1 X122.649 Y39.898 E36.0411
G1 X122.649 Y88.117 E38.4467
G1 X123.314 Y89.033 E38.5032
G1 X123.704 Y89.828 E38.5474
G1 X123.954 Y90.678 E38.5916
G1 X124.056 Y91.558 E38.6358
G1 X124.007 Y92.442 E38.6799
G1 X123.809 Y93.306 E38.7241
G1 X123.467 Y94.123 E38.7683
G1 X122.991 Y94.870 E38.8125
G1 X122.395 Y95.525 E38.8567
G1 X121.696 Y96.070 E38.9009
G1 X120.915 Y96.488 E38.9451
G1 X120.075 Y96.768 E38.9893
G1 X119.199 Y96.900 E39.0335
G1 X118.250 Y96.881 E39.0809
G1 X117.301 Y96.900 E39.1282
G1 X116.425 Y96.768 E39.1724
G1 X115.584 Y96.488 E39.2166
G1 X114.803 Y96.070 E39.2608
G1 X114.105 Y95.525 E39.3050
G1 X113.509 Y94.870 E39.3492
G1 X113.033 Y94.123 E39.3934
G1 X112.690 Y93.306 E39.4376
G1 X112.492 Y92.442 E39.4818
G1 X112.443 Y91.558 E39.5260
G1 X112.545 Y90.678 E39.5702
G1 X112.795 Y89.827 E39.6144
G1 X113.186 Y89.033 E39.6586
G1 X113.850 Y88.116 E39.7151
G1 X113.850 Y39.898 E42.1207
G1 X113.820 Y39.514 E42.1399
G1 X113.725 Y39.118 E42.1603
G1 X113.569 Y38.740 E42.1806
G1 X113.355 Y38.392 E42.2010
G1 X113.090 Y38.082 E42.2214
G1 X112.779 Y37.816 E42.2417
G1 X112.431 Y37.603 E42.2621
G1 X112.054 Y37.447 E42.2825
G1 X111.657 Y37.351 E42.3029
G1 X111.273 Y37.321 E42.3221
G1 X83.850 Y37.321 E43.6902
G1 X83.850 Y8.522 E45.1270
G1 X84.350 Y8.522 E45.1520
;segType:HShell
G0 X91.037 Y14.749 F5400
G1 X85.170 Y8.882 E45.5659 F2400
G0 X84.604 Y8.882 F5400
G1 X90.892 Y15.170 E46.0096 F2400
;segType:Perimeter
G0 X91.333 Y15.506 F5400
G1 X91.820 Y14.871 E46.0495 F1440
G1 X91.969 Y14.628 E46.0637
G1 X92.193 Y14.365 E46.0809
G1 X92.456 Y14.141 E46.0982
G1 X92.751 Y13.960 E46.1154
G1 X93.069 Y13.828 E46.1326
G1 X93.405 Y13.748 E46.1499
G1 X93.742 Y13.721 E46.1667
G1 X94.758 Y13.721 E46.2174
G1 X95.094 Y13.748 E46.2342
G1 X95.430 Y13.828 E46.2514
G1 X95.749 Y13.960 E46.2687
G1 X96.043 Y14.141 E46.2859
G1 X96.306 Y14.365 E46.3031
G1 X96.530 Y14.628 E46.3204
G1 X96.711 Y14.922 E46.3376
G1 X96.843 Y15.242 E46.3548
G1 X96.924 Y15.577 E46.3721
G1 X96.950 Y15.914 E46.3889
G1 X96.950 Y29.930 E47.0881
G1 X96.924 Y30.266 E47.1050
G1 X96.843 Y30.602 E47.1222
G1 X96.711 Y30.921 E47.1394
G1 X96.530 Y31.216 E47.1567
G1 X96.306 Y31.478 E47.1739
G1 X96.043 Y31.702 E47.1911
G1 X95.749 Y31.883 E47.2084
G1 X95.430 Y32.015 E47.2256
G1 X95.094 Y32.096 E47.2428
G1 X94.758 Y32.122 E47.2597
G1 X93.742 Y32.122 E47.3104
G1 X93.405 Y32.096 E47.3272
G1 X93.070 Y32.015 E47.3444
G1 X92.751 Y31.883 E47.3616
G1 X92.456 Y31.702 E47.3789
G1 X92.193 Y31.478 E47.3961
G1 X91.969 Y31.215 E47.4133
G1 X91.788 Y30.921 E47.4306
G1 X91.656 Y30.602 E47.4478
G1 X91.576 Y30.266 E47.4650
G1 X91.549 Y29.930 E47.4819
G1 X91.549 Y15.914 E48.1811
G1 X91.576 Y15.577 E48.1980
G1 X91.656 Y15.242 E48.2152
G1 X91.766 Y14.978 E48.2294
G0 X91.993 Y14.211 F5400
;segType:Loop
G0 X92.305 Y13.764
G1 X92.569 Y13.603 E48.2448 F2400
G1 X92.945 Y13.447 E48.2652
G1 X93.343 Y13.351 E48.2856
G1 X93.726 Y13.321 E48.3048
G1 X94.773 Y13.321 E48.3570
G1 X95.157 Y13.351 E48.3762
G1 X95.554 Y13.447 E48.3966
G1 X95.931 Y13.603 E48.4169
G1 X96.279 Y13.816 E48.4373
G1 X96.590 Y14.082 E48.4577
G1 X96.855 Y14.392 E48.4780
G1 X97.068 Y14.740 E48.4984
G1 X97.225 Y15.118 E48.5188
G1 X97.320 Y15.515 E48.5392
G1 X97.350 Y15.898 E48.5584
G1 X97.350 Y29.945 E49.2592
G1 X97.320 Y30.328 E49.2784
G1 X97.225 Y30.726 E49.2987
G1 X97.068 Y31.103 E49.3191
G1 X96.855 Y31.451 E49.3395
G1 X96.590 Y31.762 E49.3599
G1 X96.279 Y32.027 E49.3802
G1 X95.931 Y32.240 E49.4006
G1 X95.554 Y32.396 E49.4210
G1 X95.157 Y32.492 E49.4413
G1 X94.773 Y32.522 E49.4605
G1 X93.726 Y32.522 E49.5128
G1 X93.343 Y32.492 E49.5320
G1 X92.946 Y32.396 E49.5523
G1 X92.568 Y32.240 E49.5727
G1 X92.220 Y32.027 E49.5931
G1 X91.910 Y31.762 E49.6135
G1 X91.644 Y31.451 E49.6338
G1 X91.431 Y31.103 E49.6542
G1 X91.275 Y30.726 E49.6746
G1 X91.179 Y30.329 E49.6950
G1 X91.149 Y29.945 E49.7141
G1 X91.149 Y15.898 E50.4150
G1 X91.179 Y15.514 E50.4342
G1 X91.275 Y15.118 E50.4545
G1 X91.431 Y14.740 E50.4749
G1 X91.645 Y14.392 E50.4953
G1 X91.909 Y14.082 E50.5156
G0 X91.909 Y14.082 F5400
G0 X92.220 Y13.816
G0 X92.569 Y13.603
G0 X92.945 Y13.447
G0 X93.343 Y13.351
G0 X93.726 Y13.321
G0 X94.773 Y13.321
G0 X95.157 Y13.351
G0 X95.554 Y13.447
G0 X95.931 Y13.603
G0 X96.279 Y13.816
G0 X96.590 Y14.082
G0 X96.855 Y14.392
G0 X97.068 Y14.740
G0 X97.225 Y15.118
G0 X97.320 Y15.515
G0 X97.350 Y15.898
G0 X97.350 Y21.743
G0 X97.350 Y21.743
G0 X103.149 Y29.909
G0 X103.149 Y29.909
G0 X103.149 Y29.945
G0 X103.180 Y30.328
G0 X103.275 Y30.726
G0 X103.434 Y31.108
G0 X103.645 Y31.452
G0 X103.910 Y31.762
G0 X104.220 Y32.027
G0 X104.568 Y32.240
G0 X104.904 Y32.379
G0 X104.904 Y32.379
G0 X108.166 Y36.972
;segType:HShell
G0 X108.158 Y36.961
G1 X97.710 Y26.513 E51.2528 F2400
G0 X97.710 Y25.948 F5400
G1 X103.235 Y31.473 E51.6426 F2400
;segType:Perimeter
G0 X103.749 Y31.337 F5400
G1 X103.642 Y30.544 E51.6825 F1440
G1 X103.576 Y30.266 E51.6968
G1 X103.549 Y29.929 E51.7136
G1 X103.549 Y15.914 E52.4128
G1 X103.576 Y15.577 E52.4297
G1 X103.656 Y15.241 E52.4469
G1 X103.789 Y14.922 E52.4642
G1 X103.969 Y14.628 E52.4814
G1 X104.190 Y14.369 E52.4983
G1 X104.456 Y14.141 E52.5158
G1 X104.751 Y13.960 E52.5331
G1 X105.065 Y13.830 E52.5500
G1 X105.405 Y13.748 E52.5675
G1 X105.742 Y13.721 E52.5844
G1 X106.758 Y13.721 E52.6350
G1 X107.094 Y13.748 E52.6519
G1 X107.430 Y13.828 E52.6691
G1 X107.749 Y13.960 E52.6863
G1 X108.044 Y14.141 E52.7036
G1 X108.306 Y14.365 E52.7208
G1 X108.530 Y14.628 E52.7380
G1 X108.711 Y14.922 E52.7553
G1 X108.843 Y15.241 E52.7725
G1 X108.924 Y15.577 E52.7897
G1 X108.950 Y15.914 E52.8066
G1 X108.950 Y29.929 E53.5058
G1 X108.924 Y30.266 E53.5227
G1 X108.843 Y30.602 E53.5399
G1 X108.711 Y30.921 E53.5571
G1 X108.530 Y31.215 E53.5744
G1 X108.306 Y31.478 E53.5916
G1 X108.044 Y31.702 E53.6088
G1 X107.749 Y31.883 E53.6261
G1 X107.430 Y32.015 E53.6433
G1 X107.094 Y32.096 E53.6605
G1 X106.758 Y32.122 E53.6774
G1 X105.742 Y32.122 E53.7280
G1 X105.405 Y32.096 E53.7449
G1 X105.070 Y32.015 E53.7621
G1 X104.750 Y31.883 E53.7793
G1 X104.456 Y31.702 E53.7966
G1 X104.193 Y31.478 E53.8138
G1 X103.969 Y31.216 E53.8310
G1 X103.791 Y30.926 E53.8480
G1 X103.679 Y30.657 E53.8625
G0 X103.298 Y29.954 F5400
;segType:Loop
G0 X103.149 Y29.513
G1 X103.149 Y15.898 E54.5417 F2400
G1 X103.180 Y15.515 E54.5609
G1 X103.275 Y15.118 E54.5813
G1 X103.431 Y14.740 E54.6016
G1 X103.644 Y14.392 E54.6220
G1 X103.906 Y14.086 E54.6421
G1 X104.220 Y13.817 E54.6627
G1 X104.568 Y13.603 E54.6831
G1 X104.940 Y13.449 E54.7032
G1 X105.342 Y13.351 E54.7238
G1 X105.726 Y13.321 E54.7431
G1 X106.773 Y13.321 E54.7953
G1 X107.157 Y13.351 E54.8145
G1 X107.554 Y13.447 E54.8349
G1 X107.931 Y13.603 E54.8552
G1 X108.279 Y13.816 E54.8756
G1 X108.590 Y14.082 E54.8960
G1 X108.855 Y14.392 E54.9164
G1 X109.068 Y14.740 E54.9367
G1 X109.225 Y15.117 E54.9571
G1 X109.320 Y15.514 E54.9775
G1 X109.350 Y15.898 E54.9967
G1 X109.350 Y29.945 E55.6975
G1 X109.320 Y30.329 E55.7167
G1 X109.225 Y30.726 E55.7371
G1 X109.068 Y31.103 E55.7574
G1 X108.855 Y31.451 E55.7778
G1 X108.590 Y31.762 E55.7982
G1 X108.279 Y32.027 E55.8185
G1 X107.931 Y32.240 E55.8389
G1 X107.554 Y32.396 E55.8593
G1 X107.157 Y32.492 E55.8796
G1 X106.773 Y32.522 E55.8988
G1 X105.726 Y32.522 E55.9511
G1 X105.343 Y32.492 E55.9703
G1 X104.946 Y32.396 E55.9906
G1 X104.568 Y32.240 E56.0110
G1 X104.220 Y32.027 E56.0314
G1 X103.910 Y31.762 E56.0517
G1 X103.645 Y31.452 E56.0721
G1 X103.434 Y31.108 E56.0922
G1 X103.275 Y30.726 E56.1128
G1 X103.180 Y30.328 E56.1333
G1 X103.149 Y29.945 E56.1524
G1 X103.149 Y29.713 E56.1641
G0 X103.149 Y29.713 F5400
G0 X103.149 Y29.945
G0 X103.180 Y30.328
G0 X103.275 Y30.726
G0 X103.434 Y31.108
G0 X103.645 Y31.452
G0 X103.910 Y31.762
G0 X104.220 Y32.027
G0 X104.568 Y32.240
G0 X104.946 Y32.396
G0 X105.343 Y32.492
G0 X105.726 Y32.522
G0 X106.773 Y32.522
G0 X107.157 Y32.492
G0 X107.554 Y32.396
G0 X107.931 Y32.240
G0 X108.279 Y32.027
G0 X108.590 Y31.762
G0 X108.855 Y31.451
G0 X109.068 Y31.103
G0 X109.225 Y30.726
G0 X109.320 Y30.329
G0 X109.350 Y29.945
G0 X109.350 Y21.980
G0 X109.350 Y21.980
G0 X116.259 Y13.365
;segType:HShell
G0 X116.250 Y13.375
G1 X111.757 Y8.882 E56.4811 F2400
G0 X112.323 Y8.882 F5400
G1 X116.629 Y13.188 E56.7849 F2400
;segType:Perimeter
G0 X116.665 Y13.724 F5400
G1 X117.465 Y13.743 E56.8248 F1440
G1 X117.742 Y13.721 E56.8387
G1 X118.757 Y13.721 E56.8893
G1 X119.094 Y13.748 E56.9062
G1 X119.430 Y13.828 E56.9234
G1 X119.749 Y13.960 E56.9406
G1 X120.044 Y14.141 E56.9579
G1 X120.306 Y14.365 E56.9751
G1 X120.530 Y14.628 E56.9923
G1 X120.711 Y14.922 E57.0096
G1 X120.841 Y15.236 E57.0265
G1 X120.924 Y15.577 E57.0440
G1 X120.950 Y15.914 E57.0609
G1 X120.950 Y29.930 E57.7601
G1 X120.924 Y30.266 E57.7769
G1 X120.843 Y30.602 E57.7942
G1 X120.711 Y30.921 E57.8114
G1 X120.530 Y31.215 E57.8286
G1 X120.306 Y31.478 E57.8459
G1 X120.044 Y31.702 E57.8631
G1 X119.749 Y31.883 E57.8803
G1 X119.430 Y32.015 E57.8976
G1 X119.094 Y32.096 E57.9148
G1 X118.758 Y32.122 E57.9316
G1 X117.742 Y32.122 E57.9823
G1 X117.405 Y32.096 E57.9991
G1 X117.070 Y32.015 E58.0164
G1 X116.750 Y31.883 E58.0336
G1 X116.456 Y31.702 E58.0508
G1 X116.193 Y31.478 E58.0681
G1 X115.969 Y31.215 E58.0853
G1 X115.789 Y30.921 E58.1025
G1 X115.657 Y30.602 E58.1198
G1 X115.576 Y30.266 E58.1370
G1 X115.549 Y29.929 E58.1538
G1 X115.549 Y15.914 E58.8531
G1 X115.576 Y15.577 E58.8699
G1 X115.657 Y15.242 E58.8871
G1 X115.789 Y14.922 E58.9044
G1 X115.969 Y14.628 E58.9216
G1 X116.193 Y14.365 E58.9388
G1 X116.456 Y14.141 E58.9561
G1 X116.750 Y13.960 E58.9733
G1 X117.064 Y13.830 E58.9903
G1 X117.347 Y13.762 E59.0048
G0 X118.101 Y13.495 F5400
;segType:Loop
G0 X118.504 Y13.321
G1 X118.773 Y13.321 E59.0182 F2400
G1 X119.157 Y13.351 E59.0374
G1 X119.554 Y13.447 E59.0578
G1 X119.931 Y13.603 E59.0781
G1 X120.279 Y13.816 E59.0985
G1 X120.590 Y14.082 E59.1189
G1 X120.855 Y14.392 E59.1392
G1 X121.068 Y14.740 E59.1596
G1 X121.222 Y15.112 E59.1797
G1 X121.320 Y15.514 E59.2003
G1 X121.350 Y15.898 E59.2196
G1 X121.350 Y29.945 E59.9204
G1 X121.320 Y30.329 E59.9396
G1 X121.224 Y30.726 E59.9599
G1 X121.068 Y31.103 E59.9803
G1 X120.855 Y31.451 E60.0007
G1 X120.590 Y31.762 E60.0211
G1 X120.279 Y32.027 E60.0414
G1 X119.931 Y32.240 E60.0618
G1 X119.554 Y32.396 E60.0822
G1 X119.157 Y32.492 E60.1025
G1 X118.773 Y32.522 E60.1217
G1 X117.726 Y32.522 E60.1740
G1 X117.342 Y32.492 E60.1932
G1 X116.946 Y32.396 E60.2135
G1 X116.568 Y32.240 E60.2339
G1 X116.220 Y32.027 E60.2543
G1 X115.910 Y31.762 E60.2746
G1 X115.644 Y31.451 E60.2950
G1 X115.431 Y31.103 E60.3154
G1 X115.275 Y30.726 E60.3358
G1 X115.179 Y30.329 E60.3562
G1 X115.149 Y29.945 E60.3753
G1 X115.149 Y15.898 E61.0762
G1 X115.179 Y15.514 E61.0954
G1 X115.275 Y15.118 E61.1157
G1 X115.431 Y14.740 E61.1361
G1 X115.644 Y14.392 E61.1565
G1 X115.910 Y14.082 E61.1768
G1 X116.220 Y13.816 E61.1972
G1 X116.568 Y13.603 E61.2176
G1 X116.940 Y13.449 E61.2377
G1 X117.342 Y13.351 E61.2583
G1 X117.726 Y13.321 E61.2775
G1 X118.304 Y13.321 E61.3064
;segType:HShell
G0 X126.822 Y15.462 F5400
G1 X120.242 Y8.882 E61.7706 F2400
G0 X120.808 Y8.882 F5400
G1 X126.932 Y15.005 E62.2026 F2400
;segType:Perimeter
G0 X127.333 Y15.506 F5400
G1 X127.820 Y14.871 E62.2425 F1440
G1 X127.969 Y14.628 E62.2568
G1 X128.193 Y14.365 E62.2740
G1 X128.456 Y14.141 E62.2912
G1 X128.751 Y13.960 E62.3085
G1 X129.069 Y13.828 E62.3257
G1 X129.405 Y13.748 E62.3429
G1 X129.742 Y13.721 E62.3598
G1 X130.758 Y13.721 E62.4104
G1 X131.094 Y13.748 E62.4273
G1 X131.430 Y13.828 E62.4445
G1 X131.749 Y13.960 E62.4617
G1 X132.043 Y14.141 E62.4790
G1 X132.306 Y14.365 E62.4962
G1 X132.530 Y14.628 E62.5134
G1 X132.711 Y14.922 E62.5307
G1 X132.843 Y15.242 E62.5479
G1 X132.924 Y15.577 E62.5651
G1 X132.950 Y15.914 E62.5820
G1 X132.950 Y29.930 E63.2812
G1 X132.924 Y30.266 E63.2980
G1 X132.843 Y30.602 E63.3153
G1 X132.711 Y30.921 E63.3325
G1 X132.530 Y31.215 E63.3497
G1 X132.306 Y31.478 E63.3670
G1 X132.043 Y31.702 E63.3842
G1 X131.749 Y31.883 E63.4014
G1 X131.430 Y32.015 E63.4187
G1 X131.094 Y32.096 E63.4359
G1 X130.758 Y32.122 E63.4527
G1 X129.742 Y32.122 E63.5034
G1 X129.405 Y32.096 E63.5202
G1 X129.070 Y32.015 E63.5375
G1 X128.751 Y31.883 E63.5547
G1 X128.456 Y31.702 E63.5720
G1 X128.193 Y31.478 E63.5892
G1 X127.969 Y31.215 E63.6064
G1 X127.788 Y30.921 E63.6236
G1 X127.656 Y30.602 E63.6409
G1 X127.576 Y30.266 E63.6581
G1 X127.549 Y29.930 E63.6749
G1 X127.549 Y15.914 E64.3742
G1 X127.576 Y15.577 E64.3910
G1 X127.656 Y15.242 E64.4083
G1 X127.766 Y14.978 E64.4225
G0 X127.993 Y14.211 F5400
;segType:Loop
G0 X128.305 Y13.764
G1 X128.569 Y13.603 E64.4379 F2400
G1 X128.945 Y13.447 E64.4582
G1 X129.343 Y13.351 E64.4786
G1 X129.726 Y13.321 E64.4978
G1 X130.773 Y13.321 E64.5501
G1 X131.157 Y13.351 E64.5693
G1 X131.554 Y13.447 E64.5896
G1 X131.931 Y13.603 E64.6100
G1 X132.279 Y13.816 E64.6304
G1 X132.590 Y14.082 E64.6507
G1 X132.855 Y14.392 E64.6711
G1 X133.068 Y14.740 E64.6915
G1 X133.225 Y15.118 E64.7119
G1 X133.320 Y15.515 E64.7322
G1 X133.350 Y15.898 E64.7514
G1 X133.350 Y29.945 E65.4522
G1 X133.320 Y30.328 E65.4714
G1 X133.225 Y30.726 E65.4918
G1 X133.068 Y31.103 E65.5122
G1 X132.855 Y31.451 E65.5326
G1 X132.590 Y31.762 E65.5529
G1 X132.279 Y32.027 E65.5733
G1 X131.931 Y32.240 E65.5937
G1 X131.554 Y32.396 E65.6140
G1 X131.157 Y32.492 E65.6344
G1 X130.773 Y32.522 E65.6536
G1 X129.726 Y32.522 E65.7059
G1 X129.343 Y32.492 E65.7250
G1 X128.946 Y32.396 E65.7454
G1 X128.568 Y32.240 E65.7658
G1 X128.220 Y32.027 E65.7862
G1 X127.910 Y31.762 E65.8065
G1 X127.644 Y31.451 E65.8269
G1 X127.431 Y31.103 E65.8473
G1 X127.275 Y30.726 E65.8676
G1 X127.179 Y30.329 E65.8880
G1 X127.149 Y29.945 E65.9072
G1 X127.149 Y15.898 E66.6080
G1 X127.179 Y15.514 E66.6272
G1 X127.275 Y15.117 E66.6476
G1 X127.431 Y14.740 E66.6680
G1 X127.645 Y14.392 E66.6883
G1 X127.909 Y14.082 E66.7087
G0 X128.150 Y14.416 F5400
G0 X128.193 Y14.365
G0 X128.456 Y14.141
G0 X128.751 Y13.960
G0 X129.069 Y13.828
G0 X129.405 Y13.748
G0 X129.742 Y13.721
G0 X130.758 Y13.721
G0 X131.094 Y13.748
G0 X131.430 Y13.828
G0 X131.749 Y13.960
G0 X132.043 Y14.141
G0 X132.306 Y14.365
G0 X132.530 Y14.628
G0 X132.711 Y14.922
G0 X132.843 Y15.242
G0 X132.924 Y15.577
G0 X132.950 Y15.914
G0 X132.950 Y21.091
G0 X132.950 Y21.091
G0 X139.549 Y15.914
G0 X139.549 Y29.930
G0 X139.576 Y30.266
G0 X139.590 Y30.325
G0 X139.590 Y30.325
G0 X139.656 Y30.602
G0 X139.791 Y30.926
G0 X139.969 Y31.215
G0 X140.194 Y31.478
G0 X140.456 Y31.702
G0 X140.678 Y31.838
G0 X140.678 Y31.838
G0 X144.370 Y36.972
;segType:HShell
G0 X144.362 Y36.961
G1 X133.710 Y26.310 E67.4602 F2400
G0 X133.710 Y25.744 F5400
G1 X139.022 Y31.056 E67.8350 F2400
;segType:Perimeter
G0 X139.749 Y31.337 F5400
G1 X139.642 Y30.544 E67.8749 F1440
G1 X139.576 Y30.266 E67.8892
G1 X139.549 Y29.930 E67.9060
G1 X139.549 Y15.914 E68.6053
G1 X139.576 Y15.577 E68.6221
G1 X139.656 Y15.242 E68.6393
G1 X139.789 Y14.922 E68.6566
G1 X139.969 Y14.628 E68.6738
G1 X140.190 Y14.369 E68.6908
G1 X140.456 Y14.141 E68.7083
G1 X140.751 Y13.960 E68.7255
G1 X141.065 Y13.830 E68.7425
G1 X141.405 Y13.748 E68.7599
G1 X141.742 Y13.721 E68.7768
G1 X142.758 Y13.721 E68.8275
G1 X143.094 Y13.748 E68.8443
G1 X143.430 Y13.828 E68.8615
G1 X143.749 Y13.960 E68.8787
G1 X144.044 Y14.141 E68.8960
G1 X144.306 Y14.365 E68.9132
G1 X144.530 Y14.628 E68.9304
G1 X144.711 Y14.922 E68.9477
G1 X144.843 Y15.242 E68.9649
G1 X144.924 Y15.577 E68.9821
G1 X144.950 Y15.914 E68.9990
G1 X144.950 Y29.930 E69.6982
G1 X144.924 Y30.266 E69.7151
G1 X144.843 Y30.602 E69.7323
G1 X144.711 Y30.921 E69.7495
G1 X144.530 Y31.215 E69.7668
G1 X144.306 Y31.478 E69.7840
G1 X144.044 Y31.702 E69.8012
G1 X143.749 Y31.883 E69.8185
G1 X143.430 Y32.015 E69.8357
G1 X143.094 Y32.096 E69.8529
G1 X142.758 Y32.122 E69.8698
G1 X141.742 Y32.122 E69.9204
G1 X141.405 Y32.096 E69.9373
G1 X141.070 Y32.015 E69.9545
G1 X140.751 Y31.883 E69.9717
G1 X140.456 Y31.702 E69.9890
G1 X140.194 Y31.478 E70.0062
G1 X139.969 Y31.215 E70.0234
G1 X139.791 Y30.926 E70.0404
G1 X139.680 Y30.657 E70.0549
G0 X139.298 Y29.954 F5400
;segType:Loop
G0 X139.149 Y29.513
G1 X139.149 Y15.898 E70.7341 F2400
G1 X139.180 Y15.515 E70.7533
G1 X139.275 Y15.118 E70.7737
G1 X139.431 Y14.740 E70.7941
G1 X139.644 Y14.392 E70.8144
G1 X139.906 Y14.086 E70.8345
G1 X140.220 Y13.817 E70.8552
G1 X140.568 Y13.603 E70.8756
G1 X140.940 Y13.449 E70.8956
G1 X141.342 Y13.351 E70.9163
G1 X141.726 Y13.321 E70.9355
G1 X142.773 Y13.321 E70.9877
G1 X143.157 Y13.351 E71.0069
G1 X143.554 Y13.447 E71.0273
G1 X143.931 Y13.603 E71.0476
G1 X144.280 Y13.816 E71.0680
G1 X144.590 Y14.082 E71.0884
G1 X144.855 Y14.392 E71.1088
G1 X145.069 Y14.740 E71.1292
G1 X145.225 Y15.117 E71.1495
G1 X145.320 Y15.514 E71.1699
G1 X145.350 Y15.898 E71.1891
G1 X145.350 Y29.945 E71.8899
G1 X145.320 Y30.329 E71.9091
G1 X145.225 Y30.726 E71.9295
G1 X145.069 Y31.103 E71.9498
G1 X144.855 Y31.451 E71.9702
G1 X144.590 Y31.762 E71.9906
G1 X144.279 Y32.027 E72.0110
G1 X143.931 Y32.240 E72.0313
G1 X143.554 Y32.396 E72.0517
G1 X143.157 Y32.492 E72.0721
G1 X142.773 Y32.522 E72.0913
G1 X141.726 Y32.522 E72.1435
G1 X141.342 Y32.492 E72.1627
G1 X140.946 Y32.396 E72.1831
G1 X140.568 Y32.240 E72.2034
G1 X140.220 Y32.027 E72.2238
G1 X139.910 Y31.762 E72.2442
G1 X139.644 Y31.451 E72.2646
G1 X139.434 Y31.108 E72.2846
G1 X139.275 Y30.726 E72.3053
G1 X139.180 Y30.329 E72.3257
G1 X139.149 Y29.945 E72.3449
G1 X139.149 Y29.713 E72.3565
;segType:HShell
G0 X138.815 Y30.283 F5400
G1 X133.710 Y25.178 E72.7166 F2400
G0 X133.710 Y24.612 F5400
G1 X138.789 Y29.692 E73.0750 F2400
G0 X138.789 Y29.126 F5400
G1 X133.710 Y24.047 E73.4334 F2400
G0 X133.710 Y23.481 F5400
G1 X138.789 Y28.560 E73.7917 F2400
G0 X138.789 Y27.995 F5400
G1 X133.710 Y22.915 E74.1501 F2400
G0 X133.710 Y22.350 F5400
G1 X138.789 Y27.429 E74.5084 F2400
G0 X138.789 Y26.863 F5400
G1 X133.710 Y21.784 E74.8668 F2400
G0 X133.710 Y21.218 F5400
G1 X138.789 Y26.298 E75.2252 F2400
G0 X138.789 Y25.732 F5400
G1 X133.710 Y20.653 E75.5835 F2400
G0 X133.710 Y20.087 F5400
G1 X138.789 Y25.166 E75.9419 F2400
G0 X138.789 Y24.600 F5400
G1 X133.710 Y19.521 E76.3002 F2400
G0 X133.710 Y18.956 F5400
G1 X138.789 Y24.035 E76.6586 F2400
G0 X138.789 Y23.469 F5400
G1 X133.710 Y18.390 E77.0170 F2400
G0 X133.710 Y17.824 F5400
G1 X138.789 Y22.903 E77.3753 F2400
G0 X138.789 Y22.338 F5400
G1 X133.710 Y17.259 E77.7337 F2400
G0 X133.710 Y16.693 F5400
G1 X138.789 Y21.772 E78.0920 F2400
G0 X138.789 Y21.206 F5400
G1 X133.710 Y16.127 E78.4504 F2400
G0 X133.683 Y15.534 F5400
G1 X138.789 Y20.641 E78.8107 F2400
G0 X138.789 Y20.075 F5400
G1 X133.461 Y14.746 E79.1867 F2400
G0 X133.710 Y26.875 F5400
G1 X143.796 Y36.961 E79.8983 F2400
G0 X143.230 Y36.961 F5400
G1 X133.710 Y27.441 E80.5700 F2400
G0 X133.710 Y28.007 F5400
G1 X142.665 Y36.961 E81.2018 F2400
G0 X142.099 Y36.961 F5400
G1 X133.710 Y28.572 E81.7937 F2400
G0 X133.710 Y29.138 F5400
G1 X141.533 Y36.961 E82.3456 F2400
G0 X140.968 Y36.961 F5400
G1 X133.710 Y29.704 E82.8577 F2400
G0 X133.688 Y30.247 F5400
G1 X140.402 Y36.961 E83.3314 F2400
G0 X139.836 Y36.961 F5400
G1 X133.596 Y30.721 E83.7717 F2400
G0 X133.445 Y31.135 F5400
G1 X139.271 Y36.961 E84.1828 F2400
G0 X138.705 Y36.961 F5400
G1 X133.246 Y31.502 E84.5679 F2400
G0 X133.006 Y31.828 F5400
G1 X138.139 Y36.961 E84.9301 F2400
G0 X137.574 Y36.961 F5400
G1 X132.729 Y32.117 E85.2719 F2400
G0 X132.414 Y32.367 F5400
G1 X137.008 Y36.961 E85.5961 F2400
G0 X136.442 Y36.961 F5400
G1 X132.058 Y32.577 E85.9054 F2400
G0 X131.657 Y32.742 F5400
G1 X135.877 Y36.961 E86.2030 F2400
G0 X135.311 Y36.961 F5400
G1 X131.199 Y32.850 E86.4931 F2400
G0 X130.666 Y32.882 F5400
G1 X134.745 Y36.961 E86.7809 F2400
G0 X134.179 Y36.961 F5400
G1 X130.100 Y32.882 E87.0687 F2400
G0 X129.520 Y32.867 F5400
G1 X133.614 Y36.961 E87.3576 F2400
G0 X133.048 Y36.961 F5400
G1 X128.822 Y32.735 E87.6558 F2400
G0 X128.390 Y37.321 F5400
G0 X125.226 Y37.321
G0 X124.843 Y37.351
G0 X124.445 Y37.447
G0 X124.063 Y37.606
G0 X123.720 Y37.816
G0 X123.409 Y38.082
G0 X123.145 Y38.392
G0 X122.931 Y38.740
G0 X122.775 Y39.118
G0 X122.679 Y39.514
G0 X122.649 Y39.898
G0 X122.649 Y88.117
G0 X123.314 Y89.033
G0 X123.484 Y89.380
G0 X123.484 Y89.380
G0 X123.413 Y90.132
G0 X123.414 Y90.119
G1 X114.210 Y80.915 E88.3052 F2400
G0 X114.210 Y81.480 F5400
G1 X123.616 Y90.886 E88.9688 F2400
G0 X123.690 Y91.526 F5400
G1 X114.210 Y82.046 E89.6376 F2400
G0 X114.210 Y82.612 F5400
G1 X123.667 Y92.069 E90.3049 F2400
G0 X123.607 Y92.574 F5400
G1 X114.210 Y83.177 E90.9679 F2400
G0 X114.210 Y83.743 F5400
G1 X123.502 Y93.034 E91.6234 F2400
G0 X123.356 Y93.455 F5400
G1 X114.210 Y84.309 E92.2687 F2400
G0 X114.210 Y84.874 F5400
G1 X123.189 Y93.853 E92.9023 F2400
G0 X122.983 Y94.212 F5400
G1 X114.210 Y85.440 E93.5212 F2400
G0 X114.210 Y86.006 F5400
G1 X122.763 Y94.558 E94.1246 F2400
G0 X122.506 Y94.867 F5400
G1 X114.210 Y86.571 E94.7099 F2400
G0 X114.210 Y87.137 F5400
G1 X122.237 Y95.164 E95.2763 F2400
G0 X121.935 Y95.427 F5400
G1 X114.210 Y87.703 E95.8213 F2400
G0 X114.196 Y88.254 F5400
G1 X121.617 Y95.675 E96.3449 F2400
G0 X121.267 Y95.891 F5400
G1 X113.958 Y88.582 E96.8606 F2400
G0 X113.720 Y88.909 F5400
G1 X120.899 Y96.088 E97.3672 F2400
G0 X120.494 Y96.249 F5400
G1 X113.485 Y89.240 E97.8617 F2400
G0 X113.299 Y89.620 F5400
G1 X120.069 Y96.390 E98.3394 F2400
G0 X119.590 Y96.477 F5400
G1 X113.118 Y90.005 E98.7960 F2400
G0 X112.990 Y90.442 F5400
G1 X119.086 Y96.538 E99.2261 F2400
G0 X118.508 Y96.526 F5400
G1 X112.882 Y90.900 E99.6230 F2400
G0 X112.823 Y91.407 F5400
G1 X117.944 Y96.527 E99.9843 F2400
G0 X117.389 Y96.538 F5400
G1 X112.827 Y91.976 E100.3062 F2400
G0 X112.901 Y92.616 F5400
G1 X116.736 Y96.451 E100.5767 F2400
G0 X115.949 Y96.230 F5400
G1 X113.121 Y93.402 E100.7763 F2400
G0 X113.781 Y94.628 F5400
G1 X114.640 Y95.486 E100.8369 F2400
G0 X114.210 Y80.349 F5400
G1 X122.802 Y88.940 E101.4430 F2400
G0 X122.289 Y87.862 F5400
G1 X114.210 Y79.783 E102.0130 F2400
G0 X114.210 Y79.217 F5400
G1 X122.289 Y87.296 E102.5830 F2400
G0 X122.289 Y86.731 F5400
G1 X114.210 Y78.652 E103.1531 F2400
G0 X114.210 Y78.086 F5400
G1 X122.289 Y86.165 E103.7231 F2400
G0 X122.289 Y85.599 F5400
G1 X114.210 Y77.520 E104.2931 F2400
G0 X114.210 Y76.955 F5400
G1 X122.289 Y85.034 E104.8631 F2400
G0 X122.289 Y84.468 F5400
G1 X114.210 Y76.389 E105.4331 F2400
G0 X114.210 Y75.823 F5400
G1 X122.289 Y83.902 E106.0031 F2400
G0 X122.289 Y83.336 F5400
G1 X114.210 Y75.258 E106.5731 F2400
G0 X114.210 Y74.692 F5400
G1 X122.289 Y82.771 E107.1431 F2400
G0 X122.289 Y82.205 F5400
G1 X114.210 Y74.126 E107.7131 F2400
G0 X114.210 Y73.561 F5400
G1 X122.289 Y81.639 E108.2831 F2400
G0 X122.289 Y81.074 F5400
G1 X114.210 Y72.995 E108.8531 F2400
G0 X114.210 Y72.429 F5400
G1 X122.289 Y80.508 E109.4231 F2400
G0 X122.289 Y79.942 F5400
G1 X114.210 Y71.864 E109.9931 F2400
G0 X114.210 Y71.298 F5400
G1 X122.289 Y79.377 E110.5632 F2400
G0 X122.289 Y78.811 F5400
G1 X114.210 Y70.732 E111.1332 F2400
G0 X114.210 Y70.166 F5400
G1 X122.289 Y78.245 E111.7032 F2400
G0 X122.289 Y77.680 F5400
G1 X114.210 Y69.601 E112.2732 F2400
G0 X114.210 Y69.035 F5400
G1 X122.289 Y77.114 E112.8432 F2400
G0 X122.289 Y76.548 F5400
G1 X114.210 Y68.469 E113.4132 F2400
G0 X114.210 Y67.904 F5400
G1 X122.289 Y75.983 E113.9832 F2400
G0 X122.289 Y75.417 F5400
G1 X114.210 Y67.338 E114.5532 F2400
G0 X114.210 Y66.772 F5400
G1 X122.289 Y74.851 E115.1232 F2400
G0 X122.289 Y74.286 F5400
G1 X114.210 Y66.207 E115.6932 F2400
G0 X114.210 Y65.641 F5400
G1 X122.289 Y73.720 E116.2632 F2400
G0 X122.289 Y73.154 F5400
G1 X114.210 Y65.075 E116.8332 F2400
G0 X114.210 Y64.510 F5400
G1 X122.289 Y72.588 E117.4032 F2400
G0 X122.289 Y72.023 F5400
G1 X114.210 Y63.944 E117.9732 F2400
G0 X114.210 Y63.378 F5400
G1 X122.289 Y71.457 E118.5433 F2400
G0 X122.289 Y70.891 F5400
G1 X114.210 Y62.813 E119.1133 F2400
G0 X114.210 Y62.247 F5400
G1 X122.289 Y70.326 E119.6833 F2400
G0 X122.289 Y69.760 F5400
G1 X114.210 Y61.681 E120.2533 F2400
G0 X114.210 Y61.116 F5400
G1 X122.289 Y69.194 E120.8233 F2400
G0 X122.289 Y68.629 F5400
G1 X114.210 Y60.550 E121.3933 F2400
G0 X114.210 Y59.984 F5400
G1 X122.289 Y68.063 E121.9633 F2400
G0 X122.289 Y67.497 F5400
G1 X114.210 Y59.418 E122.5333 F2400
G0 X114.210 Y58.853 F5400
G1 X122.289 Y66.932 E123.1033 F2400
G0 X122.289 Y66.366 F5400
G1 X114.210 Y58.287 E123.6733 F2400
G0 X114.210 Y57.721 F5400
G1 X122.289 Y65.800 E124.2433 F2400
G0 X122.289 Y65.235 F5400
G1 X114.210 Y57.156 E124.8133 F2400
G0 X114.210 Y56.590 F5400
G1 X122.289 Y64.669 E125.3833 F2400
G0 X122.289 Y64.103 F5400
G1 X114.210 Y56.024 E125.9534 F2400
G0 X114.210 Y55.459 F5400
G1 X122.289 Y63.537 E126.5234 F2400
G0 X122.289 Y62.972 F5400
G1 X114.210 Y54.893 E127.0934 F2400
G0 X114.210 Y54.327 F5400
G1 X122.289 Y62.406 E127.6634 F2400
G0 X122.289 Y61.840 F5400
G1 X114.210 Y53.762 E128.2334 F2400
G0 X114.210 Y53.196 F5400
G1 X122.289 Y61.275 E128.8034 F2400
G0 X122.289 Y60.709 F5400
G1 X114.210 Y52.630 E129.3734 F2400
G0 X114.210 Y52.065 F5400
G1 X122.289 Y60.143 E129.9434 F2400
G0 X122.289 Y59.578 F5400
G1 X114.210 Y51.499 E130.5134 F2400
G0 X114.210 Y50.933 F5400
G1 X122.289 Y59.012 E131.0834 F2400
G0 X122.289 Y58.446 F5400
G1 X114.210 Y50.367 E131.6534 F2400
G0 X114.210 Y49.802 F5400
G1 X122.289 Y57.881 E132.2234 F2400
G0 X122.289 Y57.315 F5400
G1 X114.210 Y49.236 E132.7934 F2400
G0 X114.210 Y48.670 F5400
G1 X122.289 Y56.749 E133.3634 F2400
G0 X122.289 Y56.184 F5400
G1 X114.210 Y48.105 E133.9334 F2400
G0 X114.210 Y47.539 F5400
G1 X122.289 Y55.618 E134.5035 F2400
G0 X122.289 Y55.052 F5400
G1 X114.210 Y46.973 E135.0735 F2400
G0 X114.210 Y46.408 F5400
G1 X122.289 Y54.487 E135.6435 F2400
G0 X122.289 Y53.921 F5400
G1 X114.210 Y45.842 E136.2135 F2400
G0 X114.210 Y45.276 F5400
G1 X122.289 Y53.355 E136.7835 F2400
G0 X122.289 Y52.789 F5400
G1 X114.210 Y44.711 E137.3535 F2400
G0 X114.210 Y44.145 F5400
G1 X122.289 Y52.224 E137.9235 F2400
G0 X122.289 Y51.658 F5400
G1 X114.210 Y43.579 E138.4935 F2400
G0 X114.210 Y43.014 F5400
G1 X122.289 Y51.092 E139.0635 F2400
G0 X122.289 Y50.527 F5400
G1 X114.210 Y42.448 E139.6335 F2400
G0 X114.210 Y41.882 F5400
G1 X122.289 Y49.961 E140.2035 F2400
G0 X122.289 Y49.395 F5400
G1 X114.210 Y41.317 E140.7735 F2400
G0 X114.210 Y40.751 F5400
G1 X122.289 Y48.830 E141.3435 F2400
G0 X122.289 Y48.264 F5400
G1 X114.210 Y40.185 E141.9135 F2400
G0 X114.188 Y39.597 F5400
G1 X122.289 Y47.698 E142.4851 F2400
G0 X122.289 Y47.133 F5400
G1 X114.002 Y38.845 E143.0699 F2400
G0 X112.326 Y37.170 F5400
G1 X107.829 Y32.672 E143.3872 F2400
G0 X107.396 Y32.805 F5400
G1 X111.575 Y36.984 E143.6820 F2400
G0 X110.986 Y36.961 F5400
G1 X106.899 Y32.873 E143.9704 F2400
G0 X106.342 Y32.882 F5400
G1 X110.421 Y36.961 E144.2582 F2400
G0 X109.855 Y36.961 F5400
G1 X105.776 Y32.882 E144.5460 F2400
G0 X105.142 Y32.814 F5400
G1 X109.289 Y36.961 E144.8386 F2400
G0 X108.724 Y36.961 F5400
G1 X104.198 Y32.436 E145.1579 F2400
G0 X107.592 Y36.961 F5400
G1 X97.710 Y27.079 E145.8552 F2400
G0 X97.710 Y27.645 F5400
G1 X107.027 Y36.961 E146.5125 F2400
G0 X106.461 Y36.961 F5400
G1 X97.710 Y28.210 E147.1299 F2400
G0 X97.710 Y28.776 F5400
G1 X105.895 Y36.961 E147.7074 F2400
G0 X105.330 Y36.961 F5400
G1 X97.710 Y29.342 E148.2450 F2400
G0 X97.710 Y29.908 F5400
G1 X104.764 Y36.961 E148.7427 F2400
G0 X104.198 Y36.961 F5400
G1 X97.666 Y30.429 E149.2035 F2400
G0 X97.551 Y30.880 F5400
G1 X103.632 Y36.961 E149.6326 F2400
G0 X103.067 Y36.961 F5400
G1 X97.383 Y31.278 E150.0336 F2400
G0 X97.169 Y31.629 F5400
G1 X102.501 Y36.961 E150.4098 F2400
G0 X101.935 Y36.961 F5400
G1 X96.913 Y31.938 E150.7642 F2400
G0 X96.619 Y32.210 F5400
G1 X101.370 Y36.961 E151.0994 F2400
G0 X100.804 Y36.961 F5400
G1 X96.287 Y32.444 E151.4181 F2400
G0 X95.914 Y32.637 F5400
G1 X100.238 Y36.961 E151.7232 F2400
G0 X99.673 Y36.961 F5400
G1 X95.493 Y32.782 E152.0181 F2400
G0 X95.010 Y32.865 F5400
G1 X99.107 Y36.961 E152.3071 F2400
G0 X98.541 Y36.961 F5400
G1 X94.462 Y32.882 E152.5949 F2400
G0 X93.897 Y32.882 F5400
G1 X97.976 Y36.961 E152.8827 F2400
G0 X97.410 Y36.961 F5400
G1 X93.298 Y32.850 E153.1728 F2400
G0 X92.474 Y32.591 F5400
G1 X96.844 Y36.961 E153.4811 F2400
G0 X96.279 Y36.961 F5400
G1 X84.210 Y24.893 E154.3326 F2400
G0 X84.210 Y25.459 F5400
G1 X95.713 Y36.961 E155.1442 F2400
G0 X95.147 Y36.961 F5400
G1 X84.210 Y26.024 E155.9159 F2400
G0 X84.210 Y26.590 F5400
G1 X94.581 Y36.961 E156.6476 F2400
G0 X94.016 Y36.961 F5400
G1 X84.210 Y27.156 E157.3395 F2400
G0 X84.210 Y27.721 F5400
G1 X93.450 Y36.961 E157.9914 F2400
G0 X92.884 Y36.961 F5400
G1 X84.210 Y28.287 E158.6034 F2400
G0 X84.210 Y28.853 F5400
G1 X92.319 Y36.961 E159.1755 F2400
G0 X91.753 Y36.961 F5400
G1 X84.210 Y29.418 E159.7077 F2400
G0 X84.210 Y29.984 F5400
G1 X91.187 Y36.961 E160.2000 F2400
G0 X90.622 Y36.961 F5400
G1 X84.210 Y30.550 E160.6524 F2400
G0 X84.210 Y31.115 F5400
G1 X90.056 Y36.961 E161.0648 F2400
G0 X89.490 Y36.961 F5400
G1 X84.210 Y31.681 E161.4374 F2400
G0 X84.210 Y32.247 F5400
G1 X88.925 Y36.961 E161.7700 F2400
G0 X88.359 Y36.961 F5400
G1 X84.210 Y32.812 E162.0628 F2400
G0 X84.210 Y33.378 F5400
G1 X87.793 Y36.961 E162.3156 F2400
G0 X87.228 Y36.961 F5400
G1 X84.210 Y33.944 E162.5284 F2400
G0 X84.210 Y34.509 F5400
G1 X86.662 Y36.961 E162.7014 F2400
G0 X86.096 Y36.961 F5400
G1 X84.210 Y35.075 E162.8345 F2400
G0 X84.210 Y35.641 F5400
G1 X85.531 Y36.961 E162.9277 F2400
G0 X84.965 Y36.961 F5400
G1 X84.210 Y36.207 E162.9809 F2400
G0 X84.210 Y24.327 F5400
G1 X91.080 Y31.197 E163.4656 F2400
G0 X90.822 Y30.373 F5400
G1 X84.210 Y23.761 E163.9321 F2400
G0 X84.210 Y23.196 F5400
G1 X90.789 Y29.775 E164.3963 F2400
G0 X90.789 Y29.209 F5400
G1 X84.210 Y22.630 E164.8605 F2400
G0 X84.210 Y22.064 F5400
G1 X90.789 Y28.643 E165.3247 F2400
G0 X90.789 Y28.078 F5400
G1 X84.210 Y21.499 E165.7889 F2400
G0 X84.210 Y20.933 F5400
G1 X90.789 Y27.512 E166.2531 F2400
G0 X90.789 Y26.946 F5400
G1 X84.210 Y20.367 E166.7172 F2400
G0 X84.210 Y19.802 F5400
G1 X90.789 Y26.381 E167.1814 F2400
G0 X90.789 Y25.815 F5400
G1 X84.210 Y19.236 E167.6456 F2400
G0 X84.210 Y18.670 F5400
G1 X90.789 Y25.249 E168.1098 F2400
G0 X90.789 Y24.684 F5400
G1 X84.210 Y18.105 E168.5740 F2400
G0 X84.210 Y17.539 F5400
G1 X90.789 Y24.118 E169.0382 F2400
G0 X90.789 Y23.552 F5400
G1 X84.210 Y16.973 E169.5024 F2400
G0 X84.210 Y16.408 F5400
G1 X90.789 Y22.987 E169.9666 F2400
G0 X90.789 Y22.421 F5400
G1 X84.210 Y15.842 E170.4307 F2400
G0 X84.210 Y15.276 F5400
G1 X90.789 Y21.855 E170.8949 F2400
G0 X90.789 Y21.289 F5400
G1 X84.210 Y14.710 E171.3591 F2400
G0 X84.210 Y14.145 F5400
G1 X90.789 Y20.724 E171.8233 F2400
G0 X90.789 Y20.158 F5400
G1 X84.210 Y13.579 E172.2875 F2400
G0 X84.210 Y13.013 F5400
G1 X90.789 Y19.592 E172.7517 F2400
G0 X90.789 Y19.027 F5400
G1 X84.210 Y12.448 E173.2159 F2400
G0 X84.210 Y11.882 F5400
G1 X90.789 Y18.461 E173.6801 F2400
G0 X90.789 Y17.895 F5400
G1 X84.210 Y11.316 E174.1442 F2400
G0 X84.210 Y10.751 F5400
G1 X90.789 Y17.330 E174.6084 F2400
G0 X90.789 Y16.764 F5400
G1 X84.210 Y10.185 E175.0726 F2400
G0 X85.736 Y8.882 F5400
G1 X91.231 Y14.377 E175.4603 F2400
G0 X91.466 Y14.047 F5400
G1 X86.301 Y8.882 E175.8247 F2400
G0 X86.867 Y8.882 F5400
G1 X91.739 Y13.754 E176.1684 F2400
G0 X92.049 Y13.499 F5400
G1 X87.433 Y8.882 E176.4942 F2400
G0 X87.998 Y8.882 F5400
G1 X92.400 Y13.284 E176.8047 F2400
G0 X92.800 Y13.118 F5400
G1 X88.564 Y8.882 E177.1036 F2400
G0 X89.130 Y8.882 F5400
G1 X93.251 Y13.003 E177.3943 F2400
G0 X93.775 Y12.961 F5400
G1 X89.695 Y8.882 E177.6821 F2400
G0 X90.261 Y8.882 F5400
G1 X94.340 Y12.961 E177.9699 F2400
G0 X94.916 Y12.971 F5400
G1 X90.827 Y8.882 E178.2584 F2400
G0 X91.393 Y8.882 F5400
G1 X95.597 Y13.087 E178.5551 F2400
G0 X91.958 Y8.882 F5400
G1 X102.789 Y19.713 E179.3193 F2400
G0 X102.789 Y19.148 F5400
G1 X92.524 Y8.882 E180.0436 F2400
G0 X93.090 Y8.882 F5400
G1 X102.789 Y18.582 E180.7279 F2400
G0 X102.789 Y18.016 F5400
G1 X93.655 Y8.882 E181.3724 F2400
G0 X94.221 Y8.882 F5400
G1 X102.789 Y17.450 E181.9769 F2400
G0 X102.789 Y16.885 F5400
G1 X94.787 Y8.882 E182.5416 F2400
G0 X95.352 Y8.882 F5400
G1 X102.789 Y16.319 E183.0663 F2400
G0 X102.799 Y15.763 F5400
G1 X95.918 Y8.882 E183.5517 F2400
G0 X96.484 Y8.882 F5400
G1 X102.869 Y15.267 E184.0022 F2400
G0 X103.002 Y14.835 F5400
G1 X97.049 Y8.882 E184.4222 F2400
G0 X97.615 Y8.882 F5400
G1 X103.185 Y14.452 E184.8152 F2400
G0 X103.410 Y14.112 F5400
G1 X98.181 Y8.882 E185.1842 F2400
G0 X98.746 Y8.882 F5400
G1 X103.674 Y13.810 E185.5319 F2400
G0 X103.979 Y13.549 F5400
G1 X99.312 Y8.882 E185.8612 F2400
G0 X99.878 Y8.882 F5400
G1 X104.325 Y13.330 E186.1749 F2400
G0 X104.714 Y13.153 F5400
G1 X100.443 Y8.882 E186.4763 F2400
G0 X101.009 Y8.882 F5400
G1 X105.154 Y13.027 E186.7687 F2400
G0 X105.658 Y12.965 F5400
G1 X101.575 Y8.882 E187.0568 F2400
G0 X102.141 Y8.882 F5400
G1 X106.220 Y12.961 E187.3446 F2400
G0 X106.785 Y12.961 F5400
G1 X102.706 Y8.882 E187.6324 F2400
G0 X103.272 Y8.882 F5400
G1 X107.439 Y13.049 E187.9264 F2400
G0 X108.460 Y13.505 F5400
G1 X103.838 Y8.882 E188.2525 F2400
G0 X104.403 Y8.882 F5400
G1 X114.789 Y19.268 E188.9853 F2400
G0 X114.789 Y18.702 F5400
G1 X104.969 Y8.882 E189.6782 F2400
G0 X105.535 Y8.882 F5400
G1 X114.789 Y18.137 E190.3311 F2400
G0 X114.789 Y17.571 F5400
G1 X106.100 Y8.882 E190.9442 F2400
G0 X106.666 Y8.882 F5400
G1 X114.789 Y17.005 E191.5173 F2400
G0 X114.789 Y16.440 F5400
G1 X107.232 Y8.882 E192.0505 F2400
G0 X107.797 Y8.882 F5400
G1 X114.790 Y15.875 E192.5439 F2400
G0 X114.845 Y15.364 F5400
G1 X108.363 Y8.882 E193.0012 F2400
G0 X108.929 Y8.882 F5400
G1 X114.967 Y14.920 E193.4273 F2400
G0 X115.139 Y14.527 F5400
G1 X109.494 Y8.882 E193.8255 F2400
G0 X110.060 Y8.882 F5400
G1 X115.355 Y14.177 E194.1991 F2400
G0 X115.615 Y13.872 F5400
G1 X110.626 Y8.882 E194.5511 F2400
G0 X111.192 Y8.882 F5400
G1 X115.914 Y13.604 E194.8843 F2400
G0 X109.710 Y25.503 F5400
G1 X114.895 Y30.688 E195.2501 F2400
G0 X114.794 Y30.021 F5400
G1 X109.710 Y24.937 E195.6088 F2400
G0 X109.710 Y24.371 F5400
G1 X114.789 Y29.450 E195.9672 F2400
G0 X114.789 Y28.885 F5400
G1 X109.710 Y23.806 E196.3255 F2400
G0 X109.710 Y23.240 F5400
G1 X114.789 Y28.319 E196.6838 F2400
G0 X114.789 Y27.753 F5400
G1 X109.710 Y22.674 E197.0422 F2400
G0 X109.710 Y22.109 F5400
G1 X114.789 Y27.188 E197.4005 F2400
G0 X114.789 Y26.622 F5400
G1 X109.710 Y21.543 E197.7588 F2400
G0 X109.710 Y20.977 F5400
G1 X114.789 Y26.056 E198.1172 F2400
G0 X114.789 Y25.491 F5400
G1 X109.710 Y20.412 E198.4755 F2400
G0 X109.710 Y19.846 F5400
G1 X114.789 Y24.925 E198.8339 F2400
G0 X114.789 Y24.359 F5400
G1 X109.710 Y19.280 E199.1922 F2400
G0 X109.710 Y18.715 F5400
G1 X114.789 Y23.794 E199.5505 F2400
G0 X114.789 Y23.228 F5400
G1 X109.710 Y18.149 E199.9089 F2400
G0 X109.710 Y17.583 F5400
G1 X114.789 Y22.662 E200.2672 F2400
G0 X114.789 Y22.096 F5400
G1 X109.710 Y17.018 E200.6255 F2400
G0 X109.710 Y16.452 F5400
G1 X114.789 Y21.531 E200.9839 F2400
G0 X114.789 Y20.965 F5400
G1 X109.710 Y15.886 E201.3422 F2400
G0 X109.623 Y15.233 F5400
G1 X114.789 Y20.399 E201.7067 F2400
G0 X114.789 Y19.834 F5400
G1 X109.166 Y14.211 E202.1035 F2400
G0 X108.728 Y14.243 F5400
G0 X108.590 Y14.082
G0 X108.279 Y13.816
G0 X107.931 Y13.603
G0 X107.554 Y13.447
G0 X107.157 Y13.351
G0 X106.773 Y13.321
G0 X105.726 Y13.321
G0 X105.342 Y13.351
G0 X104.940 Y13.449
G0 X104.568 Y13.603
G0 X104.220 Y13.817
G0 X103.906 Y14.086
G0 X103.644 Y14.392
G0 X103.497 Y14.633
G0 X103.497 Y14.633
G0 X97.571 Y15.075
G0 X97.585 Y15.074
G1 X102.789 Y20.279 E202.4707 F2400
G0 X102.789 Y20.845 F5400
G1 X97.700 Y15.755 E202.8297 F2400
G0 X97.710 Y16.331 F5400
G1 X102.789 Y21.410 E203.1881 F2400
G0 X102.789 Y21.976 F5400
G1 X97.710 Y16.897 E203.5465 F2400
G0 X97.710 Y17.462 F5400
G1 X102.789 Y22.542 E203.9049 F2400
G0 X102.789 Y23.107 F5400
G1 X97.710 Y18.028 E204.2632 F2400
G0 X97.710 Y18.594 F5400
G1 X102.789 Y23.673 E204.6216 F2400
G0 X102.789 Y24.239 F5400
G1 X97.710 Y19.160 E204.9800 F2400
G0 X97.710 Y19.725 F5400
G1 X102.789 Y24.804 E205.3383 F2400
G0 X102.789 Y25.370 F5400
G1 X97.710 Y20.291 E205.6967 F2400
G0 X97.710 Y20.857 F5400
G1 X102.789 Y25.936 E206.0551 F2400
G0 X102.789 Y26.501 F5400
G1 X97.710 Y21.422 E206.4134 F2400
G0 X97.710 Y21.988 F5400
G1 X102.789 Y27.067 E206.7718 F2400
G0 X102.789 Y27.633 F5400
G1 X97.710 Y22.554 E207.1302 F2400
G0 X97.710 Y23.119 F5400
G1 X102.789 Y28.198 E207.4885 F2400
G0 X102.789 Y28.764 F5400
G1 X97.710 Y23.685 E207.8469 F2400
G0 X97.710 Y24.251 F5400
G1 X102.789 Y29.330 E208.2053 F2400
G0 X102.789 Y29.896 F5400
G1 X97.710 Y24.816 E208.5636 F2400
G0 X97.710 Y25.382 F5400
G1 X102.857 Y30.529 E208.9268 F2400
G0 X103.263 Y30.678 F5400
G0 X103.275 Y30.726
G0 X103.434 Y31.108
G0 X103.645 Y31.452
G0 X103.910 Y31.762
G0 X104.220 Y32.027
G0 X104.568 Y32.240
G0 X104.946 Y32.396
G0 X105.343 Y32.492
G0 X105.726 Y32.522
G0 X106.773 Y32.522
G0 X107.157 Y32.492
G0 X107.554 Y32.396
G0 X107.743 Y32.318
G0 X107.743 Y32.318
G0 X108.225 Y32.495
G0 X108.212 Y32.490
G1 X122.289 Y46.567 E209.9200 F2400
G0 X122.289 Y46.001 F5400
G1 X108.554 Y32.266 E210.8891 F2400
G0 X108.857 Y32.003 F5400
G1 X122.289 Y45.436 E211.8368 F2400
G0 X122.289 Y44.870 F5400
G1 X109.118 Y31.698 E212.7661 F2400
G0 X109.338 Y31.353 F5400
G1 X122.289 Y44.304 E213.6799 F2400
G0 X122.289 Y43.739 F5400
G1 X109.515 Y30.965 E214.5812 F2400
G0 X109.643 Y30.527 F5400
G1 X122.289 Y43.173 E215.4734 F2400
G0 X122.289 Y42.607 F5400
G1 X109.705 Y30.023 E216.3613 F2400
G0 X109.710 Y29.463 F5400
G1 X122.289 Y42.041 E217.2488 F2400
G0 X122.289 Y41.476 F5400
G1 X109.710 Y28.897 E218.1363 F2400
G0 X109.710 Y28.331 F5400
G1 X122.289 Y40.910 E219.0238 F2400
G0 X122.289 Y40.344 F5400
G1 X109.710 Y27.766 E219.9113 F2400
G0 X109.710 Y27.200 F5400
G1 X122.297 Y39.786 E220.7993 F2400
G0 X122.364 Y39.287 F5400
G1 X109.710 Y26.634 E221.6921 F2400
G0 X109.710 Y26.069 F5400
G1 X115.626 Y31.985 E222.1095 F2400
G0 X115.687 Y32.045 F5400
G1 X122.495 Y38.853 E222.5898 F2400
G0 X122.675 Y38.468 F5400
G1 X116.983 Y32.776 E222.9914 F2400
G0 X117.651 Y32.877 F5400
G1 X122.899 Y38.125 E223.3617 F2400
G0 X123.160 Y37.821 F5400
G1 X118.221 Y32.882 E223.7102 F2400
G0 X118.787 Y32.882 F5400
G1 X123.465 Y37.561 E224.0403 F2400
G0 X123.809 Y37.339 F5400
G1 X119.299 Y32.828 E224.3585 F2400
G0 X119.744 Y32.708 F5400
G1 X124.196 Y37.160 E224.6727 F2400
G0 X124.633 Y37.031 F5400
G1 X120.138 Y32.536 E224.9899 F2400
G0 X120.488 Y32.321 F5400
G1 X125.135 Y36.967 E225.3177 F2400
G0 X125.694 Y36.961 F5400
G1 X120.794 Y32.061 E225.6634 F2400
G0 X121.062 Y31.763 F5400
G1 X126.260 Y36.961 E226.0302 F2400
G0 X126.826 Y36.961 F5400
G1 X121.292 Y31.428 E226.4206 F2400
G0 X121.480 Y31.050 F5400
G1 X127.391 Y36.961 E226.8377 F2400
G0 X127.957 Y36.961 F5400
G1 X121.619 Y30.624 E227.2848 F2400
G0 X121.696 Y30.135 F5400
G1 X128.523 Y36.961 E227.7664 F2400
G0 X129.088 Y36.961 F5400
G1 X121.710 Y29.583 E228.2870 F2400
G0 X121.710 Y29.017 F5400
G1 X129.654 Y36.961 E228.8475 F2400
G0 X130.220 Y36.961 F5400
G1 X121.710 Y28.452 E229.4479 F2400
G0 X121.710 Y27.886 F5400
G1 X130.785 Y36.961 E230.0882 F2400
G0 X131.351 Y36.961 F5400
G1 X121.710 Y27.320 E230.7684 F2400
G0 X121.710 Y26.755 F5400
G1 X131.917 Y36.961 E231.4885 F2400
G0 X132.482 Y36.961 F5400
G1 X121.710 Y26.189 E232.2485 F2400
G0 X121.710 Y25.623 F5400
G1 X126.936 Y30.849 E232.6173 F2400
G0 X126.804 Y30.152 F5400
G1 X121.710 Y25.058 E232.9767 F2400
G0 X121.710 Y24.492 F5400
G1 X126.789 Y29.571 E233.3350 F2400
G0 X126.789 Y29.005 F5400
G1 X121.710 Y23.926 E233.6933 F2400
G0 X121.710 Y23.361 F5400
G1 X126.789 Y28.440 E234.0517 F2400
G0 X126.789 Y27.874 F5400
G1 X121.710 Y22.795 E234.4100 F2400
G0 X121.710 Y22.229 F5400
G1 X126.789 Y27.308 E234.7684 F2400
G0 X126.789 Y26.742 F5400
G1 X121.710 Y21.664 E235.1267 F2400
G0 X121.710 Y21.098 F5400
G1 X126.789 Y26.177 E235.4850 F2400
G0 X126.789 Y25.611 F5400
G1 X121.710 Y20.532 E235.8434 F2400
G0 X121.710 Y19.967 F5400
G1 X126.789 Y25.045 E236.2017 F2400
G0 X126.789 Y24.480 F5400
G1 X121.710 Y19.401 E236.5600 F2400
G0 X121.710 Y18.835 F5400
G1 X126.789 Y23.914 E236.9184 F2400
G0 X126.789 Y23.348 F5400
G1 X121.710 Y18.269 E237.2767 F2400
G0 X121.710 Y17.704 F5400
G1 X126.789 Y22.783 E237.6351 F2400
G0 X126.789 Y22.217 F5400
G1 X121.710 Y17.138 E237.9934 F2400
G0 X121.710 Y16.572 F5400
G1 X126.789 Y21.651 E238.3517 F2400
G0 X126.789 Y21.086 F5400
G1 X121.710 Y16.007 E238.7101 F2400
G0 X121.661 Y15.392 F5400
G1 X126.789 Y20.520 E239.0719 F2400
G0 X126.789 Y19.954 F5400
G1 X121.357 Y14.522 E239.4552 F2400
G0 X120.149 Y13.314 F5400
G1 X115.717 Y8.882 E239.7679 F2400
G0 X115.151 Y8.882 F5400
G1 X119.280 Y13.011 E240.0591 F2400
G0 X118.665 Y12.961 F5400
G1 X114.586 Y8.882 E240.3469 F2400
G0 X114.020 Y8.882 F5400
G1 X118.099 Y12.961 E240.6347 F2400
G0 X117.546 Y12.974 F5400
G1 X113.454 Y8.882 E240.9234 F2400
G0 X112.889 Y8.882 F5400
G1 X117.057 Y13.050 E241.2175 F2400
G0 X116.283 Y8.882 F5400
G1 X126.789 Y19.389 E241.9588 F2400
G0 X126.789 Y18.823 F5400
G1 X116.848 Y8.882 E242.6602 F2400
G0 X117.414 Y8.882 F5400
G1 X126.789 Y18.257 E243.3216 F2400
G0 X126.789 Y17.692 F5400
G1 X117.980 Y8.882 E243.9432 F2400
G0 X118.545 Y8.882 F5400
G1 X126.789 Y17.126 E244.5248 F2400
G0 X126.789 Y16.560 F5400
G1 X119.111 Y8.882 E245.0665 F2400
G0 X119.677 Y8.882 F5400
G1 X126.789 Y15.994 E245.5684 F2400
G0 X127.097 Y14.605 F5400
G1 X121.374 Y8.882 E245.9721 F2400
G0 X121.940 Y8.882 F5400
G1 X127.309 Y14.251 E246.3510 F2400
G0 X127.560 Y13.937 F5400
G1 X122.505 Y8.882 E246.7076 F2400
G0 X123.071 Y8.882 F5400
G1 X127.849 Y13.660 E247.0447 F2400
G0 X128.176 Y13.421 F5400
G1 X123.637 Y8.882 E247.3649 F2400
G0 X124.202 Y8.882 F5400
G1 X128.544 Y13.223 E247.6712 F2400
G0 X128.959 Y13.073 F5400
G1 X124.768 Y8.882 E247.9669 F2400
G0 X125.334 Y8.882 F5400
G1 X129.434 Y12.983 E248.2563 F2400
G0 X129.978 Y12.961 F5400
G1 X125.899 Y8.882 E248.5441 F2400
G0 X126.465 Y8.882 F5400
G1 X130.544 Y12.961 E248.8319 F2400
G0 X131.137 Y12.989 F5400
G1 X127.031 Y8.882 E249.1216 F2400
G0 X127.596 Y8.882 F5400
G1 X131.925 Y13.211 E249.4270 F2400
G0 X128.162 Y8.882 F5400
G1 X138.789 Y19.509 E250.1768 F2400
G0 X138.789 Y18.944 F5400
G1 X128.728 Y8.882 E250.8867 F2400
G0 X129.293 Y8.882 F5400
G1 X138.789 Y18.378 E251.5567 F2400
G0 X138.789 Y17.812 F5400
G1 X129.859 Y8.882 E252.1868 F2400
G0 X130.425 Y8.882 F5400
G1 X138.789 Y17.247 E252.7769 F2400
G0 X138.789 Y16.681 F5400
G1 X130.990 Y8.882 E253.3272 F2400
G0 X131.556 Y8.882 F5400
G1 X138.789 Y16.115 E253.8375 F2400
G0 X138.814 Y15.574 F5400
G1 X132.122 Y8.882 E254.3097 F2400
G0 X132.688 Y8.882 F5400
G1 X138.908 Y15.103 E254.7485 F2400
G0 X139.062 Y14.691 F5400
G1 X133.253 Y8.882 E255.1584 F2400
G0 X133.819 Y8.882 F5400
G1 X139.263 Y14.326 E255.5424 F2400
G0 X139.504 Y14.002 F5400
G1 X134.385 Y8.882 E255.9037 F2400
G0 X134.950 Y8.882 F5400
G1 X139.784 Y13.716 E256.2447 F2400
G0 X140.101 Y13.467 F5400
G1 X135.516 Y8.882 E256.5682 F2400
G0 X136.082 Y8.882 F5400
G1 X140.458 Y13.259 E256.8770 F2400
G0 X140.862 Y13.097 F5400
G1 X136.647 Y8.882 E257.1744 F2400
G0 X137.213 Y8.882 F5400
G1 X141.323 Y12.992 E257.4643 F2400
G0 X141.858 Y12.961 F5400
G1 X137.779 Y8.882 E257.7521 F2400
G0 X138.344 Y8.882 F5400
G1 X142.423 Y12.961 E258.0400 F2400
G0 X143.006 Y12.978 F5400
G1 X138.910 Y8.882 E258.3290 F2400
G0 X139.476 Y8.882 F5400
G1 X143.719 Y13.126 E258.6284 F2400
G0 X140.041 Y8.882 F5400
G1 X152.289 Y21.130 E259.4925 F2400
G0 X152.289 Y20.564 F5400
G1 X140.607 Y8.882 E260.3168 F2400
G0 X141.173 Y8.882 F5400
G1 X152.289 Y19.999 E261.1011 F2400
G0 X152.289 Y19.433 F5400
G1 X141.739 Y8.882 E261.8455 F2400
G0 X142.304 Y8.882 F5400
G1 X152.289 Y18.867 E262.5500 F2400
G0 X152.289 Y18.302 F5400
G1 X142.870 Y8.882 E263.2146 F2400
G0 X143.436 Y8.882 F5400
G1 X152.289 Y17.736 E263.8393 F2400
G0 X152.289 Y17.170 F5400
G1 X144.001 Y8.882 E264.4241 F2400
G0 X144.567 Y8.882 F5400
G1 X152.289 Y16.604 E264.9689 F2400
G0 X152.289 Y16.039 F5400
G1 X145.133 Y8.882 E265.4739 F2400
G0 X145.698 Y8.882 F5400
G1 X152.289 Y15.473 E265.9389 F2400
G0 X152.289 Y14.907 F5400
G1 X146.264 Y8.882 E266.3640 F2400
G0 X146.830 Y8.882 F5400
G1 X152.289 Y14.342 E266.7492 F2400
G0 X152.289 Y13.776 F5400
G1 X147.395 Y8.882 E267.0946 F2400
G0 X147.961 Y8.882 F5400
G1 X152.289 Y13.210 E267.3999 F2400
G0 X152.289 Y12.645 F5400
G1 X148.527 Y8.882 E267.6654 F2400
G0 X149.092 Y8.882 F5400
G1 X152.289 Y12.079 E267.8910 F2400
G0 X152.289 Y11.513 F5400
G1 X149.658 Y8.882 E268.0766 F2400
G0 X150.224 Y8.882 F5400
G1 X152.289 Y10.948 E268.2223 F2400
G0 X152.289 Y10.382 F5400
G1 X150.789 Y8.882 E268.3282 F2400
G0 X151.355 Y8.882 F5400
G1 X152.289 Y9.816 E268.3941 F2400
G0 X152.289 Y9.251 F5400
G1 X151.921 Y8.882 E268.4201 F2400
G0 X145.546 Y14.952 F5400
G1 X152.289 Y21.696 E268.8959 F2400
G0 X152.289 Y22.261 F5400
G1 X145.693 Y15.665 E269.3612 F2400
G0 X145.710 Y16.248 F5400
G1 X152.289 Y22.827 E269.8254 F2400
G0 X152.289 Y23.393 F5400
G1 X145.710 Y16.814 E270.2896 F2400
G0 X145.710 Y17.379 F5400
G1 X152.289 Y23.958 E270.7538 F2400
G0 X152.289 Y24.524 F5400
G1 X145.710 Y17.945 E271.2179 F2400
G0 X145.710 Y18.511 F5400
G1 X152.289 Y25.090 E271.6821 F2400
G0 X152.289 Y25.655 F5400
G1 X145.710 Y19.076 E272.1463 F2400
G0 X145.710 Y19.642 F5400
G1 X152.289 Y26.221 E272.6105 F2400
G0 X152.289 Y26.787 F5400
G1 X145.710 Y20.208 E273.0746 F2400
G0 X145.710 Y20.773 F5400
G1 X152.289 Y27.352 E273.5388 F2400
G0 X152.289 Y27.918 F5400
G1 X145.710 Y21.339 E274.0030 F2400
G0 X145.710 Y21.905 F5400
G1 X152.289 Y28.484 E274.4671 F2400
G0 X152.289 Y29.050 F5400
G1 X145.710 Y22.471 E274.9313 F2400
G0 X145.710 Y23.036 F5400
G1 X152.289 Y29.615 E275.3955 F2400
G0 X152.289 Y30.181 F5400
G1 X145.710 Y23.602 E275.8597 F2400
G0 X145.710 Y24.168 F5400
G1 X152.289 Y30.747 E276.3238 F2400
G0 X152.289 Y31.312 F5400
G1 X145.710 Y24.733 E276.7880 F2400
G0 X145.710 Y25.299 F5400
G1 X152.289 Y31.878 E277.2522 F2400
G0 X152.289 Y32.444 F5400
G1 X145.710 Y25.865 E277.7164 F2400
G0 X145.710 Y26.430 F5400
G1 X152.289 Y33.009 E278.1805 F2400
G0 X152.289 Y33.575 F5400
G1 X145.710 Y26.996 E278.6447 F2400
G0 X145.710 Y27.562 F5400
G1 X152.289 Y34.141 E279.1089 F2400
G0 X152.289 Y34.706 F5400
G1 X145.710 Y28.127 E279.5730 F2400
G0 X145.710 Y28.693 F5400
G1 X152.289 Y35.272 E280.0372 F2400
G0 X152.289 Y35.838 F5400
G1 X145.710 Y29.259 E280.5014 F2400
G0 X145.710 Y29.824 F5400
G1 X152.289 Y36.403 E280.9656 F2400
G0 X152.281 Y36.961 F5400
G1 X145.679 Y30.359 E281.4314 F2400
G0 X145.573 Y30.818 F5400
G1 X151.716 Y36.961 E281.8648 F2400
G0 X151.150 Y36.961 F5400
G1 X145.409 Y31.221 E282.2698 F2400
G0 X145.200 Y31.577 F5400
G1 X150.584 Y36.961 E282.6497 F2400
G0 X150.019 Y36.961 F5400
G1 X144.951 Y31.894 E283.0073 F2400
G0 X144.664 Y32.172 F5400
G1 X149.453 Y36.961 E283.3452 F2400
G0 X148.887 Y36.961 F5400
G1 X144.339 Y32.413 E283.6661 F2400
G0 X143.973 Y32.613 F5400
G1 X148.322 Y36.961 E283.9729 F2400
G0 X147.756 Y36.961 F5400
G1 X143.560 Y32.765 E284.2690 F2400
G0 X143.088 Y32.859 F5400
G1 X147.190 Y36.961 E284.5584 F2400
G0 X146.625 Y36.961 F5400
G1 X142.546 Y32.882 E284.8462 F2400
G0 X141.980 Y32.882 F5400
G1 X146.059 Y36.961 E285.1340 F2400
G0 X145.493 Y36.961 F5400
G1 X141.389 Y32.857 E285.4236 F2400
G0 X140.616 Y32.650 F5400
G1 X144.928 Y36.961 E285.7278 F2400
; ------------------------------------
; Layer #1
; ------------------------------------
M106 S0 ;turn off fan
G92 E0 ;reset extr
G0 F3000 E-1.0000
G0 F1200 Z0.600
G0 X132.784 Y31.953 F7200
G0 X130.355 Y30.952
G0 X127.927 Y29.950
G0 X125.498 Y28.948
G0 X118.212 Y25.944
G0 X115.783 Y24.942
G0 X113.354 Y23.940
G0 X106.068 Y20.935
G0 X103.640 Y19.934
G0 X101.211 Y18.932
G0 X93.925 Y15.927
G0 X91.496 Y14.926
G0 X84.210 Y11.921
G0 F3000 E0.0000
;segType:HShell
G1 X87.249 Y8.882 E0.2144 F3600
G0 X86.683 Y8.882 F7200
G1 X84.210 Y11.355 E0.3889 F3600
G0 X84.210 Y10.790 F7200
G1 X86.118 Y8.882 E0.5235 F3600
G0 X85.552 Y8.882 F7200
G1 X84.210 Y10.224 E0.6182 F3600
G0 X84.210 Y9.658 F7200
G1 X84.986 Y8.882 E0.6729 F3600
;segType:Perimeter
G0 X83.510 Y8.122 F7200
G1 X153.049 Y8.122 E4.1423 F2160
G1 X153.049 Y37.721 E5.6190
G1 X125.242 Y37.721 E7.0063
G1 X124.906 Y37.748 E7.0231
G1 X124.570 Y37.828 E7.0404
G1 X124.251 Y37.961 E7.0576
G1 X123.956 Y38.141 E7.0748
G1 X123.693 Y38.365 E7.0921
G1 X123.469 Y38.628 E7.1093
G1 X123.288 Y38.922 E7.1265
G1 X123.156 Y39.242 E7.1438
G1 X123.076 Y39.577 E7.1610
G1 X123.049 Y39.914 E7.1778
G1 X123.049 Y87.987 E9.5762
G1 X123.658 Y88.826 E9.6279
G1 X124.078 Y89.682 E9.6755
G1 X124.348 Y90.598 E9.7231
G1 X124.458 Y91.546 E9.7707
G1 X124.405 Y92.499 E9.8183
G1 X124.191 Y93.429 E9.8660
G1 X123.823 Y94.309 E9.9136
G1 X123.310 Y95.114 E9.9612
G1 X122.668 Y95.820 E10.0088
G1 X121.915 Y96.406 E10.0564
G1 X121.074 Y96.857 E10.1040
G1 X120.169 Y97.158 E10.1516
G1 X119.225 Y97.301 E10.1992
G1 X118.250 Y97.281 E10.2479
G1 X117.275 Y97.301 E10.2966
G1 X116.331 Y97.158 E10.3442
G1 X115.425 Y96.857 E10.3918
G1 X114.584 Y96.407 E10.4394
G1 X113.832 Y95.820 E10.4870
G1 X113.190 Y95.114 E10.5346
G1 X112.677 Y94.309 E10.5822
G1 X112.308 Y93.429 E10.6298
G1 X112.094 Y92.498 E10.6774
G1 X112.042 Y91.546 E10.7250
G1 X112.152 Y90.598 E10.7727
G1 X112.421 Y89.682 E10.8203
G1 X112.842 Y88.826 E10.8679
G1 X113.450 Y87.987 E10.9196
G1 X113.450 Y39.914 E13.3180
G1 X113.424 Y39.577 E13.3348
G1 X113.343 Y39.242 E13.3520
G1 X113.211 Y38.922 E13.3692
G1 X113.030 Y38.628 E13.3865
G1 X112.806 Y38.365 E13.4037
G1 X112.544 Y38.141 E13.4209
G1 X112.249 Y37.961 E13.4382
G1 X111.930 Y37.828 E13.4554
G1 X111.594 Y37.748 E13.4726
G1 X111.258 Y37.721 E13.4895
G1 X83.450 Y37.721 E14.8768
G1 X83.450 Y8.182 E16.3505
G0 X84.223 Y8.389 F7200
;segType:Loop
G0 X84.550 Y8.522
G1 X152.649 Y8.522 E19.7480 F3600
G1 X152.649 Y37.321 E21.1848
G1 X125.226 Y37.321 E22.5530
G1 X124.843 Y37.351 E22.5722
G1 X124.445 Y37.447 E22.5925
G1 X124.068 Y37.603 E22.6129
G1 X123.720 Y37.816 E22.6333
G1 X123.409 Y38.082 E22.6537
G1 X123.145 Y38.392 E22.6740
G1 X122.931 Y38.740 E22.6944
G1 X122.775 Y39.118 E22.7148
G1 X122.679 Y39.514 E22.7351
G1 X122.649 Y39.898 E22.7543
G1 X122.649 Y88.117 E25.1600
G1 X123.314 Y89.033 E25.2164
G1 X123.704 Y89.828 E25.2606
G1 X123.954 Y90.678 E25.3048
G1 X124.056 Y91.558 E25.3490
G1 X124.007 Y92.442 E25.3932
G1 X123.809 Y93.306 E25.4374
G1 X123.467 Y94.123 E25.4816
G1 X122.991 Y94.870 E25.5258
G1 X122.395 Y95.525 E25.5700
G1 X121.696 Y96.070 E25.6142
G1 X120.915 Y96.488 E25.6584
G1 X120.075 Y96.768 E25.7026
G1 X119.199 Y96.900 E25.7468
G1 X118.250 Y96.881 E25.7942
G1 X117.301 Y96.900 E25.8415
G1 X116.425 Y96.768 E25.8857
G1 X115.584 Y96.488 E25.9299
G1 X114.803 Y96.070 E25.9741
G1 X114.105 Y95.525 E26.0183
G1 X113.509 Y94.870 E26.0625
G1 X113.033 Y94.123 E26.1067
G1 X112.690 Y93.306 E26.1509
G1 X112.492 Y92.442 E26.1951
G1 X112.443 Y91.558 E26.2393
G1 X112.545 Y90.678 E26.2835
G1 X112.795 Y89.828 E26.3277
G1 X113.186 Y89.033 E26.3719
G1 X113.850 Y88.116 E26.4283
G1 X113.850 Y39.898 E28.8340
G1 X113.820 Y39.514 E28.8532
G1 X113.725 Y39.118 E28.8735
G1 X113.569 Y38.740 E28.8939
G1 X113.355 Y38.392 E28.9143
G1 X113.090 Y38.082 E28.9346
G1 X112.779 Y37.816 E28.9550
G1 X112.431 Y37.603 E28.9754
G1 X112.054 Y37.447 E28.9958
G1 X111.657 Y37.351 E29.0161
G1 X111.273 Y37.321 E29.0353
G1 X83.850 Y37.321 E30.4035
G1 X83.850 Y8.522 E31.8403
G1 X84.350 Y8.522 E31.8652
;segType:HShell
G0 X90.820 Y15.494 F7200
G1 X84.210 Y22.103 E32.3316 F3600
G0 X84.210 Y22.669 F7200
G1 X90.789 Y16.090 E32.7958 F3600
;segType:Perimeter
G0 X91.333 Y15.506 F7200
G1 X91.820 Y14.871 E32.8357 F2160
G1 X91.969 Y14.628 E32.8499
G1 X92.193 Y14.365 E32.8671
G1 X92.456 Y14.141 E32.8844
G1 X92.751 Y13.960 E32.9016
G1 X93.069 Y13.828 E32.9188
G1 X93.405 Y13.748 E32.9361
G1 X93.742 Y13.721 E32.9529
G1 X94.758 Y13.721 E33.0036
G1 X95.094 Y13.748 E33.0204
G1 X95.430 Y13.828 E33.0376
G1 X95.749 Y13.960 E33.0549
G1 X96.043 Y14.141 E33.0721
G1 X96.306 Y14.365 E33.0893
G1 X96.530 Y14.628 E33.1066
G1 X96.711 Y14.922 E33.1238
G1 X96.843 Y15.242 E33.1410
G1 X96.924 Y15.577 E33.1583
G1 X96.950 Y15.914 E33.1751
G1 X96.950 Y29.930 E33.8743
G1 X96.924 Y30.266 E33.8912
G1 X96.843 Y30.602 E33.9084
G1 X96.711 Y30.921 E33.9256
G1 X96.530 Y31.216 E33.9429
G1 X96.306 Y31.478 E33.9601
G1 X96.043 Y31.702 E33.9773
G1 X95.749 Y31.883 E33.9946
G1 X95.430 Y32.015 E34.0118
G1 X95.094 Y32.096 E34.0290
G1 X94.758 Y32.122 E34.0459
G1 X93.742 Y32.122 E34.0965
G1 X93.405 Y32.096 E34.1134
G1 X93.070 Y32.015 E34.1306
G1 X92.751 Y31.883 E34.1478
G1 X92.456 Y31.702 E34.1651
G1 X92.193 Y31.478 E34.1823
G1 X91.969 Y31.215 E34.1995
G1 X91.788 Y30.921 E34.2168
G1 X91.656 Y30.602 E34.2340
G1 X91.576 Y30.266 E34.2512
G1 X91.549 Y29.930 E34.2681
G1 X91.549 Y15.914 E34.9673
G1 X91.576 Y15.577 E34.9842
G1 X91.656 Y15.242 E35.0014
G1 X91.766 Y14.978 E35.0156
G0 X91.993 Y14.211 F7200
;segType:Loop
G0 X92.305 Y13.764
G1 X92.568 Y13.603 E35.0310 F3600
G1 X92.945 Y13.447 E35.0514
G1 X93.343 Y13.351 E35.0718
G1 X93.726 Y13.321 E35.0910
G1 X94.773 Y13.321 E35.1432
G1 X95.157 Y13.351 E35.1624
G1 X95.554 Y13.447 E35.1828
G1 X95.931 Y13.603 E35.2031
G1 X96.279 Y13.817 E35.2235
G1 X96.590 Y14.081 E35.2439
G1 X96.855 Y14.392 E35.2642
G1 X97.068 Y14.740 E35.2846
G1 X97.225 Y15.118 E35.3050
G1 X97.320 Y15.515 E35.3254
G1 X97.350 Y15.898 E35.3446
G1 X97.350 Y29.945 E36.0454
G1 X97.320 Y30.328 E36.0646
G1 X97.225 Y30.726 E36.0849
G1 X97.068 Y31.103 E36.1053
G1 X96.855 Y31.451 E36.1257
G1 X96.590 Y31.762 E36.1461
G1 X96.279 Y32.027 E36.1664
G1 X95.931 Y32.240 E36.1868
G1 X95.554 Y32.396 E36.2072
G1 X95.157 Y32.492 E36.2275
G1 X94.773 Y32.522 E36.2467
G1 X93.726 Y32.522 E36.2990
G1 X93.343 Y32.492 E36.3182
G1 X92.946 Y32.396 E36.3385
G1 X92.568 Y32.240 E36.3589
G1 X92.220 Y32.027 E36.3793
G1 X91.910 Y31.762 E36.3997
G1 X91.644 Y31.451 E36.4200
G1 X91.431 Y31.103 E36.4404
G1 X91.275 Y30.726 E36.4608
G1 X91.179 Y30.329 E36.4812
G1 X91.149 Y29.945 E36.5003
G1 X91.149 Y15.898 E37.2012
G1 X91.179 Y15.514 E37.2204
G1 X91.275 Y15.118 E37.2407
G1 X91.431 Y14.740 E37.2611
G1 X91.645 Y14.392 E37.2815
G1 X91.910 Y14.082 E37.3018
G0 X91.910 Y14.082 F7200
G0 X92.220 Y13.817
G0 X92.568 Y13.603
G0 X92.945 Y13.447
G0 X93.343 Y13.351
G0 X93.726 Y13.321
G0 X94.773 Y13.321
G0 X95.157 Y13.351
G0 X95.554 Y13.447
G0 X95.931 Y13.603
G0 X96.279 Y13.817
G0 X96.590 Y14.081
G0 X96.855 Y14.392
G0 X97.068 Y14.740
G0 X97.225 Y15.118
G0 X97.320 Y15.515
G0 X97.350 Y15.898
G0 X97.350 Y22.434
G0 X97.350 Y22.434
G0 X103.201 Y31.415
;segType:HShell
G0 X103.193 Y31.404
G1 X97.637 Y36.961 E37.6939 F3600
G0 X98.202 Y36.961 F7200
G1 X103.420 Y31.743 E38.0621 F3600
;segType:Perimeter
G0 X103.747 Y31.337 F7200
G1 X103.642 Y30.544 E38.1020 F2160
G1 X103.576 Y30.266 E38.1162
G1 X103.549 Y29.929 E38.1331
G1 X103.549 Y15.914 E38.8323
G1 X103.576 Y15.577 E38.8491
G1 X103.656 Y15.241 E38.8664
G1 X103.789 Y14.922 E38.8836
G1 X103.969 Y14.628 E38.9008
G1 X104.194 Y14.365 E38.9181
G1 X104.456 Y14.141 E38.9353
G1 X104.750 Y13.960 E38.9525
G1 X105.070 Y13.828 E38.9698
G1 X105.405 Y13.748 E38.9870
G1 X105.742 Y13.721 E39.0038
G1 X106.758 Y13.721 E39.0545
G1 X107.094 Y13.748 E39.0713
G1 X107.430 Y13.828 E39.0886
G1 X107.749 Y13.960 E39.1058
G1 X108.043 Y14.141 E39.1230
G1 X108.306 Y14.365 E39.1403
G1 X108.530 Y14.628 E39.1575
G1 X108.711 Y14.922 E39.1747
G1 X108.843 Y15.242 E39.1920
G1 X108.924 Y15.577 E39.2092
G1 X108.950 Y15.914 E39.2260
G1 X108.950 Y29.929 E39.9253
G1 X108.924 Y30.266 E39.9421
G1 X108.843 Y30.602 E39.9593
G1 X108.711 Y30.921 E39.9766
G1 X108.530 Y31.215 E39.9938
G1 X108.306 Y31.478 E40.0110
G1 X108.044 Y31.702 E40.0283
G1 X107.749 Y31.883 E40.0455
G1 X107.430 Y32.015 E40.0627
G1 X107.094 Y32.096 E40.0800
G1 X106.758 Y32.122 E40.0968
G1 X105.742 Y32.122 E40.1475
G1 X105.405 Y32.096 E40.1643
G1 X105.070 Y32.015 E40.1815
G1 X104.750 Y31.883 E40.1988
G1 X104.456 Y31.702 E40.2160
G1 X104.193 Y31.478 E40.2332
G1 X103.969 Y31.216 E40.2505
G1 X103.789 Y30.921 E40.2677
G1 X103.679 Y30.657 E40.2819
G0 X103.298 Y29.954 F7200
;segType:Loop
G0 X103.149 Y29.512
G1 X103.149 Y15.898 E40.9611 F3600
G1 X103.180 Y15.515 E40.9803
G1 X103.275 Y15.118 E41.0007
G1 X103.431 Y14.740 E41.0211
G1 X103.644 Y14.392 E41.0415
G1 X103.910 Y14.081 E41.0618
G1 X104.220 Y13.817 E41.0822
G1 X104.568 Y13.603 E41.1026
G1 X104.946 Y13.447 E41.1229
G1 X105.343 Y13.351 E41.1433
G1 X105.726 Y13.321 E41.1625
G1 X106.773 Y13.321 E41.2147
G1 X107.157 Y13.351 E41.2339
G1 X107.554 Y13.447 E41.2543
G1 X107.931 Y13.603 E41.2747
G1 X108.279 Y13.816 E41.2951
G1 X108.590 Y14.082 E41.3154
G1 X108.855 Y14.392 E41.3358
G1 X109.069 Y14.740 E41.3562
G1 X109.225 Y15.118 E41.3765
G1 X109.320 Y15.514 E41.3969
G1 X109.350 Y15.898 E41.4161
G1 X109.350 Y29.945 E42.1169
G1 X109.320 Y30.329 E42.1361
G1 X109.225 Y30.726 E42.1565
G1 X109.069 Y31.103 E42.1769
G1 X108.855 Y31.451 E42.1972
G1 X108.590 Y31.762 E42.2176
G1 X108.279 Y32.027 E42.2380
G1 X107.931 Y32.240 E42.2584
G1 X107.554 Y32.396 E42.2787
G1 X107.157 Y32.492 E42.2991
G1 X106.773 Y32.522 E42.3183
G1 X105.726 Y32.522 E42.3705
G1 X105.343 Y32.492 E42.3897
G1 X104.946 Y32.396 E42.4101
G1 X104.568 Y32.240 E42.4305
G1 X104.220 Y32.027 E42.4508
G1 X103.910 Y31.762 E42.4712
G1 X103.644 Y31.451 E42.4916
G1 X103.431 Y31.103 E42.5120
G1 X103.275 Y30.726 E42.5323
G1 X103.180 Y30.328 E42.5527
G1 X103.149 Y29.945 E42.5719
G1 X103.149 Y29.712 E42.5835
G0 X103.149 Y29.712 F7200
G0 X103.149 Y29.945
G0 X103.180 Y30.328
G0 X103.275 Y30.726
G0 X103.431 Y31.103
G0 X103.644 Y31.451
G0 X103.910 Y31.762
G0 X104.220 Y32.027
G0 X104.568 Y32.240
G0 X104.946 Y32.396
G0 X105.343 Y32.492
G0 X105.726 Y32.522
G0 X106.773 Y32.522
G0 X107.157 Y32.492
G0 X107.554 Y32.396
G0 X107.931 Y32.240
G0 X108.279 Y32.027
G0 X108.590 Y31.762
G0 X108.855 Y31.451
G0 X109.069 Y31.103
G0 X109.225 Y30.726
G0 X109.320 Y30.329
G0 X109.350 Y29.945
G0 X109.350 Y21.871
G0 X109.350 Y21.871
G0 X115.842 Y13.663
;segType:HShell
G0 X115.834 Y13.673
G1 X120.624 Y8.882 E42.9215 F3600
G0 X121.190 Y8.882 F7200
G1 X117.012 Y13.061 E43.2163 F3600
;segType:Perimeter
G0 X116.665 Y13.723 F7200
G1 X117.465 Y13.743 E43.2563 F2160
G1 X117.742 Y13.721 E43.2701
G1 X118.757 Y13.721 E43.3208
G1 X119.094 Y13.748 E43.3376
G1 X119.430 Y13.828 E43.3549
G1 X119.749 Y13.960 E43.3721
G1 X120.044 Y14.141 E43.3893
G1 X120.306 Y14.365 E43.4065
G1 X120.530 Y14.628 E43.4238
G1 X120.711 Y14.922 E43.4410
G1 X120.843 Y15.242 E43.4582
G1 X120.924 Y15.577 E43.4755
G1 X120.950 Y15.914 E43.4923
G1 X120.950 Y29.930 E44.1916
G1 X120.924 Y30.266 E44.2084
G1 X120.843 Y30.602 E44.2256
G1 X120.711 Y30.921 E44.2429
G1 X120.530 Y31.215 E44.2601
G1 X120.306 Y31.478 E44.2773
G1 X120.044 Y31.702 E44.2945
G1 X119.749 Y31.883 E44.3118
G1 X119.430 Y32.015 E44.3290
G1 X119.094 Y32.096 E44.3462
G1 X118.758 Y32.122 E44.3631
G1 X117.742 Y32.122 E44.4138
G1 X117.405 Y32.096 E44.4306
G1 X117.070 Y32.015 E44.4478
G1 X116.750 Y31.883 E44.4651
G1 X116.456 Y31.702 E44.4823
G1 X116.193 Y31.478 E44.4995
G1 X115.969 Y31.215 E44.5168
G1 X115.789 Y30.921 E44.5340
G1 X115.657 Y30.602 E44.5512
G1 X115.576 Y30.266 E44.5684
G1 X115.549 Y29.929 E44.5853
G1 X115.549 Y15.914 E45.2845
G1 X115.576 Y15.577 E45.3014
G1 X115.657 Y15.242 E45.3186
G1 X115.789 Y14.922 E45.3358
G1 X115.969 Y14.628 E45.3531
G1 X116.193 Y14.365 E45.3703
G1 X116.456 Y14.141 E45.3875
G1 X116.750 Y13.960 E45.4048
G1 X117.070 Y13.828 E45.4220
G1 X117.347 Y13.762 E45.4362
G0 X118.101 Y13.495 F7200
;segType:Loop
G0 X118.504 Y13.321
G1 X118.773 Y13.321 E45.4496 F3600
G1 X119.157 Y13.351 E45.4688
G1 X119.554 Y13.447 E45.4892
G1 X119.931 Y13.603 E45.5096
G1 X120.279 Y13.817 E45.5300
G1 X120.590 Y14.082 E45.5503
G1 X120.855 Y14.392 E45.5707
G1 X121.068 Y14.740 E45.5911
G1 X121.224 Y15.117 E45.6114
G1 X121.320 Y15.514 E45.6318
G1 X121.350 Y15.898 E45.6510
G1 X121.350 Y29.945 E46.3518
G1 X121.320 Y30.329 E46.3710
G1 X121.224 Y30.726 E46.3914
G1 X121.068 Y31.103 E46.4117
G1 X120.855 Y31.451 E46.4321
G1 X120.590 Y31.762 E46.4525
G1 X120.279 Y32.027 E46.4729
G1 X119.931 Y32.240 E46.4932
G1 X119.554 Y32.396 E46.5136
G1 X119.157 Y32.492 E46.5340
G1 X118.773 Y32.522 E46.5532
G1 X117.726 Y32.522 E46.6054
G1 X117.342 Y32.492 E46.6246
G1 X116.946 Y32.396 E46.6450
G1 X116.568 Y32.240 E46.6654
G1 X116.220 Y32.027 E46.6857
G1 X115.910 Y31.762 E46.7061
G1 X115.644 Y31.451 E46.7265
G1 X115.431 Y31.103 E46.7469
G1 X115.275 Y30.726 E46.7672
G1 X115.179 Y30.329 E46.7876
G1 X115.149 Y29.945 E46.8068
G1 X115.149 Y15.898 E47.5076
G1 X115.179 Y15.514 E47.5268
G1 X115.275 Y15.118 E47.5472
G1 X115.431 Y14.740 E47.5675
G1 X115.644 Y14.392 E47.5879
G1 X115.910 Y14.081 E47.6083
G1 X116.220 Y13.817 E47.6286
G1 X116.568 Y13.603 E47.6490
G1 X116.946 Y13.447 E47.6694
G1 X117.342 Y13.351 E47.6898
G1 X117.726 Y13.321 E47.7090
G1 X118.304 Y13.321 E47.7378
;segType:HShell
G0 X126.802 Y15.715 F7200
G1 X121.710 Y20.807 E48.0971 F3600
G0 X121.710 Y21.373 F7200
G1 X126.789 Y16.294 E48.4554 F3600
;segType:Perimeter
G0 X127.333 Y15.506 F7200
G1 X127.820 Y14.871 E48.4953 F2160
G1 X127.969 Y14.628 E48.5096
G1 X128.193 Y14.365 E48.5268
G1 X128.456 Y14.141 E48.5440
G1 X128.751 Y13.960 E48.5613
G1 X129.069 Y13.828 E48.5785
G1 X129.405 Y13.748 E48.5957
G1 X129.742 Y13.721 E48.6126
G1 X130.758 Y13.721 E48.6632
G1 X131.094 Y13.748 E48.6801
G1 X131.430 Y13.828 E48.6973
G1 X131.749 Y13.960 E48.7145
G1 X132.043 Y14.141 E48.7318
G1 X132.306 Y14.365 E48.7490
G1 X132.530 Y14.628 E48.7662
G1 X132.711 Y14.922 E48.7835
G1 X132.843 Y15.242 E48.8007
G1 X132.924 Y15.577 E48.8179
G1 X132.950 Y15.914 E48.8348
G1 X132.950 Y29.930 E49.5340
G1 X132.924 Y30.266 E49.5508
G1 X132.843 Y30.602 E49.5681
G1 X132.711 Y30.921 E49.5853
G1 X132.530 Y31.215 E49.6025
G1 X132.306 Y31.478 E49.6198
G1 X132.043 Y31.702 E49.6370
G1 X131.749 Y31.883 E49.6542
G1 X131.430 Y32.015 E49.6715
G1 X131.094 Y32.096 E49.6887
G1 X130.758 Y32.122 E49.7055
G1 X129.742 Y32.122 E49.7562
G1 X129.405 Y32.096 E49.7730
G1 X129.070 Y32.015 E49.7903
G1 X128.751 Y31.883 E49.8075
G1 X128.456 Y31.702 E49.8247
G1 X128.193 Y31.478 E49.8420
G1 X127.969 Y31.215 E49.8592
G1 X127.788 Y30.921 E49.8764
G1 X127.656 Y30.602 E49.8937
G1 X127.576 Y30.266 E49.9109
G1 X127.549 Y29.930 E49.9277
G1 X127.549 Y15.914 E50.6270
G1 X127.576 Y15.577 E50.6438
G1 X127.656 Y15.242 E50.6611
G1 X127.766 Y14.978 E50.6753
G0 X127.993 Y14.211 F7200
;segType:Loop
G0 X128.305 Y13.764
G1 X128.569 Y13.603 E50.6907 F3600
G1 X128.945 Y13.447 E50.7111
G1 X129.343 Y13.351 E50.7314
G1 X129.726 Y13.321 E50.7506
G1 X130.773 Y13.321 E50.8029
G1 X131.157 Y13.351 E50.8221
G1 X131.554 Y13.447 E50.8424
G1 X131.931 Y13.603 E50.8628
G1 X132.279 Y13.817 E50.8832
G1 X132.590 Y14.081 E50.9035
G1 X132.855 Y14.392 E50.9239
G1 X133.068 Y14.740 E50.9443
G1 X133.225 Y15.118 E50.9647
G1 X133.320 Y15.515 E50.9850
G1 X133.350 Y15.898 E51.0042
G1 X133.350 Y29.945 E51.7050
G1 X133.320 Y30.328 E51.7242
G1 X133.225 Y30.726 E51.7446
G1 X133.068 Y31.103 E51.7650
G1 X132.855 Y31.451 E51.7853
G1 X132.590 Y31.762 E51.8057
G1 X132.279 Y32.027 E51.8261
G1 X131.931 Y32.240 E51.8465
G1 X131.554 Y32.396 E51.8668
G1 X131.157 Y32.492 E51.8872
G1 X130.773 Y32.522 E51.9064
G1 X129.726 Y32.522 E51.9586
G1 X129.343 Y32.492 E51.9778
G1 X128.946 Y32.396 E51.9982
G1 X128.568 Y32.240 E52.0186
G1 X128.220 Y32.027 E52.0390
G1 X127.910 Y31.762 E52.0593
G1 X127.644 Y31.451 E52.0797
G1 X127.431 Y31.103 E52.1001
G1 X127.275 Y30.726 E52.1204
G1 X127.179 Y30.329 E52.1408
G1 X127.149 Y29.945 E52.1600
G1 X127.149 Y15.898 E52.8608
G1 X127.179 Y15.514 E52.8800
G1 X127.275 Y15.117 E52.9004
G1 X127.431 Y14.740 E52.9208
G1 X127.645 Y14.392 E52.9411
G1 X127.910 Y14.082 E52.9615
G0 X128.137 Y14.431 F7200
G0 X128.193 Y14.365
G0 X128.456 Y14.141
G0 X128.751 Y13.960
G0 X129.069 Y13.828
G0 X129.405 Y13.748
G0 X129.742 Y13.721
G0 X130.758 Y13.721
G0 X131.094 Y13.748
G0 X131.430 Y13.828
G0 X131.749 Y13.960
G0 X132.043 Y14.141
G0 X132.306 Y14.365
G0 X132.530 Y14.628
G0 X132.711 Y14.922
G0 X132.843 Y15.242
G0 X132.924 Y15.577
G0 X132.950 Y15.914
G0 X132.950 Y21.823
G0 X132.950 Y21.823
G0 X139.278 Y31.542
;segType:HShell
G0 X139.271 Y31.531
G1 X133.840 Y36.961 E53.3446 F3600
G0 X133.275 Y36.961 F7200
G1 X139.068 Y31.168 E53.7534 F3600
;segType:Perimeter
G0 X139.747 Y31.337 F7200
G1 X139.642 Y30.544 E53.7933 F2160
G1 X139.576 Y30.266 E53.8076
G1 X139.549 Y29.930 E53.8244
G1 X139.549 Y15.914 E54.5236
G1 X139.576 Y15.577 E54.5405
G1 X139.656 Y15.242 E54.5577
G1 X139.789 Y14.922 E54.5749
G1 X139.969 Y14.628 E54.5922
G1 X140.193 Y14.365 E54.6094
G1 X140.456 Y14.141 E54.6266
G1 X140.751 Y13.960 E54.6439
G1 X141.070 Y13.828 E54.6611
G1 X141.405 Y13.748 E54.6783
G1 X141.742 Y13.721 E54.6952
G1 X142.758 Y13.721 E54.7458
G1 X143.094 Y13.748 E54.7627
G1 X143.430 Y13.828 E54.7799
G1 X143.749 Y13.960 E54.7971
G1 X144.044 Y14.141 E54.8144
G1 X144.306 Y14.365 E54.8316
G1 X144.530 Y14.628 E54.8488
G1 X144.711 Y14.922 E54.8661
G1 X144.843 Y15.242 E54.8833
G1 X144.924 Y15.577 E54.9005
G1 X144.950 Y15.914 E54.9174
G1 X144.950 Y29.930 E55.6166
G1 X144.924 Y30.266 E55.6334
G1 X144.843 Y30.602 E55.6507
G1 X144.711 Y30.921 E55.6679
G1 X144.530 Y31.215 E55.6851
G1 X144.306 Y31.478 E55.7024
G1 X144.044 Y31.702 E55.7196
G1 X143.749 Y31.883 E55.7368
G1 X143.430 Y32.015 E55.7541
G1 X143.094 Y32.096 E55.7713
G1 X142.758 Y32.122 E55.7881
G1 X141.742 Y32.122 E55.8388
G1 X141.405 Y32.096 E55.8556
G1 X141.070 Y32.015 E55.8729
G1 X140.751 Y31.883 E55.8901
G1 X140.456 Y31.702 E55.9073
G1 X140.194 Y31.478 E55.9246
G1 X139.969 Y31.215 E55.9418
G1 X139.789 Y30.921 E55.9590
G1 X139.679 Y30.657 E55.9733
G0 X139.298 Y29.954 F7200
;segType:Loop
G0 X139.149 Y29.512
G1 X139.149 Y15.898 E56.6525 F3600
G1 X139.180 Y15.515 E56.6717
G1 X139.275 Y15.118 E56.6921
G1 X139.431 Y14.740 E56.7124
G1 X139.644 Y14.392 E56.7328
G1 X139.910 Y14.081 E56.7532
G1 X140.220 Y13.817 E56.7735
G1 X140.568 Y13.603 E56.7939
G1 X140.946 Y13.447 E56.8143
G1 X141.343 Y13.351 E56.8347
G1 X141.726 Y13.321 E56.8538
G1 X142.773 Y13.321 E56.9061
G1 X143.157 Y13.351 E56.9253
G1 X143.554 Y13.447 E56.9457
G1 X143.931 Y13.603 E56.9660
G1 X144.279 Y13.816 E56.9864
G1 X144.590 Y14.082 E57.0068
G1 X144.855 Y14.392 E57.0271
G1 X145.069 Y14.740 E57.0475
G1 X145.225 Y15.117 E57.0679
G1 X145.320 Y15.514 E57.0882
G1 X145.350 Y15.898 E57.1075
G1 X145.350 Y29.945 E57.8083
G1 X145.320 Y30.329 E57.8275
G1 X145.225 Y30.726 E57.8478
G1 X145.069 Y31.103 E57.8682
G1 X144.855 Y31.451 E57.8886
G1 X144.590 Y31.762 E57.9090
G1 X144.279 Y32.027 E57.9293
G1 X143.931 Y32.240 E57.9497
G1 X143.554 Y32.396 E57.9701
G1 X143.157 Y32.492 E57.9904
G1 X142.773 Y32.522 E58.0096
G1 X141.726 Y32.522 E58.0619
G1 X141.342 Y32.492 E58.0811
G1 X140.946 Y32.396 E58.1014
G1 X140.568 Y32.240 E58.1218
G1 X140.220 Y32.027 E58.1422
G1 X139.910 Y31.762 E58.1625
G1 X139.644 Y31.451 E58.1829
G1 X139.431 Y31.103 E58.2033
G1 X139.275 Y30.726 E58.2237
G1 X139.180 Y30.328 E58.2441
G1 X139.149 Y29.945 E58.2632
G1 X139.149 Y29.712 E58.2749
;segType:HShell
G0 X138.912 Y30.758 F7200
G1 X132.709 Y36.961 E58.7125 F3600
G0 X132.143 Y36.961 F7200
G1 X138.815 Y30.289 E59.1833 F3600
G0 X138.789 Y29.750 F7200
G1 X131.578 Y36.961 E59.6921 F3600
G0 X131.012 Y36.961 F7200
G1 X138.789 Y29.184 E60.2408 F3600
G0 X138.789 Y28.618 F7200
G1 X130.446 Y36.961 E60.8295 F3600
G0 X129.881 Y36.961 F7200
G1 X138.789 Y28.053 E61.4580 F3600
G0 X138.789 Y27.487 F7200
G1 X129.315 Y36.961 E62.1265 F3600
G0 X128.749 Y36.961 F7200
G1 X138.789 Y26.921 E62.8349 F3600
G0 X138.789 Y26.355 F7200
G1 X128.184 Y36.961 E63.5832 F3600
G0 X127.618 Y36.961 F7200
G1 X131.962 Y32.618 E63.8896 F3600
G0 X131.160 Y32.853 F7200
G1 X127.052 Y36.961 E64.1795 F3600
G0 X126.486 Y36.961 F7200
G1 X130.565 Y32.882 E64.4673 F3600
G0 X130.000 Y32.882 F7200
G1 X125.921 Y36.961 E64.7551 F3600
G0 X125.355 Y36.961 F7200
G1 X129.454 Y32.862 E65.0443 F3600
G0 X128.976 Y32.774 F7200
G1 X124.746 Y37.004 E65.3428 F3600
G0 X123.903 Y37.282 F7200
G1 X128.559 Y32.626 E65.6713 F3600
G0 X121.323 Y31.377 F7200
G1 X126.789 Y25.911 E66.0570 F3600
G0 X126.789 Y25.345 F7200
G1 X121.654 Y30.480 E66.4193 F3600
G0 X121.710 Y29.858 F7200
G1 X126.789 Y24.779 E66.7776 F3600
G0 X126.789 Y24.213 F7200
G1 X121.710 Y29.292 E67.1360 F3600
G0 X121.710 Y28.727 F7200
G1 X126.789 Y23.648 E67.4943 F3600
G0 X126.789 Y23.082 F7200
G1 X121.710 Y28.161 E67.8526 F3600
G0 X121.710 Y27.595 F7200
G1 X126.789 Y22.516 E68.2110 F3600
G0 X126.789 Y21.951 F7200
G1 X121.710 Y27.030 E68.5693 F3600
G0 X121.710 Y26.464 F7200
G1 X126.789 Y21.385 E68.9277 F3600
G0 X126.789 Y20.819 F7200
G1 X121.710 Y25.898 E69.2860 F3600
G0 X121.710 Y25.333 F7200
G1 X126.789 Y20.254 E69.6444 F3600
G0 X126.789 Y19.688 F7200
G1 X121.710 Y24.767 E70.0027 F3600
G0 X121.710 Y24.201 F7200
G1 X126.789 Y19.122 E70.3611 F3600
G0 X126.789 Y18.557 F7200
G1 X121.710 Y23.636 E70.7194 F3600
G0 X121.710 Y23.070 F7200
G1 X126.789 Y17.991 E71.0778 F3600
G0 X126.789 Y17.425 F7200
G1 X121.710 Y22.504 E71.4361 F3600
G0 X121.710 Y21.938 F7200
G1 X126.789 Y16.860 E71.7944 F3600
G0 X126.927 Y15.025 F7200
G1 X121.710 Y20.241 E72.1625 F3600
G0 X121.710 Y19.676 F7200
G1 X132.504 Y8.882 E72.9240 F3600
G0 X131.938 Y8.882 F7200
G1 X121.710 Y19.110 E73.6457 F3600
G0 X121.710 Y18.544 F7200
G1 X131.372 Y8.882 E74.3274 F3600
G0 X130.807 Y8.882 F7200
G1 X121.710 Y17.979 E74.9692 F3600
G0 X121.710 Y17.413 F7200
G1 X130.241 Y8.882 E75.5711 F3600
G0 X129.675 Y8.882 F7200
G1 X121.710 Y16.847 E76.1331 F3600
G0 X121.710 Y16.282 F7200
G1 X129.110 Y8.882 E76.6552 F3600
G0 X128.544 Y8.882 F7200
G1 X121.698 Y15.728 E77.1382 F3600
G0 X121.624 Y15.237 F7200
G1 X127.978 Y8.882 E77.5866 F3600
G0 X127.413 Y8.882 F7200
G1 X121.486 Y14.808 E78.0047 F3600
G0 X121.300 Y14.429 F7200
G1 X126.847 Y8.882 E78.3961 F3600
G0 X126.281 Y8.882 F7200
G1 X121.072 Y14.092 E78.7636 F3600
G0 X120.806 Y13.792 F7200
G1 X125.716 Y8.882 E79.1100 F3600
G0 X125.150 Y8.882 F7200
G1 X120.500 Y13.532 E79.4381 F3600
G0 X120.151 Y13.315 F7200
G1 X124.584 Y8.882 E79.7509 F3600
G0 X124.019 Y8.882 F7200
G1 X119.759 Y13.142 E80.0514 F3600
G0 X119.316 Y13.019 F7200
G1 X123.453 Y8.882 E80.3433 F3600
G0 X122.887 Y8.882 F7200
G1 X118.807 Y12.963 E80.6312 F3600
G0 X118.242 Y12.961 F7200
G1 X122.321 Y8.882 E80.9190 F3600
G0 X121.756 Y8.882 F7200
G1 X117.674 Y12.964 E81.2070 F3600
G0 X115.500 Y14.007 F7200
G1 X109.710 Y19.796 E81.6155 F3600
G0 X109.710 Y19.231 F7200
G1 X120.059 Y8.882 E82.3457 F3600
G0 X119.493 Y8.882 F7200
G1 X109.710 Y18.665 E83.0359 F3600
G0 X109.710 Y18.099 F7200
G1 X118.927 Y8.882 E83.6862 F3600
G0 X118.362 Y8.882 F7200
G1 X109.710 Y17.534 E84.2966 F3600
G0 X109.710 Y16.968 F7200
G1 X117.796 Y8.882 E84.8671 F3600
G0 X117.230 Y8.882 F7200
G1 X109.710 Y16.402 E85.3977 F3600
G0 X109.707 Y15.840 F7200
G1 X116.665 Y8.882 E85.8886 F3600
G0 X116.099 Y8.882 F7200
G1 X109.647 Y15.334 E86.3438 F3600
G0 X109.522 Y14.894 F7200
G1 X115.533 Y8.882 E86.7679 F3600
G0 X114.968 Y8.882 F7200
G1 X109.346 Y14.504 E87.1646 F3600
G0 X109.127 Y14.157 F7200
G1 X114.402 Y8.882 E87.5367 F3600
G0 X113.836 Y8.882 F7200
G1 X108.867 Y13.851 E87.8873 F3600
G0 X108.565 Y13.587 F7200
G1 X113.271 Y8.882 E88.2193 F3600
G0 X112.705 Y8.882 F7200
G1 X108.226 Y13.361 E88.5353 F3600
G0 X107.844 Y13.177 F7200
G1 X112.139 Y8.882 E88.8384 F3600
G0 X111.573 Y8.882 F7200
G1 X107.413 Y13.043 E89.1319 F3600
G0 X106.918 Y12.971 F7200
G1 X111.008 Y8.882 E89.4204 F3600
G0 X110.442 Y8.882 F7200
G1 X106.363 Y12.961 E89.7082 F3600
G0 X105.797 Y12.961 F7200
G1 X109.876 Y8.882 E89.9960 F3600
G0 X109.311 Y8.882 F7200
G1 X105.170 Y13.022 E90.2881 F3600
G0 X104.254 Y13.373 F7200
G1 X108.745 Y8.882 E90.6050 F3600
G0 X96.866 Y8.882 F7200
G1 X92.511 Y13.237 E90.9123 F3600
G0 X93.322 Y12.992 F7200
G1 X97.431 Y8.882 E91.2023 F3600
G0 X97.997 Y8.882 F7200
G1 X93.918 Y12.961 E91.4900 F3600
G0 X94.484 Y12.961 F7200
G1 X98.563 Y8.882 E91.7778 F3600
G0 X99.128 Y8.882 F7200
G1 X95.030 Y12.980 E92.0670 F3600
G0 X95.510 Y13.066 F7200
G1 X99.694 Y8.882 E92.3622 F3600
G0 X100.260 Y8.882 F7200
G1 X95.929 Y13.213 E92.6677 F3600
G0 X96.301 Y13.407 F7200
G1 X100.825 Y8.882 E92.9870 F3600
G0 X101.391 Y8.882 F7200
G1 X96.630 Y13.643 E93.3229 F3600
G0 X96.922 Y13.917 F7200
G1 X101.957 Y8.882 E93.6781 F3600
G0 X102.523 Y8.882 F7200
G1 X97.177 Y14.228 E94.0553 F3600
G0 X97.391 Y14.579 F7200
G1 X103.088 Y8.882 E94.4572 F3600
G0 X103.654 Y8.882 F7200
G1 X97.557 Y14.979 E94.8874 F3600
G0 X97.670 Y15.431 F7200
G1 X104.220 Y8.882 E95.3495 F3600
G0 X104.785 Y8.882 F7200
G1 X97.710 Y15.957 E95.8486 F3600
G0 X97.710 Y16.523 F7200
G1 X105.351 Y8.882 E96.3877 F3600
G0 X105.917 Y8.882 F7200
G1 X97.710 Y17.089 E96.9668 F3600
G0 X97.710 Y17.654 F7200
G1 X106.482 Y8.882 E97.5857 F3600
G0 X107.048 Y8.882 F7200
G1 X97.710 Y18.220 E98.2445 F3600
G0 X97.710 Y18.786 F7200
G1 X107.614 Y8.882 E98.9433 F3600
G0 X108.179 Y8.882 F7200
G1 X97.710 Y19.351 E99.6819 F3600
G0 X97.710 Y19.917 F7200
G1 X103.201 Y14.426 E100.0694 F3600
G0 X102.850 Y15.342 F7200
G1 X97.710 Y20.483 E100.4320 F3600
G0 X97.710 Y21.048 F7200
G1 X102.789 Y15.969 E100.7904 F3600
G0 X102.789 Y16.535 F7200
G1 X97.710 Y21.614 E101.1488 F3600
G0 X97.710 Y22.180 F7200
G1 X102.789 Y17.101 E101.5071 F3600
G0 X102.789 Y17.666 F7200
G1 X97.710 Y22.745 E101.8655 F3600
G0 X97.710 Y23.311 F7200
G1 X102.789 Y18.232 E102.2238 F3600
G0 X102.789 Y18.798 F7200
G1 X97.710 Y23.877 E102.5822 F3600
G0 X97.710 Y24.443 F7200
G1 X102.789 Y19.363 E102.9406 F3600
G0 X102.789 Y19.929 F7200
G1 X97.710 Y25.008 E103.2989 F3600
G0 X97.710 Y25.574 F7200
G1 X102.789 Y20.495 E103.6573 F3600
G0 X102.789 Y21.060 F7200
G1 X97.710 Y26.140 E104.0156 F3600
G0 X97.710 Y26.705 F7200
G1 X102.789 Y21.626 E104.3740 F3600
G0 X102.789 Y22.192 F7200
G1 X97.710 Y27.271 E104.7324 F3600
G0 X97.710 Y27.837 F7200
G1 X102.789 Y22.757 E105.0907 F3600
G0 X102.789 Y23.323 F7200
G1 X97.710 Y28.402 E105.4491 F3600
G0 X97.710 Y28.968 F7200
G1 X102.789 Y23.889 E105.8074 F3600
G0 X102.789 Y24.455 F7200
G1 X97.710 Y29.534 E106.1658 F3600
G0 X97.698 Y30.111 F7200
G1 X102.789 Y25.020 E106.5250 F3600
G0 X102.789 Y25.586 F7200
G1 X97.578 Y30.797 E106.8927 F3600
G0 X95.626 Y32.750 F7200
G1 X91.414 Y36.961 E107.1899 F3600
G0 X90.848 Y36.961 F7200
G1 X94.939 Y32.870 E107.4785 F3600
G0 X94.362 Y32.882 F7200
G1 X90.283 Y36.961 E107.7663 F3600
G0 X89.717 Y36.961 F7200
G1 X93.796 Y32.882 E108.0541 F3600
G0 X93.268 Y32.844 F7200
G1 X89.151 Y36.961 E108.3446 F3600
G0 X88.586 Y36.961 F7200
G1 X92.815 Y32.732 E108.6430 F3600
G0 X92.415 Y32.566 F7200
G1 X88.020 Y36.961 E108.9530 F3600
G0 X87.454 Y36.961 F7200
G1 X92.063 Y32.353 E109.2782 F3600
G0 X91.750 Y32.099 F7200
G1 X86.888 Y36.961 E109.6212 F3600
G0 X86.323 Y36.961 F7200
G1 X91.476 Y31.808 E109.9848 F3600
G0 X91.239 Y31.479 F7200
G1 X85.757 Y36.961 E110.3716 F3600
G0 X85.191 Y36.961 F7200
G1 X91.044 Y31.109 E110.7845 F3600
G0 X90.896 Y30.691 F7200
G1 X84.626 Y36.961 E111.2269 F3600
G0 X84.210 Y36.811 F7200
G1 X90.809 Y30.212 E111.6925 F3600
G0 X90.789 Y29.666 F7200
G1 X84.210 Y36.245 E112.1566 F3600
G0 X84.210 Y35.680 F7200
G1 X90.789 Y29.101 E112.6208 F3600
G0 X90.789 Y28.535 F7200
G1 X84.210 Y35.114 E113.0850 F3600
G0 X84.210 Y34.548 F7200
G1 X90.789 Y27.969 E113.5492 F3600
G0 X90.789 Y27.404 F7200
G1 X84.210 Y33.983 E114.0134 F3600
G0 X84.210 Y33.417 F7200
G1 X90.789 Y26.838 E114.4775 F3600
G0 X90.789 Y26.272 F7200
G1 X84.210 Y32.851 E114.9417 F3600
G0 X84.210 Y32.286 F7200
G1 X90.789 Y25.707 E115.4059 F3600
G0 X90.789 Y25.141 F7200
G1 X84.210 Y31.720 E115.8701 F3600
G0 X84.210 Y31.154 F7200
G1 X90.789 Y24.575 E116.3343 F3600
G0 X90.789 Y24.010 F7200
G1 X84.210 Y30.589 E116.7984 F3600
G0 X84.210 Y30.023 F7200
G1 X90.789 Y23.444 E117.2626 F3600
G0 X90.789 Y22.878 F7200
G1 X84.210 Y29.457 E117.7268 F3600
G0 X84.210 Y28.892 F7200
G1 X90.789 Y22.313 E118.1910 F3600
G0 X90.789 Y21.747 F7200
G1 X84.210 Y28.326 E118.6552 F3600
G0 X84.210 Y27.760 F7200
G1 X90.789 Y21.181 E119.1193 F3600
G0 X90.789 Y20.616 F7200
G1 X84.210 Y27.195 E119.5835 F3600
G0 X84.210 Y26.629 F7200
G1 X90.789 Y20.050 E120.0477 F3600
G0 X90.789 Y19.484 F7200
G1 X84.210 Y26.063 E120.5119 F3600
G0 X84.210 Y25.497 F7200
G1 X90.789 Y18.918 E120.9761 F3600
G0 X90.789 Y18.353 F7200
G1 X84.210 Y24.932 E121.4402 F3600
G0 X84.210 Y24.366 F7200
G1 X90.789 Y17.787 E121.9044 F3600
G0 X90.789 Y17.221 F7200
G1 X84.210 Y23.800 E122.3686 F3600
G0 X84.210 Y23.235 F7200
G1 X90.789 Y16.656 E122.8328 F3600
G0 X84.210 Y12.487 F7200
G1 X87.815 Y8.882 E123.0871 F3600
G0 X88.380 Y8.882 F7200
G1 X84.210 Y13.052 E123.3813 F3600
G0 X84.210 Y13.618 F7200
G1 X88.946 Y8.882 E123.7155 F3600
G0 X89.512 Y8.882 F7200
G1 X84.210 Y14.184 E124.0896 F3600
G0 X84.210 Y14.749 F7200
G1 X90.077 Y8.882 E124.5035 F3600
G0 X90.643 Y8.882 F7200
G1 X84.210 Y15.315 E124.9574 F3600
G0 X84.210 Y15.881 F7200
G1 X91.209 Y8.882 E125.4512 F3600
G0 X91.775 Y8.882 F7200
G1 X84.210 Y16.446 E125.9849 F3600
G0 X84.210 Y17.012 F7200
G1 X92.340 Y8.882 E126.5585 F3600
G0 X92.906 Y8.882 F7200
G1 X84.210 Y17.578 E127.1721 F3600
G0 X84.210 Y18.144 F7200
G1 X93.472 Y8.882 E127.8255 F3600
G0 X94.037 Y8.882 F7200
G1 X84.210 Y18.709 E128.5189 F3600
G0 X84.210 Y19.275 F7200
G1 X94.603 Y8.882 E129.2521 F3600
G0 X95.169 Y8.882 F7200
G1 X84.210 Y19.841 E130.0253 F3600
G0 X84.210 Y20.406 F7200
G1 X95.734 Y8.882 E130.8384 F3600
G0 X96.300 Y8.882 F7200
G1 X84.210 Y20.972 E131.6914 F3600
G0 X84.210 Y21.538 F7200
G1 X91.065 Y14.683 E132.1750 F3600
G0 X91.342 Y14.954 F7200
G0 X91.431 Y14.740
G0 X91.645 Y14.392
G0 X91.910 Y14.082
G0 X92.220 Y13.817
G0 X92.568 Y13.603
G0 X92.945 Y13.447
G0 X93.343 Y13.351
G0 X93.726 Y13.321
G0 X94.773 Y13.321
G0 X95.157 Y13.351
G0 X95.554 Y13.447
G0 X95.931 Y13.603
G0 X96.279 Y13.817
G0 X96.590 Y14.081
G0 X96.855 Y14.392
G0 X97.068 Y14.740
G0 X97.225 Y15.118
G0 X97.320 Y15.515
G0 X97.350 Y15.898
G0 X97.350 Y20.831
G0 X97.350 Y20.831
G0 X102.799 Y26.161
G0 X102.789 Y26.152
G1 X91.980 Y36.961 E132.9377 F3600
G0 X92.545 Y36.961 F7200
G1 X102.789 Y26.717 E133.6605 F3600
G0 X102.789 Y27.283 F7200
G1 X93.111 Y36.961 E134.3433 F3600
G0 X93.677 Y36.961 F7200
G1 X102.789 Y27.849 E134.9863 F3600
G0 X102.789 Y28.414 F7200
G1 X94.242 Y36.961 E135.5893 F3600
G0 X94.808 Y36.961 F7200
G1 X102.789 Y28.980 E136.1524 F3600
G0 X102.789 Y29.546 F7200
G1 X95.374 Y36.961 E136.6756 F3600
G0 X95.939 Y36.961 F7200
G1 X102.800 Y30.100 E137.1597 F3600
G0 X102.873 Y30.594 F7200
G1 X96.505 Y36.961 E137.6090 F3600
G0 X97.071 Y36.961 F7200
G1 X103.008 Y31.024 E138.0279 F3600
G0 X103.685 Y32.044 F7200
G1 X98.768 Y36.961 E138.3749 F3600
G0 X99.334 Y36.961 F7200
G1 X103.991 Y32.304 E138.7034 F3600
G0 X104.339 Y32.522 F7200
G1 X99.899 Y36.961 E139.0166 F3600
G0 X100.465 Y36.961 F7200
G1 X104.729 Y32.697 E139.3175 F3600
G0 X105.171 Y32.821 F7200
G1 X101.031 Y36.961 E139.6096 F3600
G0 X101.596 Y36.961 F7200
G1 X105.678 Y32.880 E139.8976 F3600
G0 X106.241 Y32.882 F7200
G1 X102.162 Y36.961 E140.1854 F3600
G0 X102.728 Y36.961 F7200
G1 X106.808 Y32.881 E140.4733 F3600
G0 X107.467 Y32.788 F7200
G1 X103.293 Y36.961 E140.7678 F3600
G0 X103.859 Y36.961 F7200
G1 X108.556 Y32.264 E141.0992 F3600
G0 X114.889 Y15.184 F7200
G1 X109.710 Y20.362 E141.4646 F3600
G0 X109.710 Y20.928 F7200
G1 X114.792 Y15.846 E141.8231 F3600
G0 X114.789 Y16.414 F7200
G1 X109.710 Y21.493 E142.1815 F3600
G0 X109.710 Y22.059 F7200
G1 X114.789 Y16.980 E142.5398 F3600
G0 X114.789 Y17.546 F7200
G1 X109.710 Y22.625 E142.8981 F3600
G0 X109.710 Y23.190 F7200
G1 X114.789 Y18.111 E143.2565 F3600
G0 X114.789 Y18.677 F7200
G1 X109.710 Y23.756 E143.6148 F3600
G0 X109.710 Y24.322 F7200
G1 X114.789 Y19.243 E143.9732 F3600
G0 X114.789 Y19.809 F7200
G1 X109.710 Y24.887 E144.3315 F3600
G0 X109.710 Y25.453 F7200
G1 X114.789 Y20.374 E144.6898 F3600
G0 X114.789 Y20.940 F7200
G1 X109.710 Y26.019 E145.0482 F3600
G0 X109.710 Y26.584 F7200
G1 X114.789 Y21.506 E145.4065 F3600
G0 X114.789 Y22.071 F7200
G1 X109.710 Y27.150 E145.7648 F3600
G0 X109.710 Y27.716 F7200
G1 X114.789 Y22.637 E146.1232 F3600
G0 X114.789 Y23.203 F7200
G1 X109.710 Y28.282 E146.4815 F3600
G0 X109.710 Y28.847 F7200
G1 X114.789 Y23.768 E146.8399 F3600
G0 X114.789 Y24.334 F7200
G1 X109.710 Y29.413 E147.1982 F3600
G0 X109.709 Y29.980 F7200
G1 X114.789 Y24.900 E147.5566 F3600
G0 X114.789 Y25.465 F7200
G1 X109.616 Y30.639 E147.9217 F3600
G0 X109.092 Y31.728 F7200
G1 X114.789 Y26.031 E148.3236 F3600
G0 X114.789 Y26.597 F7200
G1 X104.425 Y36.961 E149.0549 F3600
G0 X104.990 Y36.961 F7200
G1 X114.789 Y27.162 E149.7463 F3600
G0 X114.789 Y27.728 F7200
G1 X105.556 Y36.961 E150.3977 F3600
G0 X106.122 Y36.961 F7200
G1 X114.789 Y28.294 E151.0093 F3600
G0 X114.789 Y28.859 F7200
G1 X106.687 Y36.961 E151.5809 F3600
G0 X107.253 Y36.961 F7200
G1 X114.789 Y29.425 E152.1126 F3600
G0 X114.792 Y29.989 F7200
G1 X107.819 Y36.961 E152.6045 F3600
G0 X108.385 Y36.961 F7200
G1 X114.849 Y30.496 E153.0607 F3600
G0 X114.973 Y30.938 F7200
G1 X108.950 Y36.961 E153.4856 F3600
G0 X109.516 Y36.961 F7200
G1 X115.148 Y31.330 E153.8830 F3600
G0 X115.365 Y31.678 F7200
G1 X110.082 Y36.961 E154.2557 F3600
G0 X110.647 Y36.961 F7200
G1 X115.625 Y31.983 E154.6069 F3600
G0 X115.925 Y32.249 F7200
G1 X111.213 Y36.961 E154.9394 F3600
G0 X111.739 Y37.001 F7200
G1 X116.264 Y32.476 E155.2587 F3600
G0 X116.644 Y32.661 F7200
G1 X112.192 Y37.114 E155.5728 F3600
G0 X112.591 Y37.280 F7200
G1 X117.074 Y32.798 E155.8891 F3600
G0 X117.566 Y32.871 F7200
G1 X112.943 Y37.494 E156.2153 F3600
G0 X113.254 Y37.748 F7200
G1 X118.120 Y32.882 E156.5586 F3600
G0 X118.686 Y32.882 F7200
G1 X113.528 Y38.040 E156.9225 F3600
G0 X113.764 Y38.370 F7200
G1 X119.308 Y32.826 E157.3137 F3600
G0 X120.204 Y32.495 F7200
G1 X113.959 Y38.741 E157.7544 F3600
G0 X114.105 Y39.160 F7200
G1 X126.789 Y26.476 E158.6493 F3600
G0 X126.789 Y27.042 F7200
G1 X114.191 Y39.640 E159.5381 F3600
G0 X114.210 Y40.186 F7200
G1 X126.789 Y27.608 E160.4256 F3600
G0 X126.789 Y28.173 F7200
G1 X114.210 Y40.752 E161.3131 F3600
G0 X114.210 Y41.318 F7200
G1 X126.789 Y28.739 E162.2006 F3600
G0 X126.789 Y29.305 F7200
G1 X114.210 Y41.883 E163.0881 F3600
G0 X114.210 Y42.449 F7200
G1 X126.789 Y29.870 E163.9756 F3600
G0 X126.826 Y30.399 F7200
G1 X114.210 Y43.015 E164.8657 F3600
G0 X114.210 Y43.581 F7200
G1 X126.938 Y30.853 E165.7637 F3600
G0 X127.103 Y31.253 F7200
G1 X114.210 Y44.146 E166.6734 F3600
G0 X114.210 Y44.712 F7200
G1 X127.317 Y31.606 E167.5981 F3600
G0 X127.570 Y31.918 F7200
G1 X114.210 Y45.278 E168.5407 F3600
G0 X114.210 Y45.843 F7200
G1 X127.860 Y32.193 E169.5038 F3600
G0 X128.189 Y32.430 F7200
G1 X114.210 Y46.409 E170.4901 F3600
G0 X114.210 Y46.975 F7200
G1 X122.610 Y38.575 E171.0827 F3600
G0 X122.332 Y39.419 F7200
G1 X114.210 Y47.540 E171.6557 F3600
G0 X114.210 Y48.106 F7200
G1 X122.289 Y40.027 E172.2257 F3600
G0 X122.289 Y40.593 F7200
G1 X114.210 Y48.672 E172.7957 F3600
G0 X114.210 Y49.237 F7200
G1 X122.289 Y41.159 E173.3657 F3600
G0 X122.289 Y41.724 F7200
G1 X114.210 Y49.803 E173.9357 F3600
G0 X114.210 Y50.369 F7200
G1 X122.289 Y42.290 E174.5057 F3600
G0 X122.289 Y42.856 F7200
G1 X114.210 Y50.934 E175.0758 F3600
G0 X114.210 Y51.500 F7200
G1 X122.289 Y43.421 E175.6458 F3600
G0 X122.289 Y43.987 F7200
G1 X114.210 Y52.066 E176.2158 F3600
G0 X114.210 Y52.632 F7200
G1 X122.289 Y44.553 E176.7858 F3600
G0 X122.289 Y45.118 F7200
G1 X114.210 Y53.197 E177.3558 F3600
G0 X114.210 Y53.763 F7200
G1 X122.289 Y45.684 E177.9258 F3600
G0 X122.289 Y46.250 F7200
G1 X114.210 Y54.329 E178.4958 F3600
G0 X114.210 Y54.894 F7200
G1 X122.289 Y46.815 E179.0658 F3600
G0 X122.289 Y47.381 F7200
G1 X114.210 Y55.460 E179.6358 F3600
G0 X114.210 Y56.026 F7200
G1 X122.289 Y47.947 E180.2058 F3600
G0 X122.289 Y48.512 F7200
G1 X114.210 Y56.591 E180.7758 F3600
G0 X114.210 Y57.157 F7200
G1 X122.289 Y49.078 E181.3458 F3600
G0 X122.289 Y49.644 F7200
G1 X114.210 Y57.723 E181.9158 F3600
G0 X114.210 Y58.288 F7200
G1 X122.289 Y50.210 E182.4858 F3600
G0 X122.289 Y50.775 F7200
G1 X114.210 Y58.854 E183.0559 F3600
G0 X114.210 Y59.420 F7200
G1 X122.289 Y51.341 E183.6259 F3600
G0 X122.289 Y51.907 F7200
G1 X114.210 Y59.985 E184.1959 F3600
G0 X114.210 Y60.551 F7200
G1 X122.289 Y52.472 E184.7659 F3600
G0 X122.289 Y53.038 F7200
G1 X114.210 Y61.117 E185.3359 F3600
G0 X114.210 Y61.682 F7200
G1 X122.289 Y53.604 E185.9059 F3600
G0 X122.289 Y54.169 F7200
G1 X114.210 Y62.248 E186.4759 F3600
G0 X114.210 Y62.814 F7200
G1 X122.289 Y54.735 E187.0459 F3600
G0 X122.289 Y55.301 F7200
G1 X114.210 Y63.380 E187.6159 F3600
G0 X114.210 Y63.945 F7200
G1 X122.289 Y55.866 E188.1859 F3600
G0 X122.289 Y56.432 F7200
G1 X114.210 Y64.511 E188.7559 F3600
G0 X114.210 Y65.077 F7200
G1 X122.289 Y56.998 E189.3259 F3600
G0 X122.289 Y57.563 F7200
G1 X114.210 Y65.642 E189.8959 F3600
G0 X114.210 Y66.208 F7200
G1 X122.289 Y58.129 E190.4659 F3600
G0 X122.289 Y58.695 F7200
G1 X114.210 Y66.774 E191.0360 F3600
G0 X114.210 Y67.339 F7200
G1 X122.289 Y59.261 E191.6060 F3600
G0 X122.289 Y59.826 F7200
G1 X114.210 Y67.905 E192.1760 F3600
G0 X114.210 Y68.471 F7200
G1 X122.289 Y60.392 E192.7460 F3600
G0 X122.289 Y60.958 F7200
G1 X114.210 Y69.036 E193.3160 F3600
G0 X114.210 Y69.602 F7200
G1 X122.289 Y61.523 E193.8860 F3600
G0 X122.289 Y62.089 F7200
G1 X114.210 Y70.168 E194.4560 F3600
G0 X114.210 Y70.733 F7200
G1 X122.289 Y62.655 E195.0260 F3600
G0 X122.289 Y63.220 F7200
G1 X114.210 Y71.299 E195.5960 F3600
G0 X114.210 Y71.865 F7200
G1 X122.289 Y63.786 E196.1660 F3600
G0 X122.289 Y64.352 F7200
G1 X114.210 Y72.430 E196.7360 F3600
G0 X114.210 Y72.996 F7200
G1 X122.289 Y64.917 E197.3060 F3600
G0 X122.289 Y65.483 F7200
G1 X114.210 Y73.562 E197.8760 F3600
G0 X114.210 Y74.128 F7200
G1 X122.289 Y66.049 E198.4461 F3600
G0 X122.289 Y66.614 F7200
G1 X114.210 Y74.693 E199.0161 F3600
G0 X114.210 Y75.259 F7200
G1 X122.289 Y67.180 E199.5861 F3600
G0 X122.289 Y67.746 F7200
G1 X114.210 Y75.825 E200.1561 F3600
G0 X114.210 Y76.390 F7200
G1 X122.289 Y68.311 E200.7261 F3600
G0 X122.289 Y68.877 F7200
G1 X114.210 Y76.956 E201.2961 F3600
G0 X114.210 Y77.522 F7200
G1 X122.289 Y69.443 E201.8661 F3600
G0 X122.289 Y70.009 F7200
G1 X114.210 Y78.087 E202.4361 F3600
G0 X114.210 Y78.653 F7200
G1 X122.289 Y70.574 E203.0061 F3600
G0 X122.289 Y71.140 F7200
G1 X114.210 Y79.219 E203.5761 F3600
G0 X114.210 Y79.784 F7200
G1 X122.289 Y71.706 E204.1461 F3600
G0 X122.289 Y72.271 F7200
G1 X114.210 Y80.350 E204.7161 F3600
G0 X114.210 Y80.916 F7200
G1 X122.289 Y72.837 E205.2861 F3600
G0 X122.289 Y73.403 F7200
G1 X114.210 Y81.481 E205.8561 F3600
G0 X114.210 Y82.047 F7200
G1 X122.289 Y73.968 E206.4262 F3600
G0 X122.289 Y74.534 F7200
G1 X114.210 Y82.613 E206.9962 F3600
G0 X114.210 Y83.178 F7200
G1 X122.289 Y75.100 E207.5662 F3600
G0 X122.289 Y75.665 F7200
G1 X114.210 Y83.744 E208.1362 F3600
G0 X114.210 Y84.310 F7200
G1 X122.289 Y76.231 E208.7062 F3600
G0 X122.289 Y76.797 F7200
G1 X114.210 Y84.876 E209.2762 F3600
G0 X114.210 Y85.441 F7200
G1 X122.289 Y77.362 E209.8462 F3600
G0 X122.289 Y77.928 F7200
G1 X114.210 Y86.007 E210.4162 F3600
G0 X114.210 Y86.573 F7200
G1 X122.289 Y78.494 E210.9862 F3600
G0 X122.289 Y79.059 F7200
G1 X114.210 Y87.138 E211.5562 F3600
G0 X114.210 Y87.704 F7200
G1 X122.289 Y79.625 E212.1262 F3600
G0 X122.289 Y80.191 F7200
G1 X114.114 Y88.366 E212.7030 F3600
G0 X122.996 Y94.192 F7200
G1 X121.330 Y95.858 E212.8205 F3600
G0 X120.313 Y96.309 F7200
G1 X123.476 Y93.146 E213.0437 F3600
G0 X123.645 Y92.412 F7200
G1 X119.578 Y96.479 E213.3306 F3600
G0 X118.955 Y96.535 F7200
G1 X123.682 Y91.809 E213.6641 F3600
G0 X123.660 Y91.265 F7200
G1 X118.401 Y96.524 E214.0351 F3600
G0 X117.830 Y96.529 F7200
G1 X123.601 Y90.758 E214.4423 F3600
G0 X123.474 Y90.320 F7200
G1 X117.263 Y96.531 E214.8805 F3600
G0 X116.772 Y96.456 F7200
G1 X123.335 Y89.893 E215.3436 F3600
G0 X123.149 Y89.514 F7200
G1 X116.312 Y96.351 E215.8260 F3600
G0 X115.887 Y96.209 F7200
G1 X122.951 Y89.146 E216.3243 F3600
G0 X122.713 Y88.818 F7200
G1 X115.498 Y96.033 E216.8334 F3600
G0 X115.129 Y95.836 F7200
G1 X122.475 Y88.490 E217.3517 F3600
G0 X122.289 Y88.110 F7200
G1 X114.794 Y95.606 E217.8806 F3600
G0 X114.476 Y95.358 F7200
G1 X122.289 Y87.545 E218.4319 F3600
G0 X122.289 Y86.979 F7200
G1 X114.187 Y95.081 E219.0035 F3600
G0 X113.918 Y94.785 F7200
G1 X122.289 Y86.413 E219.5941 F3600
G0 X122.289 Y85.848 F7200
G1 X113.675 Y94.461 E220.2019 F3600
G0 X113.455 Y94.116 F7200
G1 X122.289 Y85.282 E220.8252 F3600
G0 X122.289 Y84.716 F7200
G1 X113.264 Y93.742 E221.4620 F3600
G0 X113.097 Y93.343 F7200
G1 X122.289 Y84.151 E222.1106 F3600
G0 X122.289 Y83.585 F7200
G1 X112.968 Y92.906 E222.7682 F3600
G0 X112.862 Y92.446 F7200
G1 X122.289 Y83.019 E223.4333 F3600
G0 X122.289 Y82.454 F7200
G1 X112.824 Y91.919 E224.1012 F3600
G0 X112.830 Y91.347 F7200
G1 X122.289 Y81.888 E224.7686 F3600
G0 X122.289 Y81.322 F7200
G1 X112.915 Y90.696 E225.4300 F3600
G0 X113.176 Y89.870 F7200
G1 X122.289 Y80.757 E226.0730 F3600
G0 X122.649 Y79.155 F7200
G0 X122.649 Y39.898
G0 X122.679 Y39.514
G0 X122.775 Y39.118
G0 X122.931 Y38.740
G0 X123.145 Y38.392
G0 X123.409 Y38.082
G0 X123.720 Y37.816
G0 X124.068 Y37.603
G0 X124.445 Y37.447
G0 X124.843 Y37.351
G0 X125.226 Y37.321
G0 X132.054 Y37.321
G0 X132.054 Y37.321
G0 X133.448 Y31.121
G0 X133.445 Y31.134
G1 X138.789 Y25.790 E226.4500 F3600
G0 X138.789 Y25.224 F7200
G1 X133.681 Y30.333 E226.8105 F3600
G0 X133.710 Y29.738 F7200
G1 X138.789 Y24.658 E227.1688 F3600
G0 X138.789 Y24.093 F7200
G1 X133.710 Y29.172 E227.5272 F3600
G0 X133.710 Y28.606 F7200
G1 X138.789 Y23.527 E227.8856 F3600
G0 X138.789 Y22.961 F7200
G1 X133.710 Y28.041 E228.2439 F3600
G0 X133.710 Y27.475 F7200
G1 X138.789 Y22.396 E228.6023 F3600
G0 X138.789 Y21.830 F7200
G1 X133.710 Y26.909 E228.9607 F3600
G0 X133.710 Y26.343 F7200
G1 X138.789 Y21.264 E229.3190 F3600
G0 X138.789 Y20.699 F7200
G1 X133.710 Y25.778 E229.6774 F3600
G0 X133.710 Y25.212 F7200
G1 X138.789 Y20.133 E230.0358 F3600
G0 X138.789 Y19.567 F7200
G1 X133.710 Y24.646 E230.3941 F3600
G0 X133.710 Y24.081 F7200
G1 X138.789 Y19.002 E230.7525 F3600
G0 X138.789 Y18.436 F7200
G1 X133.710 Y23.515 E231.1109 F3600
G0 X133.710 Y22.949 F7200
G1 X138.789 Y17.870 E231.4692 F3600
G0 X138.789 Y17.304 F7200
G1 X133.710 Y22.384 E231.8276 F3600
G0 X133.710 Y21.818 F7200
G1 X138.789 Y16.739 E232.1860 F3600
G0 X138.789 Y16.173 F7200
G1 X133.710 Y21.252 E232.5443 F3600
G0 X133.710 Y20.687 F7200
G1 X138.813 Y15.584 E232.9044 F3600
G0 X139.006 Y14.825 F7200
G1 X133.710 Y20.121 E233.2780 F3600
G0 X133.710 Y19.555 F7200
G1 X144.383 Y8.882 E234.0311 F3600
G0 X143.818 Y8.882 F7200
G1 X133.710 Y18.990 E234.7442 F3600
G0 X133.710 Y18.424 F7200
G1 X143.252 Y8.882 E235.4174 F3600
G0 X142.686 Y8.882 F7200
G1 X133.710 Y17.858 E236.0507 F3600
G0 X133.710 Y17.292 F7200
G1 X142.120 Y8.882 E236.6441 F3600
G0 X141.555 Y8.882 F7200
G1 X133.710 Y16.727 E237.1976 F3600
G0 X133.710 Y16.161 F7200
G1 X140.989 Y8.882 E237.7112 F3600
G0 X140.423 Y8.882 F7200
G1 X133.689 Y15.616 E238.1863 F3600
G0 X133.600 Y15.140 F7200
G1 X139.858 Y8.882 E238.6278 F3600
G0 X139.292 Y8.882 F7200
G1 X133.451 Y14.723 E239.0399 F3600
G0 X133.254 Y14.354 F7200
G1 X138.726 Y8.882 E239.4260 F3600
G0 X138.161 Y8.882 F7200
G1 X133.016 Y14.026 E239.7890 F3600
G0 X132.740 Y13.737 F7200
G1 X137.595 Y8.882 E240.1315 F3600
G0 X137.029 Y8.882 F7200
G1 X132.427 Y13.485 E240.4562 F3600
G0 X132.074 Y13.272 F7200
G1 X136.464 Y8.882 E240.7660 F3600
G0 X135.898 Y8.882 F7200
G1 X131.673 Y13.107 E241.0640 F3600
G0 X131.219 Y12.996 F7200
G1 X135.332 Y8.882 E241.3543 F3600
G0 X134.767 Y8.882 F7200
G1 X130.688 Y12.961 E241.6421 F3600
G0 X130.122 Y12.961 F7200
G1 X134.201 Y8.882 E241.9299 F3600
G0 X133.635 Y8.882 F7200
G1 X129.543 Y12.974 E242.2186 F3600
G0 X128.853 Y13.099 F7200
G1 X133.070 Y8.882 E242.5161 F3600
G0 X144.949 Y8.882 F7200
G1 X140.653 Y13.178 E242.8192 F3600
G0 X141.412 Y12.985 F7200
G1 X145.515 Y8.882 E243.1087 F3600
G0 X146.080 Y8.882 F7200
G1 X142.001 Y12.961 E243.3965 F3600
G0 X142.567 Y12.961 F7200
G1 X146.646 Y8.882 E243.6842 F3600
G0 X147.212 Y8.882 F7200
G1 X143.108 Y12.986 E243.9738 F3600
G0 X143.577 Y13.082 F7200
G1 X147.777 Y8.882 E244.2701 F3600
G0 X148.343 Y8.882 F7200
G1 X143.988 Y13.237 E244.5774 F3600
G0 X144.352 Y13.439 F7200
G1 X148.909 Y8.882 E244.8989 F3600
G0 X149.474 Y8.882 F7200
G1 X144.675 Y13.681 E245.2375 F3600
G0 X144.961 Y13.961 F7200
G1 X150.040 Y8.882 E245.5958 F3600
G0 X150.606 Y8.882 F7200
G1 X145.208 Y14.280 E245.9767 F3600
G0 X145.416 Y14.638 F7200
G1 X151.171 Y8.882 E246.3827 F3600
G0 X151.737 Y8.882 F7200
G1 X145.577 Y15.042 E246.8174 F3600
G0 X145.681 Y15.504 F7200
G1 X152.289 Y8.896 E247.2836 F3600
G0 X152.289 Y9.461 F7200
G1 X145.710 Y16.040 E247.7478 F3600
G0 X145.710 Y16.606 F7200
G1 X152.289 Y10.027 E248.2120 F3600
G0 X152.289 Y10.593 F7200
G1 X145.710 Y17.172 E248.6762 F3600
G0 X145.710 Y17.737 F7200
G1 X152.289 Y11.158 E249.1404 F3600
G0 X152.289 Y11.724 F7200
G1 X145.710 Y18.303 E249.6046 F3600
G0 X145.710 Y18.869 F7200
G1 X152.289 Y12.290 E250.0688 F3600
G0 X152.289 Y12.855 F7200
G1 X145.710 Y19.434 E250.5330 F3600
G0 X145.710 Y20.000 F7200
G1 X152.289 Y13.421 E250.9971 F3600
G0 X152.289 Y13.987 F7200
G1 X145.710 Y20.566 E251.4613 F3600
G0 X145.710 Y21.132 F7200
G1 X152.289 Y14.553 E251.9255 F3600
G0 X152.289 Y15.118 F7200
G1 X145.710 Y21.697 E252.3897 F3600
G0 X145.710 Y22.263 F7200
G1 X152.289 Y15.684 E252.8539 F3600
G0 X152.289 Y16.250 F7200
G1 X145.710 Y22.829 E253.3181 F3600
G0 X145.710 Y23.394 F7200
G1 X152.289 Y16.815 E253.7823 F3600
G0 X152.289 Y17.381 F7200
G1 X145.710 Y23.960 E254.2465 F3600
G0 X145.710 Y24.526 F7200
G1 X152.289 Y17.947 E254.7106 F3600
G0 X152.289 Y18.512 F7200
G1 X145.710 Y25.091 E255.1748 F3600
G0 X145.710 Y25.657 F7200
G1 X152.289 Y19.078 E255.6390 F3600
G0 X152.289 Y19.644 F7200
G1 X145.710 Y26.223 E256.1032 F3600
G0 X145.710 Y26.788 F7200
G1 X152.289 Y20.209 E256.5674 F3600
G0 X152.289 Y20.775 F7200
G1 X145.710 Y27.354 E257.0315 F3600
G0 X145.710 Y27.920 F7200
G1 X152.289 Y21.341 E257.4957 F3600
G0 X152.289 Y21.906 F7200
G1 X145.710 Y28.485 E257.9599 F3600
G0 X145.710 Y29.051 F7200
G1 X152.289 Y22.472 E258.4241 F3600
G0 X152.289 Y23.038 F7200
G1 X145.710 Y29.617 E258.8882 F3600
G0 X145.691 Y30.202 F7200
