; GCode generated by CraftWare

G28 X0 Y0
G28 Z0


M104 S215 ;set head temp (no wait)
M190 S60 ;set bed temp (wait)
M109 S215 ;set head temp (wait)
; ------------------------------------
; Layer #0
; ------------------------------------
M106 S0 ;turn off fan
G21 ; mm
G90 ; abs
G92 E0 ;reset extr
G0 F1200 Z0.300
;segType:Skirt
G0 F3000 E-1.0000
G0 X83.600 Y48.347 F5400
G0 F3000 E0.0000
G1 X80.683 Y45.430 E0.2058 F2400
G1 X80.617 Y44.966 E0.2292
G1 X80.617 Y13.674 E1.7904
G1 X80.683 Y13.210 E1.8138
G1 X83.600 Y10.293 E2.0196
G1 X151.488 Y10.293 E5.4065
G1 X155.200 Y10.293 E5.5917
G1 X155.664 Y10.359 E5.6151
G1 X158.582 Y13.276 E5.8209
G1 X158.582 Y45.364 E7.4218
G1 X155.664 Y48.281 E7.6276
G1 X155.200 Y48.347 E7.6510
G1 X128.682 Y48.347 E8.9740
G1 X128.616 Y48.811 E8.9974
G1 X128.616 Y53.319 E9.2223
G1 X129.013 Y53.982 E9.2609
G1 X129.013 Y54.247 E9.2741
G1 X129.146 Y54.380 E9.2834
G1 X129.146 Y54.645 E9.2967
G1 X129.279 Y54.778 E9.3060
G1 X129.279 Y55.043 E9.3193
G1 X129.411 Y55.175 E9.3286
G1 X129.411 Y55.706 E9.3551
G1 X129.544 Y56.104 E9.3760
G1 X129.544 Y58.490 E9.4951
G1 X129.411 Y58.623 E9.5044
G1 X129.411 Y59.153 E9.5309
G1 X129.279 Y60.081 E9.5777
G1 X129.146 Y60.214 E9.5870
G1 X129.146 Y60.479 E9.6002
G1 X129.013 Y60.612 E9.6096
G1 X129.013 Y60.877 E9.6228
G1 X128.416 Y61.872 E9.6807
G1 X128.151 Y62.137 E9.6994
G1 X127.953 Y62.468 E9.7187
G1 X125.036 Y65.385 E9.9245
G1 X124.704 Y65.584 E9.9438
G1 X124.174 Y66.115 E9.9812
G1 X123.511 Y66.512 E10.0198
G1 X123.378 Y66.645 E10.0291
G1 X123.113 Y66.645 E10.0424
G1 X122.782 Y66.844 E10.0616
G1 X122.384 Y66.976 E10.0826
G1 X121.919 Y67.043 E10.1060
G1 X121.787 Y67.175 E10.1153
G1 X117.544 Y67.175 E10.3270
G1 X117.146 Y67.043 E10.3479
G1 X116.881 Y67.043 E10.3611
G1 X116.748 Y66.910 E10.3705
G1 X116.483 Y66.910 E10.3837
G1 X116.151 Y66.711 E10.4030
G1 X115.754 Y66.578 E10.4240
G1 X115.091 Y66.181 E10.4625
G1 X114.826 Y65.915 E10.4812
G1 X114.494 Y65.717 E10.5005
G1 X111.312 Y62.535 E10.7250
G1 X111.113 Y62.203 E10.7443
G1 X110.848 Y61.938 E10.7630
G1 X110.251 Y60.943 E10.8209
G1 X110.119 Y60.546 E10.8418
G1 X109.920 Y60.214 E10.8611
G1 X109.920 Y59.684 E10.8876
G1 X109.787 Y59.551 E10.8969
G1 X109.787 Y59.021 E10.9234
G1 X109.654 Y58.092 E10.9702
G1 X109.654 Y55.971 E11.0760
G1 X109.787 Y55.838 E11.0854
G1 X109.787 Y55.308 E11.1118
G1 X109.920 Y55.175 E11.1212
G1 X109.986 Y54.711 E11.1446
G1 X110.119 Y54.313 E11.1655
G1 X110.317 Y53.982 E11.1848
G1 X110.450 Y53.584 E11.2057
G1 X110.583 Y53.452 E11.2150
G1 X110.583 Y48.413 E11.4664
G1 X110.119 Y48.347 E11.4898
G1 X83.600 Y48.347 E12.8128
;segType:HShell
G0 F3000 E11.8128
G0 X85.626 Y15.306 F5400
G0 F3000 E12.8128
G1 X92.231 Y21.910 E13.2788 F2400
G0 X92.205 Y22.450 F5400
G1 X85.626 Y15.871 E13.7430 F2400
;segType:Perimeter
G0 X84.926 Y14.477 F5400
G1 X154.465 Y14.477 E17.2123 F1440
G1 X154.465 Y44.076 E18.6890
G1 X126.657 Y44.076 E20.0763
G1 X126.321 Y44.102 E20.0931
G1 X125.985 Y44.183 E20.1104
G1 X125.666 Y44.315 E20.1276
G1 X125.372 Y44.496 E20.1448
G1 X125.109 Y44.720 E20.1621
G1 X124.885 Y44.983 E20.1793
G1 X124.704 Y45.277 E20.1965
G1 X124.572 Y45.596 E20.2138
G1 X124.491 Y45.932 E20.2310
G1 X124.465 Y46.268 E20.2478
G1 X124.465 Y54.326 E20.6498
G1 X124.928 Y55.205 E20.6994
G1 X125.218 Y56.086 E20.7457
G1 X125.359 Y57.004 E20.7920
G1 X125.347 Y57.931 E20.8383
G1 X125.181 Y58.844 E20.8846
G1 X124.867 Y59.717 E20.9309
G1 X124.413 Y60.527 E20.9771
G1 X123.832 Y61.250 E21.0234
G1 X123.139 Y61.867 E21.0697
G1 X122.354 Y62.362 E21.1160
G1 X121.498 Y62.719 E21.1623
G1 X120.595 Y62.931 E21.2086
G1 X119.665 Y62.991 E21.2551
G1 X118.736 Y62.931 E21.3015
G1 X117.832 Y62.719 E21.3478
G1 X116.977 Y62.362 E21.3941
G1 X116.191 Y61.867 E21.4404
G1 X115.499 Y61.250 E21.4867
G1 X114.917 Y60.527 E21.5330
G1 X114.464 Y59.717 E21.5793
G1 X114.150 Y58.844 E21.6256
G1 X113.984 Y57.931 E21.6718
G1 X113.972 Y57.004 E21.7181
G1 X114.113 Y56.087 E21.7644
G1 X114.403 Y55.205 E21.8107
G1 X114.866 Y54.326 E21.8603
G1 X114.866 Y46.268 E22.2623
G1 X114.839 Y45.932 E22.2791
G1 X114.759 Y45.596 E22.2964
G1 X114.627 Y45.277 E22.3136
G1 X114.446 Y44.983 E22.3308
G1 X114.222 Y44.720 E22.3481
G1 X113.959 Y44.496 E22.3653
G1 X113.665 Y44.315 E22.3825
G1 X113.345 Y44.183 E22.3998
G1 X113.010 Y44.102 E22.4170
G1 X112.673 Y44.076 E22.4338
G1 X84.866 Y44.076 E23.8211
G1 X84.866 Y14.537 E25.2949
G0 X85.639 Y14.744 F5400
;segType:Loop
G0 X85.966 Y14.877
G1 X154.065 Y14.877 E28.6923 F2400
G1 X154.065 Y43.676 E30.1291
G1 X126.642 Y43.676 E31.4973
G1 X126.258 Y43.706 E31.5165
G1 X125.861 Y43.801 E31.5369
G1 X125.484 Y43.958 E31.5572
G1 X125.136 Y44.171 E31.5776
G1 X124.825 Y44.436 E31.5980
G1 X124.560 Y44.747 E31.6183
G1 X124.347 Y45.095 E31.6387
G1 X124.190 Y45.472 E31.6591
G1 X124.095 Y45.869 E31.6795
G1 X124.065 Y46.253 E31.6987
G1 X124.065 Y54.425 E32.1064
G1 X124.558 Y55.362 E32.1592
G1 X124.828 Y56.180 E32.2022
G1 X124.959 Y57.032 E32.2452
G1 X124.947 Y57.893 E32.2881
G1 X124.794 Y58.740 E32.3311
G1 X124.502 Y59.551 E32.3741
G1 X124.081 Y60.302 E32.4170
G1 X123.541 Y60.973 E32.4600
G1 X122.898 Y61.546 E32.5030
G1 X122.169 Y62.005 E32.5459
G1 X121.375 Y62.337 E32.5889
G1 X120.536 Y62.534 E32.6319
G1 X119.665 Y62.590 E32.6754
G1 X118.795 Y62.534 E32.7189
G1 X117.956 Y62.337 E32.7619
G1 X117.161 Y62.005 E32.8049
G1 X116.432 Y61.546 E32.8479
G1 X115.789 Y60.973 E32.8908
G1 X115.250 Y60.302 E32.9338
G1 X114.829 Y59.551 E32.9768
G1 X114.537 Y58.740 E33.0197
G1 X114.384 Y57.893 E33.0627
G1 X114.372 Y57.032 E33.1057
G1 X114.503 Y56.180 E33.1487
G1 X114.773 Y55.362 E33.1916
G1 X115.266 Y54.425 E33.2445
G1 X115.266 Y46.253 E33.6522
G1 X115.236 Y45.869 E33.6714
G1 X115.140 Y45.472 E33.6918
G1 X114.984 Y45.095 E33.7121
G1 X114.771 Y44.747 E33.7325
G1 X114.506 Y44.436 E33.7529
G1 X114.195 Y44.171 E33.7733
G1 X113.847 Y43.958 E33.7936
G1 X113.470 Y43.801 E33.8140
G1 X113.073 Y43.706 E33.8344
G1 X112.689 Y43.676 E33.8536
G1 X85.266 Y43.676 E35.2217
G1 X85.266 Y14.877 E36.6585
G1 X85.766 Y14.877 E36.6835
G0 X85.766 Y14.877 F5400
G0 X92.565 Y34.654
G0 X92.565 Y34.654
G0 X92.565 Y36.300
G0 X92.595 Y36.683
G0 X92.690 Y37.080
G0 X92.847 Y37.458
G0 X93.060 Y37.806
G0 X93.325 Y38.116
G0 X93.636 Y38.382
G0 X93.902 Y38.545
G0 X93.902 Y38.545
G0 X94.069 Y39.031
;segType:HShell
G0 X94.065 Y39.018
G1 X98.362 Y43.316 E36.9866 F2400
G0 X98.928 Y43.316 F5400
G1 X94.825 Y39.213 E37.2761 F2400
;segType:Perimeter
G0 X95.133 Y38.728 F5400
G1 X94.430 Y38.347 E37.3160 F1440
G1 X94.166 Y38.237 E37.3303
G1 X93.872 Y38.057 E37.3475
G1 X93.609 Y37.833 E37.3647
G1 X93.385 Y37.570 E37.3820
G1 X93.204 Y37.276 E37.3992
G1 X93.072 Y36.956 E37.4164
G1 X92.991 Y36.621 E37.4337
G1 X92.965 Y36.284 E37.4505
G1 X92.965 Y22.268 E38.1498
G1 X92.991 Y21.932 E38.1666
G1 X93.072 Y21.596 E38.1838
G1 X93.204 Y21.277 E38.2011
G1 X93.385 Y20.983 E38.2183
G1 X93.609 Y20.720 E38.2355
G1 X93.872 Y20.496 E38.2528
G1 X94.166 Y20.315 E38.2700
G1 X94.485 Y20.183 E38.2872
G1 X94.821 Y20.102 E38.3044
G1 X95.158 Y20.076 E38.3213
G1 X96.173 Y20.076 E38.3720
G1 X96.510 Y20.102 E38.3888
G1 X96.845 Y20.183 E38.4060
G1 X97.165 Y20.315 E38.4233
G1 X97.459 Y20.496 E38.4405
G1 X97.722 Y20.720 E38.4577
G1 X97.946 Y20.983 E38.4750
G1 X98.127 Y21.277 E38.4922
G1 X98.259 Y21.596 E38.5094
G1 X98.339 Y21.932 E38.5266
G1 X98.366 Y22.268 E38.5435
G1 X98.366 Y36.284 E39.2427
G1 X98.339 Y36.621 E39.2596
G1 X98.259 Y36.956 E39.2768
G1 X98.127 Y37.276 E39.2940
G1 X97.946 Y37.570 E39.3113
G1 X97.722 Y37.833 E39.3285
G1 X97.459 Y38.057 E39.3457
G1 X97.165 Y38.237 E39.3630
G1 X96.845 Y38.370 E39.3802
G1 X96.510 Y38.450 E39.3974
G1 X96.173 Y38.477 E39.4143
G1 X95.157 Y38.477 E39.4649
G1 X94.821 Y38.450 E39.4818
G1 X94.544 Y38.384 E39.4960
G0 X93.751 Y38.279 F5400
;segType:Loop
G0 X93.260 Y38.040
G1 X93.060 Y37.806 E39.5114 F2400
G1 X92.847 Y37.458 E39.5318
G1 X92.690 Y37.080 E39.5521
G1 X92.595 Y36.683 E39.5725
G1 X92.565 Y36.300 E39.5917
G1 X92.565 Y22.253 E40.2925
G1 X92.595 Y21.869 E40.3117
G1 X92.690 Y21.472 E40.3321
G1 X92.847 Y21.095 E40.3525
G1 X93.060 Y20.747 E40.3728
G1 X93.325 Y20.436 E40.3932
G1 X93.636 Y20.171 E40.4136
G1 X93.984 Y19.958 E40.4339
G1 X94.361 Y19.801 E40.4543
G1 X94.758 Y19.706 E40.4747
G1 X95.142 Y19.676 E40.4939
G1 X96.189 Y19.676 E40.5461
G1 X96.573 Y19.706 E40.5653
G1 X96.970 Y19.801 E40.5857
G1 X97.347 Y19.958 E40.6061
G1 X97.695 Y20.171 E40.6264
G1 X98.006 Y20.436 E40.6468
G1 X98.271 Y20.747 E40.6672
G1 X98.484 Y21.095 E40.6875
G1 X98.640 Y21.472 E40.7079
G1 X98.736 Y21.869 E40.7283
G1 X98.766 Y22.253 E40.7475
G1 X98.766 Y36.300 E41.4483
G1 X98.736 Y36.683 E41.4675
G1 X98.640 Y37.080 E41.4879
G1 X98.484 Y37.458 E41.5082
G1 X98.271 Y37.806 E41.5286
G1 X98.006 Y38.116 E41.5490
G1 X97.695 Y38.382 E41.5694
G1 X97.347 Y38.595 E41.5897
G1 X96.969 Y38.751 E41.6101
G1 X96.573 Y38.846 E41.6305
G1 X96.189 Y38.877 E41.6497
G1 X95.141 Y38.877 E41.7019
G1 X94.758 Y38.846 E41.7211
G1 X94.361 Y38.751 E41.7415
G1 X93.984 Y38.595 E41.7619
G1 X93.636 Y38.382 E41.7822
G0 X93.636 Y38.382 F5400
G0 X94.450 Y38.773
G0 X94.450 Y38.773
G0 X104.662 Y43.676
G0 X104.662 Y43.676
G0 X112.689 Y43.676
G0 X113.073 Y43.706
G0 X113.470 Y43.801
G0 X113.847 Y43.958
G0 X114.195 Y44.171
G0 X114.506 Y44.436
G0 X114.771 Y44.747
G0 X114.984 Y45.095
G0 X115.140 Y45.472
G0 X115.236 Y45.869
G0 X115.266 Y46.253
G0 X115.266 Y48.767
G0 X115.266 Y48.767
G0 X123.717 Y52.825
;segType:HShell
G0 X123.705 Y52.819
G1 X109.692 Y38.806 E42.7709 F2400
;segType:Perimeter
G0 X109.580 Y38.279 F5400
G1 X108.787 Y38.384 E42.8108 F1440
G1 X108.510 Y38.450 E42.8251
G1 X108.173 Y38.477 E42.8419
G1 X107.158 Y38.477 E42.8926
G1 X106.821 Y38.450 E42.9094
G1 X106.485 Y38.370 E42.9266
G1 X106.166 Y38.237 E42.9439
G1 X105.872 Y38.057 E42.9611
G1 X105.609 Y37.833 E42.9783
G1 X105.385 Y37.570 E42.9956
G1 X105.204 Y37.276 E43.0128
G1 X105.072 Y36.956 E43.0300
G1 X104.991 Y36.621 E43.0472
G1 X104.965 Y36.284 E43.0641
G1 X104.965 Y22.268 E43.7633
G1 X104.991 Y21.932 E43.7802
G1 X105.072 Y21.596 E43.7974
G1 X105.204 Y21.277 E43.8146
G1 X105.385 Y20.983 E43.8319
G1 X105.609 Y20.720 E43.8491
G1 X105.872 Y20.496 E43.8663
G1 X106.166 Y20.315 E43.8836
G1 X106.485 Y20.183 E43.9008
G1 X106.821 Y20.102 E43.9180
G1 X107.158 Y20.076 E43.9349
G1 X108.173 Y20.076 E43.9855
G1 X108.510 Y20.102 E44.0024
G1 X108.846 Y20.183 E44.0196
G1 X109.165 Y20.315 E44.0368
G1 X109.459 Y20.496 E44.0541
G1 X109.722 Y20.720 E44.0713
G1 X109.946 Y20.983 E44.0885
G1 X110.126 Y21.277 E44.1058
G1 X110.259 Y21.596 E44.1230
G1 X110.339 Y21.932 E44.1402
G1 X110.366 Y22.268 E44.1570
G1 X110.366 Y36.284 E44.8563
G1 X110.339 Y36.621 E44.8731
G1 X110.259 Y36.956 E44.8904
G1 X110.126 Y37.276 E44.9076
G1 X109.946 Y37.570 E44.9248
G1 X109.722 Y37.833 E44.9421
G1 X109.459 Y38.057 E44.9593
G1 X109.165 Y38.237 E44.9765
G1 X108.901 Y38.347 E44.9908
G0 X108.198 Y38.728 F5400
;segType:Loop
G0 X107.756 Y38.877
G1 X107.142 Y38.877 E45.0214 F2400
G1 X106.758 Y38.846 E45.0406
G1 X106.361 Y38.751 E45.0610
G1 X105.984 Y38.595 E45.0813
G1 X105.636 Y38.382 E45.1017
G1 X105.325 Y38.116 E45.1221
G1 X105.060 Y37.806 E45.1425
G1 X104.847 Y37.458 E45.1628
G1 X104.691 Y37.080 E45.1832
G1 X104.595 Y36.683 E45.2036
G1 X104.565 Y36.300 E45.2228
G1 X104.565 Y22.253 E45.9236
G1 X104.595 Y21.869 E45.9428
G1 X104.691 Y21.472 E45.9632
G1 X104.847 Y21.095 E45.9835
G1 X105.060 Y20.747 E46.0039
G1 X105.325 Y20.436 E46.0243
G1 X105.636 Y20.171 E46.0446
G1 X105.984 Y19.958 E46.0650
G1 X106.361 Y19.801 E46.0854
G1 X106.758 Y19.706 E46.1058
G1 X107.142 Y19.676 E46.1250
G1 X108.189 Y19.676 E46.1772
G1 X108.572 Y19.706 E46.1964
G1 X108.970 Y19.801 E46.2168
G1 X109.347 Y19.958 E46.2371
G1 X109.695 Y20.171 E46.2575
G1 X110.006 Y20.436 E46.2779
G1 X110.271 Y20.747 E46.2983
G1 X110.484 Y21.095 E46.3186
G1 X110.640 Y21.472 E46.3390
G1 X110.736 Y21.869 E46.3594
G1 X110.766 Y22.253 E46.3786
G1 X110.766 Y36.300 E47.0794
G1 X110.736 Y36.683 E47.0986
G1 X110.640 Y37.080 E47.1189
G1 X110.484 Y37.458 E47.1393
G1 X110.271 Y37.806 E47.1597
G1 X110.006 Y38.116 E47.1801
G1 X109.695 Y38.382 E47.2004
G1 X109.347 Y38.595 E47.2208
G1 X108.969 Y38.751 E47.2412
G1 X108.572 Y38.846 E47.2616
G1 X108.189 Y38.877 E47.2807
G1 X107.956 Y38.877 E47.2924
;segType:HShell
G0 X119.174 Y39.237 F5400
G1 X124.362 Y44.425 E47.6584 F2400
G0 X124.631 Y44.128 F5400
G1 X119.740 Y39.237 E48.0035 F2400
;segType:Perimeter
G0 X119.133 Y38.728 F5400
G1 X118.430 Y38.347 E48.0434 F1440
G1 X118.166 Y38.237 E48.0577
G1 X117.872 Y38.057 E48.0749
G1 X117.609 Y37.833 E48.0921
G1 X117.385 Y37.570 E48.1094
G1 X117.204 Y37.276 E48.1266
G1 X117.072 Y36.956 E48.1438
G1 X116.991 Y36.621 E48.1611
G1 X116.965 Y36.284 E48.1779
G1 X116.965 Y22.268 E48.8771
G1 X116.991 Y21.932 E48.8940
G1 X117.072 Y21.596 E48.9112
G1 X117.204 Y21.277 E48.9284
G1 X117.385 Y20.983 E48.9457
G1 X117.609 Y20.720 E48.9629
G1 X117.872 Y20.496 E48.9801
G1 X118.166 Y20.315 E48.9974
G1 X118.485 Y20.183 E49.0146
G1 X118.821 Y20.102 E49.0318
G1 X119.158 Y20.076 E49.0487
G1 X120.173 Y20.076 E49.0993
G1 X120.510 Y20.102 E49.1162
G1 X120.845 Y20.183 E49.1334
G1 X121.165 Y20.315 E49.1506
G1 X121.459 Y20.496 E49.1679
G1 X121.722 Y20.720 E49.1851
G1 X121.946 Y20.983 E49.2023
G1 X122.127 Y21.277 E49.2196
G1 X122.259 Y21.596 E49.2368
G1 X122.339 Y21.932 E49.2540
G1 X122.366 Y22.268 E49.2709
G1 X122.366 Y36.284 E49.9701
G1 X122.339 Y36.621 E49.9870
G1 X122.259 Y36.956 E50.0042
G1 X122.127 Y37.276 E50.0214
G1 X121.946 Y37.570 E50.0386
G1 X121.722 Y37.833 E50.0559
G1 X121.459 Y38.057 E50.0731
G1 X121.165 Y38.237 E50.0903
G1 X120.845 Y38.370 E50.1076
G1 X120.510 Y38.450 E50.1248
G1 X120.173 Y38.477 E50.1416
G1 X119.157 Y38.477 E50.1923
G1 X118.821 Y38.450 E50.2092
G1 X118.544 Y38.384 E50.2234
G0 X117.751 Y38.279 F5400
;segType:Loop
G0 X117.260 Y38.040
G1 X117.060 Y37.806 E50.2388 F2400
G1 X116.847 Y37.458 E50.2591
G1 X116.690 Y37.080 E50.2795
G1 X116.595 Y36.683 E50.2999
G1 X116.565 Y36.300 E50.3191
G1 X116.565 Y22.253 E51.0199
G1 X116.595 Y21.869 E51.0391
G1 X116.690 Y21.472 E51.0595
G1 X116.847 Y21.095 E51.0798
G1 X117.060 Y20.747 E51.1002
G1 X117.325 Y20.436 E51.1206
G1 X117.636 Y20.171 E51.1410
G1 X117.984 Y19.958 E51.1613
G1 X118.361 Y19.801 E51.1817
G1 X118.758 Y19.706 E51.2021
G1 X119.142 Y19.676 E51.2213
G1 X120.189 Y19.676 E51.2735
G1 X120.573 Y19.706 E51.2927
G1 X120.969 Y19.801 E51.3131
G1 X121.347 Y19.958 E51.3335
G1 X121.695 Y20.171 E51.3538
G1 X122.006 Y20.436 E51.3742
G1 X122.271 Y20.747 E51.3946
G1 X122.484 Y21.095 E51.4149
G1 X122.640 Y21.472 E51.4353
G1 X122.736 Y21.869 E51.4557
G1 X122.766 Y22.253 E51.4749
G1 X122.766 Y36.300 E52.1757
G1 X122.736 Y36.683 E52.1949
G1 X122.640 Y37.080 E52.2153
G1 X122.484 Y37.458 E52.2356
G1 X122.271 Y37.806 E52.2560
G1 X122.006 Y38.116 E52.2764
G1 X121.695 Y38.382 E52.2968
G1 X121.347 Y38.595 E52.3171
G1 X120.969 Y38.751 E52.3375
G1 X120.573 Y38.846 E52.3579
G1 X120.189 Y38.877 E52.3770
G1 X119.141 Y38.877 E52.4293
G1 X118.758 Y38.846 E52.4485
G1 X118.361 Y38.751 E52.4689
G1 X117.984 Y38.595 E52.4892
G1 X117.636 Y38.382 E52.5096
G0 X121.576 Y38.455 F5400
G0 X130.023 Y38.611
G0 X130.023 Y38.611
G0 X133.167 Y38.669
G0 X133.167 Y38.669
G0 X133.906 Y38.683
;segType:HShell
G0 X133.893 Y38.683
G1 X138.526 Y43.316 E52.8365 F2400
G0 X137.960 Y43.316 F5400
G1 X133.542 Y38.897 E53.1482 F2400
;segType:Perimeter
G0 X133.580 Y38.279 F5400
G1 X132.787 Y38.384 E53.1881 F1440
G1 X132.510 Y38.450 E53.2024
G1 X132.173 Y38.477 E53.2192
G1 X131.158 Y38.477 E53.2699
G1 X130.821 Y38.450 E53.2867
G1 X130.485 Y38.370 E53.3039
G1 X130.166 Y38.237 E53.3212
G1 X129.872 Y38.057 E53.3384
G1 X129.609 Y37.833 E53.3556
G1 X129.385 Y37.570 E53.3729
G1 X129.204 Y37.276 E53.3901
G1 X129.072 Y36.956 E53.4073
G1 X128.991 Y36.621 E53.4246
G1 X128.965 Y36.284 E53.4414
G1 X128.965 Y22.268 E54.1407
G1 X128.991 Y21.932 E54.1575
G1 X129.072 Y21.596 E54.1747
G1 X129.204 Y21.277 E54.1920
G1 X129.385 Y20.983 E54.2092
G1 X129.609 Y20.720 E54.2264
G1 X129.872 Y20.496 E54.2436
G1 X130.166 Y20.315 E54.2609
G1 X130.485 Y20.183 E54.2781
G1 X130.821 Y20.102 E54.2953
G1 X131.158 Y20.076 E54.3122
G1 X132.173 Y20.076 E54.3628
G1 X132.510 Y20.102 E54.3797
G1 X132.846 Y20.183 E54.3969
G1 X133.165 Y20.315 E54.4141
G1 X133.459 Y20.496 E54.4314
G1 X133.722 Y20.720 E54.4486
G1 X133.946 Y20.983 E54.4659
G1 X134.126 Y21.277 E54.4831
G1 X134.259 Y21.596 E54.5003
G1 X134.339 Y21.932 E54.5175
G1 X134.366 Y22.268 E54.5344
G1 X134.366 Y36.284 E55.2336
G1 X134.339 Y36.621 E55.2505
G1 X134.259 Y36.956 E55.2677
G1 X134.126 Y37.276 E55.2849
G1 X133.946 Y37.570 E55.3022
G1 X133.722 Y37.833 E55.3194
G1 X133.459 Y38.057 E55.3366
G1 X133.165 Y38.237 E55.3539
G1 X132.901 Y38.347 E55.3681
G0 X132.198 Y38.728 F5400
;segType:Loop
G0 X131.756 Y38.877
G1 X131.142 Y38.877 E55.3987 F2400
G1 X130.758 Y38.846 E55.4179
G1 X130.361 Y38.751 E55.4383
G1 X129.984 Y38.595 E55.4587
G1 X129.636 Y38.382 E55.4790
G1 X129.325 Y38.116 E55.4994
G1 X129.060 Y37.806 E55.5198
G1 X128.847 Y37.458 E55.5402
G1 X128.691 Y37.080 E55.5605
G1 X128.595 Y36.683 E55.5809
G1 X128.565 Y36.300 E55.6001
G1 X128.565 Y22.253 E56.3009
G1 X128.595 Y21.869 E56.3201
G1 X128.691 Y21.472 E56.3405
G1 X128.847 Y21.095 E56.3609
G1 X129.060 Y20.747 E56.3812
G1 X129.325 Y20.436 E56.4016
G1 X129.636 Y20.171 E56.4220
G1 X129.984 Y19.958 E56.4423
G1 X130.361 Y19.801 E56.4627
G1 X130.758 Y19.706 E56.4831
G1 X131.142 Y19.676 E56.5023
G1 X132.189 Y19.676 E56.5545
G1 X132.572 Y19.706 E56.5737
G1 X132.970 Y19.801 E56.5941
G1 X133.347 Y19.958 E56.6144
G1 X133.695 Y20.171 E56.6348
G1 X134.005 Y20.436 E56.6552
G1 X134.271 Y20.747 E56.6756
G1 X134.484 Y21.095 E56.6959
G1 X134.640 Y21.472 E56.7163
G1 X134.736 Y21.869 E56.7367
G1 X134.766 Y22.253 E56.7559
G1 X134.766 Y36.300 E57.4567
G1 X134.736 Y36.683 E57.4759
G1 X134.640 Y37.080 E57.4963
G1 X134.484 Y37.458 E57.5166
G1 X134.271 Y37.806 E57.5370
G1 X134.006 Y38.116 E57.5574
G1 X133.695 Y38.382 E57.5778
G1 X133.347 Y38.595 E57.5981
G1 X132.969 Y38.751 E57.6185
G1 X132.572 Y38.846 E57.6389
G1 X132.189 Y38.877 E57.6580
G1 X131.956 Y38.877 E57.6697
;segType:HShell
G0 X145.818 Y38.728 F5400
G1 X150.405 Y43.316 E57.9933 F2400
G0 X150.971 Y43.316 F5400
G1 X146.135 Y38.479 E58.3345 F2400
;segType:Perimeter
G0 X145.580 Y38.279 F5400
G1 X144.787 Y38.384 E58.3745 F1440
G1 X144.510 Y38.450 E58.3887
G1 X144.173 Y38.477 E58.4055
G1 X143.157 Y38.477 E58.4562
G1 X142.821 Y38.450 E58.4730
G1 X142.485 Y38.370 E58.4903
G1 X142.166 Y38.237 E58.5075
G1 X141.872 Y38.057 E58.5247
G1 X141.609 Y37.833 E58.5420
G1 X141.385 Y37.570 E58.5592
G1 X141.204 Y37.275 E58.5764
G1 X141.072 Y36.956 E58.5937
G1 X140.991 Y36.621 E58.6109
G1 X140.965 Y36.284 E58.6277
G1 X140.965 Y22.268 E59.3270
G1 X140.991 Y21.932 E59.3438
G1 X141.072 Y21.596 E59.3610
G1 X141.204 Y21.277 E59.3783
G1 X141.385 Y20.983 E59.3955
G1 X141.609 Y20.720 E59.4127
G1 X141.872 Y20.496 E59.4300
G1 X142.166 Y20.315 E59.4472
G1 X142.485 Y20.183 E59.4644
G1 X142.821 Y20.102 E59.4817
G1 X143.158 Y20.076 E59.4985
G1 X144.173 Y20.076 E59.5492
G1 X144.510 Y20.102 E59.5660
G1 X144.845 Y20.183 E59.5832
G1 X145.165 Y20.315 E59.6005
G1 X145.459 Y20.496 E59.6177
G1 X145.722 Y20.720 E59.6349
G1 X145.946 Y20.983 E59.6522
G1 X146.127 Y21.277 E59.6694
G1 X146.259 Y21.596 E59.6866
G1 X146.339 Y21.932 E59.7039
G1 X146.366 Y22.268 E59.7207
G1 X146.366 Y36.284 E60.4200
G1 X146.339 Y36.621 E60.4368
G1 X146.259 Y36.956 E60.4540
G1 X146.127 Y37.276 E60.4713
G1 X145.946 Y37.570 E60.4885
G1 X145.722 Y37.833 E60.5057
G1 X145.459 Y38.057 E60.5230
G1 X145.165 Y38.237 E60.5402
G1 X144.901 Y38.347 E60.5544
G0 X144.198 Y38.728 F5400
;segType:Loop
G0 X143.756 Y38.877
G1 X143.141 Y38.877 E60.5851 F2400
G1 X142.758 Y38.846 E60.6043
G1 X142.361 Y38.751 E60.6246
G1 X141.984 Y38.595 E60.6450
G1 X141.636 Y38.382 E60.6654
G1 X141.325 Y38.116 E60.6857
G1 X141.060 Y37.806 E60.7061
G1 X140.847 Y37.458 E60.7265
G1 X140.690 Y37.080 E60.7469
G1 X140.595 Y36.683 E60.7672
G1 X140.565 Y36.300 E60.7864
G1 X140.565 Y22.253 E61.4873
G1 X140.595 Y21.869 E61.5064
G1 X140.690 Y21.472 E61.5268
G1 X140.847 Y21.095 E61.5472
G1 X141.060 Y20.747 E61.5676
G1 X141.325 Y20.436 E61.5879
G1 X141.636 Y20.171 E61.6083
G1 X141.984 Y19.958 E61.6287
G1 X142.361 Y19.801 E61.6491
G1 X142.758 Y19.706 E61.6694
G1 X143.142 Y19.676 E61.6886
G1 X144.189 Y19.676 E61.7409
G1 X144.573 Y19.706 E61.7601
G1 X144.970 Y19.801 E61.7804
G1 X145.347 Y19.958 E61.8008
G1 X145.695 Y20.171 E61.8212
G1 X146.006 Y20.436 E61.8415
G1 X146.271 Y20.747 E61.8619
G1 X146.484 Y21.095 E61.8823
G1 X146.640 Y21.472 E61.9027
G1 X146.736 Y21.869 E61.9230
G1 X146.766 Y22.253 E61.9422
G1 X146.766 Y36.300 E62.6430
G1 X146.736 Y36.683 E62.6622
G1 X146.640 Y37.080 E62.6826
G1 X146.484 Y37.458 E62.7030
G1 X146.271 Y37.806 E62.7233
G1 X146.006 Y38.116 E62.7437
G1 X145.695 Y38.382 E62.7641
G1 X145.347 Y38.595 E62.7845
G1 X144.969 Y38.751 E62.8049
G1 X144.573 Y38.846 E62.8252
G1 X144.189 Y38.877 E62.8444
G1 X143.956 Y38.877 E62.8560
;segType:HShell
G0 X145.461 Y38.937 F5400
G1 X149.840 Y43.316 E63.1650 F2400
G0 X149.274 Y43.316 F5400
G1 X145.059 Y39.100 E63.4624 F2400
G0 X144.598 Y39.206 F5400
G1 X148.708 Y43.316 E63.7524 F2400
G0 X148.143 Y43.316 F5400
G1 X144.064 Y39.237 E64.0401 F2400
G0 X143.498 Y39.237 F5400
G1 X147.577 Y43.316 E64.3279 F2400
G0 X147.011 Y43.316 F5400
G1 X142.916 Y39.220 E64.6169 F2400
G0 X142.207 Y39.077 F5400
G1 X146.446 Y43.316 E64.9159 F2400
G0 X145.880 Y43.316 F5400
G1 X135.126 Y32.562 E65.6747 F2400
G0 X135.126 Y33.127 F5400
G1 X145.314 Y43.316 E66.3935 F2400
G0 X144.749 Y43.316 F5400
G1 X135.126 Y33.693 E67.0725 F2400
G0 X135.126 Y34.259 F5400
G1 X144.183 Y43.316 E67.7115 F2400
G0 X143.617 Y43.316 F5400
G1 X135.126 Y34.824 E68.3106 F2400
G0 X135.126 Y35.390 F5400
G1 X143.052 Y43.316 E68.8698 F2400
G0 X142.486 Y43.316 F5400
G1 X135.126 Y35.956 E69.3891 F2400
G0 X135.111 Y36.506 F5400
G1 X141.920 Y43.316 E69.8695 F2400
G0 X141.355 Y43.316 F5400
G1 X135.032 Y36.993 E70.3157 F2400
G0 X134.890 Y37.417 F5400
G1 X140.789 Y43.316 E70.7318 F2400
G0 X140.223 Y43.316 F5400
G1 X134.701 Y37.793 E71.1215 F2400
G0 X134.469 Y38.128 F5400
G1 X139.657 Y43.316 E71.4875 F2400
G0 X139.092 Y43.316 F5400
G1 X134.200 Y38.424 E71.8326 F2400
G0 X133.147 Y39.068 F5400
G1 X137.395 Y43.316 E72.1324 F2400
G0 X136.829 Y43.316 F5400
G1 X132.700 Y39.186 E72.4237 F2400
G0 X132.185 Y39.237 F5400
G1 X136.263 Y43.316 E72.7115 F2400
G0 X135.698 Y43.316 F5400
G1 X131.619 Y39.237 E72.9993 F2400
G0 X131.047 Y39.231 F5400
G1 X135.132 Y43.316 E73.2875 F2400
G0 X134.566 Y43.316 F5400
G1 X130.376 Y39.125 E73.5832 F2400
G0 X130.589 Y38.806 F5400
G0 X130.758 Y38.846
G0 X131.142 Y38.877
G0 X132.189 Y38.877
G0 X132.572 Y38.846
G0 X132.969 Y38.751
G0 X133.347 Y38.595
G0 X133.695 Y38.382
G0 X134.006 Y38.116
G0 X134.271 Y37.806
G0 X134.484 Y37.458
G0 X134.640 Y37.080
G0 X134.736 Y36.683
G0 X134.766 Y36.300
G0 X134.766 Y32.536
G0 X134.766 Y32.536
G0 X135.133 Y31.985
G0 X135.126 Y31.996
G1 X140.364 Y37.234 E73.9528 F2400
G0 X140.221 Y36.526 F5400
G1 X135.126 Y31.430 E74.3123 F2400
G0 X135.126 Y30.864 F5400
G1 X140.205 Y35.943 E74.6707 F2400
G0 X140.205 Y35.378 F5400
G1 X135.126 Y30.299 E75.0290 F2400
G0 X135.126 Y29.733 F5400
G1 X140.205 Y34.812 E75.3873 F2400
G0 X140.205 Y34.246 F5400
G1 X135.126 Y29.167 E75.7457 F2400
G0 X135.126 Y28.602 F5400
G1 X140.205 Y33.681 E76.1040 F2400
G0 X140.205 Y33.115 F5400
G1 X135.126 Y28.036 E76.4624 F2400
G0 X135.126 Y27.470 F5400
G1 X140.205 Y32.549 E76.8207 F2400
G0 X140.205 Y31.984 F5400
G1 X135.126 Y26.905 E77.1791 F2400
G0 X135.126 Y26.339 F5400
G1 X140.205 Y31.418 E77.5374 F2400
G0 X140.205 Y30.852 F5400
G1 X135.126 Y25.773 E77.8957 F2400
G0 X135.126 Y25.208 F5400
G1 X140.205 Y30.286 E78.2541 F2400
G0 X140.205 Y29.721 F5400
G1 X135.126 Y24.642 E78.6124 F2400
G0 X135.126 Y24.076 F5400
G1 X140.205 Y29.155 E78.9708 F2400
G0 X140.205 Y28.589 F5400
G1 X135.126 Y23.511 E79.3291 F2400
G0 X135.126 Y22.945 F5400
G1 X140.205 Y28.024 E79.6875 F2400
G0 X140.205 Y27.458 F5400
G1 X135.126 Y22.379 E80.0458 F2400
G0 X135.082 Y21.770 F5400
G1 X140.205 Y26.892 E80.4073 F2400
G0 X140.205 Y26.327 F5400
G1 X134.801 Y20.923 E80.7885 F2400
G0 X133.519 Y19.641 F5400
G1 X129.115 Y15.237 E81.0993 F2400
G0 X128.549 Y15.237 F5400
G1 X132.672 Y19.359 E81.3901 F2400
G0 X132.062 Y19.316 F5400
G1 X127.983 Y15.237 E81.6779 F2400
G0 X127.418 Y15.237 F5400
G1 X131.497 Y19.316 E81.9657 F2400
G0 X130.945 Y19.330 F5400
G1 X126.852 Y15.237 E82.2545 F2400
G0 X126.286 Y15.237 F5400
G1 X130.457 Y19.408 E82.5488 F2400
G0 X130.032 Y19.548 F5400
G1 X125.721 Y15.237 E82.8530 F2400
G0 X125.155 Y15.237 F5400
G1 X129.655 Y19.737 E83.1705 F2400
G0 X129.320 Y19.967 F5400
G1 X124.589 Y15.237 E83.5043 F2400
G0 X124.024 Y15.237 F5400
G1 X129.023 Y20.236 E83.8570 F2400
G0 X128.763 Y20.542 F5400
G1 X123.458 Y15.237 E84.2313 F2400
G0 X122.892 Y15.237 F5400
G1 X128.548 Y20.893 E84.6304 F2400
G0 X128.377 Y21.287 F5400
G1 X122.327 Y15.237 E85.0573 F2400
G0 X121.761 Y15.237 F5400
G1 X128.257 Y21.733 E85.5157 F2400
G0 X128.205 Y22.246 F5400
G1 X121.195 Y15.237 E86.0103 F2400
G0 X120.629 Y15.237 F5400
G1 X128.205 Y22.812 E86.5447 F2400
G0 X128.205 Y23.378 F5400
G1 X120.064 Y15.237 E87.1191 F2400
G0 X119.498 Y15.237 F5400
G1 X128.205 Y23.943 E87.7335 F2400
G0 X128.205 Y24.509 F5400
G1 X118.932 Y15.237 E88.3877 F2400
G0 X118.367 Y15.237 F5400
G1 X128.205 Y25.075 E89.0818 F2400
G0 X128.205 Y25.641 F5400
G1 X117.801 Y15.237 E89.8159 F2400
G0 X117.235 Y15.237 F5400
G1 X121.830 Y19.831 E90.1400 F2400
G0 X120.831 Y19.398 F5400
G1 X116.670 Y15.237 E90.4336 F2400
G0 X116.104 Y15.237 F5400
G1 X120.183 Y19.316 E90.7214 F2400
G0 X119.617 Y19.316 F5400
G1 X115.538 Y15.237 E91.0092 F2400
G0 X114.973 Y15.237 F5400
G1 X119.057 Y19.321 E91.2974 F2400
G0 X118.555 Y19.384 F5400
G1 X114.407 Y15.237 E91.5900 F2400
G0 X113.841 Y15.237 F5400
G1 X118.117 Y19.513 E91.8917 F2400
G0 X117.730 Y19.691 F5400
G1 X113.276 Y15.237 E92.2060 F2400
G0 X112.710 Y15.237 F5400
G1 X117.385 Y19.912 E92.5359 F2400
G0 X117.080 Y20.172 F5400
G1 X112.144 Y15.237 E92.8841 F2400
G0 X111.578 Y15.237 F5400
G1 X116.818 Y20.476 E93.2537 F2400
G0 X116.594 Y20.818 F5400
G1 X111.013 Y15.237 E93.6475 F2400
G0 X110.447 Y15.237 F5400
G1 X116.413 Y21.202 E94.0684 F2400
G0 X116.281 Y21.636 F5400
G1 X109.881 Y15.237 E94.5199 F2400
G0 X109.316 Y15.237 F5400
G1 X116.213 Y22.134 E95.0066 F2400
G0 X116.205 Y22.691 F5400
G1 X108.750 Y15.237 E95.5325 F2400
G0 X108.184 Y15.237 F5400
G1 X116.205 Y23.257 E96.0984 F2400
G0 X116.205 Y23.823 F5400
G1 X107.619 Y15.237 E96.7042 F2400
G0 X107.053 Y15.237 F5400
G1 X116.205 Y24.388 E97.3499 F2400
G0 X116.205 Y24.954 F5400
G1 X106.487 Y15.237 E98.0355 F2400
G0 X105.922 Y15.237 F5400
G1 X116.205 Y25.520 E98.7611 F2400
G0 X116.205 Y26.086 F5400
G1 X105.356 Y15.237 E99.5265 F2400
G0 X93.477 Y15.237 F5400
G1 X104.205 Y25.965 E100.2835 F2400
G0 X104.205 Y25.399 F5400
G1 X94.042 Y15.237 E101.0005 F2400
G0 X94.608 Y15.237 F5400
G1 X104.205 Y24.834 E101.6776 F2400
G0 X104.205 Y24.268 F5400
G1 X95.174 Y15.237 E102.3148 F2400
G0 X95.739 Y15.237 F5400
G1 X104.205 Y23.702 E102.9121 F2400
G0 X104.205 Y23.137 F5400
G1 X96.305 Y15.237 E103.4695 F2400
G0 X96.871 Y15.237 F5400
G1 X104.205 Y22.571 E103.9870 F2400
G0 X104.222 Y22.022 F5400
G1 X97.436 Y15.237 E104.4657 F2400
G0 X98.002 Y15.237 F5400
G1 X104.304 Y21.539 E104.9104 F2400
G0 X104.448 Y21.117 F5400
G1 X98.568 Y15.237 E105.3252 F2400
G0 X99.133 Y15.237 F5400
G1 X104.640 Y20.743 E105.7138 F2400
G0 X104.873 Y20.411 F5400
G1 X99.699 Y15.237 E106.0788 F2400
G0 X100.265 Y15.237 F5400
G1 X105.145 Y20.117 E106.4232 F2400
G0 X105.454 Y19.860 F5400
G1 X100.830 Y15.237 E106.7494 F2400
G0 X101.396 Y15.237 F5400
G1 X105.805 Y19.645 E107.0604 F2400
G0 X106.202 Y19.477 F5400
G1 X101.962 Y15.237 E107.3596 F2400
G0 X102.528 Y15.237 F5400
G1 X106.652 Y19.361 E107.6506 F2400
G0 X107.172 Y19.316 F5400
G1 X103.093 Y15.237 E107.9384 F2400
G0 X103.659 Y15.237 F5400
G1 X107.738 Y19.316 E108.2262 F2400
G0 X108.312 Y19.324 F5400
G1 X104.225 Y15.237 E108.5146 F2400
G0 X104.790 Y15.237 F5400
G1 X108.989 Y19.436 E108.8109 F2400
G0 X111.006 Y21.452 F5400
G1 X116.205 Y26.651 E109.1777 F2400
G0 X116.205 Y27.217 F5400
G1 X111.117 Y22.129 E109.5366 F2400
G0 X111.126 Y22.704 F5400
G1 X116.205 Y27.783 E109.8950 F2400
G0 X116.205 Y28.348 F5400
G1 X111.126 Y23.269 E110.2533 F2400
G0 X111.126 Y23.835 F5400
G1 X116.205 Y28.914 E110.6116 F2400
G0 X116.205 Y29.480 F5400
G1 X111.126 Y24.401 E110.9700 F2400
G0 X111.126 Y24.966 F5400
G1 X116.205 Y30.045 E111.3283 F2400
G0 X116.205 Y30.611 F5400
G1 X111.126 Y25.532 E111.6867 F2400
G0 X111.126 Y26.098 F5400
G1 X116.205 Y31.177 E112.0450 F2400
G0 X116.205 Y31.742 F5400
G1 X111.126 Y26.663 E112.4034 F2400
G0 X111.126 Y27.229 F5400
G1 X116.205 Y32.308 E112.7617 F2400
G0 X116.205 Y32.874 F5400
G1 X111.126 Y27.795 E113.1201 F2400
G0 X111.126 Y28.361 F5400
G1 X116.205 Y33.439 E113.4784 F2400
G0 X116.205 Y34.005 F5400
G1 X111.126 Y28.926 E113.8368 F2400
G0 X111.126 Y29.492 F5400
G1 X116.205 Y34.571 E114.1951 F2400
G0 X116.205 Y35.136 F5400
G1 X111.126 Y30.058 E114.5534 F2400
G0 X111.126 Y30.623 F5400
G1 X116.205 Y35.702 E114.9118 F2400
G0 X116.205 Y36.268 F5400
G1 X111.126 Y31.189 E115.2701 F2400
G0 X111.126 Y31.755 F5400
G1 X116.278 Y36.907 E115.6337 F2400
G0 X116.679 Y37.874 F5400
G1 X111.126 Y32.320 E116.0255 F2400
G0 X111.126 Y32.886 F5400
G1 X123.799 Y45.559 E116.9197 F2400
G0 X123.720 Y46.046 F5400
G1 X111.126 Y33.452 E117.8082 F2400
G0 X111.126 Y34.017 F5400
G1 X123.705 Y46.596 E118.6957 F2400
G0 X123.705 Y47.162 F5400
G1 X111.126 Y34.583 E119.5833 F2400
G0 X111.126 Y35.149 F5400
G1 X123.705 Y47.728 E120.4708 F2400
G0 X123.705 Y48.293 F5400
G1 X111.126 Y35.714 E121.3583 F2400
G0 X111.126 Y36.280 F5400
G1 X123.705 Y48.859 E122.2458 F2400
G0 X123.705 Y49.425 F5400
G1 X111.078 Y36.798 E123.1366 F2400
G0 X110.961 Y37.247 F5400
G1 X123.705 Y49.990 E124.0358 F2400
G0 X123.705 Y50.556 F5400
G1 X110.792 Y37.644 E124.9468 F2400
G0 X110.577 Y37.994 F5400
G1 X123.705 Y51.122 E125.8730 F2400
G0 X123.705 Y51.687 F5400
G1 X110.320 Y38.303 E126.8174 F2400
G0 X110.025 Y38.573 F5400
G1 X123.705 Y52.253 E127.7826 F2400
G0 X123.705 Y53.385 F5400
G1 X115.345 Y45.024 E128.3724 F2400
G0 X115.595 Y45.840 F5400
G1 X123.705 Y53.950 E128.9446 F2400
G0 X123.707 Y54.518 F5400
G1 X115.626 Y46.437 E129.5148 F2400
G0 X115.626 Y47.003 F5400
G1 X124.274 Y55.651 E130.1250 F2400
G0 X124.505 Y56.447 F5400
G1 X115.626 Y47.568 E130.7514 F2400
G0 X115.626 Y48.134 F5400
G1 X124.598 Y57.106 E131.3844 F2400
G0 X124.590 Y57.664 F5400
G1 X115.626 Y48.700 E132.0169 F2400
G0 X115.626 Y49.266 F5400
G1 X124.531 Y58.170 E132.6451 F2400
G0 X124.444 Y58.649 F5400
G1 X115.626 Y49.831 E133.2673 F2400
G0 X115.626 Y50.397 F5400
G1 X124.294 Y59.065 E133.8789 F2400
G0 X124.134 Y59.471 F5400
G1 X115.626 Y50.963 E134.4791 F2400
G0 X115.626 Y51.528 F5400
G1 X123.931 Y59.833 E135.0651 F2400
G0 X123.715 Y60.183 F5400
G1 X115.626 Y52.094 E135.6358 F2400
G0 X115.626 Y52.660 F5400
G1 X123.463 Y60.496 E136.1887 F2400
G0 X123.198 Y60.797 F5400
G1 X115.626 Y53.225 E136.7229 F2400
G0 X115.626 Y53.791 F5400
G1 X122.899 Y61.064 E137.2361 F2400
G0 X122.586 Y61.317 F5400
G1 X115.626 Y54.357 E137.7271 F2400
G0 X115.485 Y54.781 F5400
G1 X122.239 Y61.536 E138.2037 F2400
G0 X121.876 Y61.738 F5400
G1 X115.290 Y55.152 E138.6683 F2400
G0 X115.098 Y55.526 F5400
G1 X121.477 Y61.904 E139.1184 F2400
G0 X121.050 Y62.044 F5400
G1 X114.958 Y55.951 E139.5483 F2400
G0 X114.834 Y56.394 F5400
G1 X120.592 Y62.151 E139.9545 F2400
G0 X120.078 Y62.203 F5400
G1 X114.759 Y56.884 E140.3297 F2400
G0 X114.738 Y57.428 F5400
G1 X119.530 Y62.221 E140.6679 F2400
G0 X118.925 Y62.182 F5400
G1 X114.775 Y58.031 E140.9607 F2400
G0 X114.921 Y58.743 F5400
G1 X118.204 Y62.026 E141.1924 F2400
G0 X117.244 Y61.632 F5400
G1 X115.342 Y59.729 E141.3266 F2400
G0 X114.779 Y59.413 F5400
G0 X114.537 Y58.740
G0 X114.384 Y57.893
G0 X114.372 Y57.032
G0 X114.503 Y56.180
G0 X114.773 Y55.362
G0 X115.266 Y54.425
G0 X115.266 Y46.253
G0 X115.236 Y45.869
G0 X115.140 Y45.472
G0 X114.984 Y45.095
G0 X114.771 Y44.747
G0 X114.506 Y44.436
G0 X114.195 Y44.171
G0 X113.847 Y43.958
G0 X113.470 Y43.801
G0 X113.073 Y43.706
G0 X112.689 Y43.676
G0 X86.785 Y43.676
G0 X86.785 Y43.676
G0 X85.614 Y43.018
G0 X85.626 Y43.024
G1 X85.917 Y43.316 E141.3472 F2400
G0 X86.483 Y43.316 F5400
G1 X85.626 Y42.459 E141.4076 F2400
G0 X85.626 Y41.893 F5400
G1 X87.049 Y43.316 E141.5080 F2400
G0 X87.614 Y43.316 F5400
G1 X85.626 Y41.327 E141.6483 F2400
G0 X85.626 Y40.762 F5400
G1 X88.180 Y43.316 E141.8285 F2400
G0 X88.746 Y43.316 F5400
G1 X85.626 Y40.196 E142.0487 F2400
G0 X85.626 Y39.630 F5400
G1 X89.311 Y43.316 E142.3087 F2400
G0 X89.877 Y43.316 F5400
G1 X85.626 Y39.064 E142.6086 F2400
G0 X85.626 Y38.499 F5400
G1 X90.443 Y43.316 E142.9485 F2400
G0 X91.009 Y43.316 F5400
G1 X85.626 Y37.933 E143.3282 F2400
G0 X85.626 Y37.367 F5400
G1 X91.574 Y43.316 E143.7479 F2400
G0 X92.140 Y43.316 F5400
G1 X85.626 Y36.802 E144.2075 F2400
G0 X85.626 Y36.236 F5400
G1 X92.706 Y43.316 E144.7070 F2400
G0 X93.271 Y43.316 F5400
G1 X85.626 Y35.670 E145.2464 F2400
G0 X85.626 Y35.105 F5400
G1 X93.837 Y43.316 E145.8258 F2400
G0 X94.403 Y43.316 F5400
G1 X85.626 Y34.539 E146.4450 F2400
G0 X85.626 Y33.973 F5400
G1 X94.968 Y43.316 E147.1042 F2400
G0 X95.534 Y43.316 F5400
G1 X85.626 Y33.408 E147.8032 F2400
G0 X85.626 Y32.842 F5400
G1 X96.100 Y43.316 E148.5422 F2400
G0 X96.665 Y43.316 F5400
G1 X85.626 Y32.276 E149.3211 F2400
G0 X85.626 Y31.711 F5400
G1 X97.231 Y43.316 E150.1399 F2400
G0 X97.797 Y43.316 F5400
G1 X85.626 Y31.145 E150.9986 F2400
G0 X85.626 Y30.579 F5400
G1 X92.423 Y37.377 E151.4782 F2400
G0 X92.229 Y36.616 F5400
G1 X85.626 Y30.013 E151.9441 F2400
G0 X85.626 Y29.448 F5400
G1 X92.205 Y36.027 E152.4082 F2400
G0 X92.205 Y35.461 F5400
G1 X85.626 Y28.882 E152.8724 F2400
G0 X85.626 Y28.316 F5400
G1 X92.205 Y34.895 E153.3366 F2400
G0 X92.205 Y34.330 F5400
G1 X85.626 Y27.751 E153.8007 F2400
G0 X85.626 Y27.185 F5400
G1 X92.205 Y33.764 E154.2649 F2400
G0 X92.205 Y33.198 F5400
G1 X85.626 Y26.619 E154.7291 F2400
G0 X85.626 Y26.054 F5400
G1 X92.205 Y32.633 E155.1933 F2400
G0 X92.205 Y32.067 F5400
G1 X85.626 Y25.488 E155.6574 F2400
G0 X85.626 Y24.922 F5400
G1 X92.205 Y31.501 E156.1216 F2400
G0 X92.205 Y30.935 F5400
G1 X85.626 Y24.357 E156.5858 F2400
G0 X85.626 Y23.791 F5400
G1 X92.205 Y30.370 E157.0499 F2400
G0 X92.205 Y29.804 F5400
G1 X85.626 Y23.225 E157.5141 F2400
G0 X85.626 Y22.660 F5400
G1 X92.205 Y29.238 E157.9783 F2400
G0 X92.205 Y28.673 F5400
G1 X85.626 Y22.094 E158.4425 F2400
G0 X85.626 Y21.528 F5400
G1 X92.205 Y28.107 E158.9066 F2400
G0 X92.205 Y27.541 F5400
G1 X85.626 Y20.963 E159.3708 F2400
G0 X85.626 Y20.397 F5400
G1 X92.205 Y26.976 E159.8350 F2400
G0 X92.205 Y26.410 F5400
G1 X85.626 Y19.831 E160.2992 F2400
G0 X85.626 Y19.265 F5400
G1 X92.205 Y25.844 E160.7633 F2400
G0 X92.205 Y25.279 F5400
G1 X85.626 Y18.700 E161.2275 F2400
G0 X85.626 Y18.134 F5400
G1 X92.205 Y24.713 E161.6917 F2400
G0 X92.205 Y24.147 F5400
G1 X85.626 Y17.568 E162.1558 F2400
G0 X85.626 Y17.003 F5400
G1 X92.205 Y23.582 E162.6200 F2400
G0 X92.205 Y23.016 F5400
G1 X85.626 Y16.437 E163.0842 F2400
G0 X86.123 Y15.237 F5400
G1 X92.327 Y21.441 E163.5220 F2400
G0 X92.483 Y21.032 F5400
G1 X86.688 Y15.237 E163.9308 F2400
G0 X87.254 Y15.237 F5400
G1 X92.686 Y20.668 E164.3141 F2400
G0 X92.929 Y20.346 F5400
G1 X87.820 Y15.237 E164.6746 F2400
G0 X88.385 Y15.237 F5400
G1 X93.210 Y20.061 E165.0149 F2400
G0 X93.529 Y19.814 F5400
G1 X88.951 Y15.237 E165.3379 F2400
G0 X89.517 Y15.237 F5400
G1 X93.888 Y19.608 E165.6463 F2400
G0 X94.293 Y19.447 F5400
G1 X90.082 Y15.237 E165.9434 F2400
G0 X90.648 Y15.237 F5400
G1 X94.756 Y19.345 E166.2333 F2400
G0 X95.293 Y19.316 F5400
G1 X91.214 Y15.237 E166.5210 F2400
G0 X91.779 Y15.237 F5400
G1 X95.858 Y19.316 E166.8088 F2400
G0 X96.443 Y19.335 F5400
G1 X92.345 Y15.237 E167.0980 F2400
G0 X92.911 Y15.237 F5400
G1 X97.168 Y19.494 E167.3983 F2400
G0 X98.948 Y21.274 F5400
G1 X104.205 Y26.531 E167.7692 F2400
G0 X104.205 Y27.096 F5400
G1 X99.107 Y21.999 E168.1289 F2400
G0 X99.126 Y22.583 F5400
G1 X104.205 Y27.662 E168.4872 F2400
G0 X104.205 Y28.228 F5400
G1 X99.126 Y23.149 E168.8456 F2400
G0 X99.126 Y23.715 F5400
G1 X104.205 Y28.793 E169.2039 F2400
G0 X104.205 Y29.359 F5400
G1 X99.126 Y24.280 E169.5622 F2400
G0 X99.126 Y24.846 F5400
G1 X104.205 Y29.925 E169.9206 F2400
G0 X104.205 Y30.491 F5400
G1 X99.126 Y25.412 E170.2789 F2400
G0 X99.126 Y25.977 F5400
G1 X104.205 Y31.056 E170.6373 F2400
G0 X104.205 Y31.622 F5400
G1 X99.126 Y26.543 E170.9956 F2400
G0 X99.126 Y27.109 F5400
G1 X104.205 Y32.188 E171.3539 F2400
G0 X104.205 Y32.753 F5400
G1 X99.126 Y27.674 E171.7123 F2400
G0 X99.126 Y28.240 F5400
G1 X104.205 Y33.319 E172.0706 F2400
G0 X104.205 Y33.885 F5400
G1 X99.126 Y28.806 E172.4289 F2400
G0 X99.126 Y29.371 F5400
G1 X104.205 Y34.450 E172.7873 F2400
G0 X104.205 Y35.016 F5400
G1 X99.126 Y29.937 E173.1456 F2400
G0 X99.126 Y30.503 F5400
G1 X104.205 Y35.582 E173.5040 F2400
G0 X104.205 Y36.147 F5400
G1 X99.126 Y31.068 E173.8623 F2400
G0 X99.126 Y31.634 F5400
G1 X104.240 Y36.749 E174.2232 F2400
G0 X104.509 Y37.583 F5400
G1 X99.126 Y32.200 E174.6029 F2400
G0 X98.766 Y32.883 F5400
G0 X98.766 Y36.300
G0 X98.736 Y36.683
G0 X98.640 Y37.080
G0 X98.484 Y37.458
G0 X98.271 Y37.806
G0 X98.006 Y38.116
G0 X97.695 Y38.382
G0 X97.347 Y38.595
G0 X96.969 Y38.751
G0 X96.573 Y38.846
G0 X96.189 Y38.877
G0 X95.605 Y38.877
G0 X95.605 Y38.877
G0 X95.409 Y39.249
G0 X95.415 Y39.237
G1 X99.494 Y43.316 E174.8907 F2400
G0 X100.059 Y43.316 F5400
G1 X95.981 Y39.237 E175.1785 F2400
G0 X96.521 Y39.212 F5400
G1 X100.625 Y43.316 E175.4681 F2400
G0 X101.191 Y43.316 F5400
G1 X96.992 Y39.116 E175.7643 F2400
G0 X97.403 Y38.962 F5400
G1 X101.757 Y43.316 E176.0715 F2400
G0 X102.322 Y43.316 F5400
G1 X97.767 Y38.760 E176.3930 F2400
G0 X98.090 Y38.518 F5400
G1 X102.888 Y43.316 E176.7315 F2400
G0 X103.454 Y43.316 F5400
G1 X98.376 Y38.238 E177.0897 F2400
G0 X98.623 Y37.920 F5400
G1 X104.019 Y43.316 E177.4704 F2400
G0 X104.585 Y43.316 F5400
G1 X98.831 Y37.562 E177.8764 F2400
G0 X98.992 Y37.157 F5400
G1 X105.151 Y43.316 E178.3109 F2400
G0 X105.716 Y43.316 F5400
G1 X99.096 Y36.695 E178.7780 F2400
G0 X99.126 Y36.160 F5400
G1 X106.282 Y43.316 E179.2829 F2400
G0 X106.848 Y43.316 F5400
G1 X99.126 Y35.594 E179.8277 F2400
G0 X99.126 Y35.028 F5400
G1 X107.413 Y43.316 E180.4125 F2400
G0 X107.979 Y43.316 F5400
G1 X99.126 Y34.463 E181.0371 F2400
G0 X99.126 Y33.897 F5400
G1 X108.545 Y43.316 E181.7016 F2400
G0 X109.110 Y43.316 F5400
G1 X99.126 Y33.331 E182.4061 F2400
G0 X99.126 Y32.766 F5400
G1 X109.676 Y43.316 E183.1504 F2400
G0 X110.242 Y43.316 F5400
G1 X105.859 Y38.933 E183.4597 F2400
G0 X106.693 Y39.201 F5400
G1 X110.807 Y43.316 E183.7500 F2400
G0 X111.373 Y43.316 F5400
G1 X107.294 Y39.237 E184.0378 F2400
G0 X107.860 Y39.237 F5400
G1 X111.939 Y43.316 E184.3255 F2400
G0 X112.505 Y43.316 F5400
G1 X108.409 Y39.221 E184.6145 F2400
G0 X108.894 Y39.140 F5400
G1 X113.102 Y43.347 E184.9113 F2400
G0 X113.917 Y43.597 F5400
G1 X109.317 Y38.997 E185.2359 F2400
G0 X117.568 Y38.762 F5400
G1 X123.940 Y45.135 E185.6855 F2400
G0 X124.130 Y44.759 F5400
G1 X118.534 Y39.163 E186.0803 F2400
G0 X120.298 Y39.229 F5400
G1 X124.938 Y43.870 E186.4077 F2400
G0 X125.289 Y43.655 F5400
G1 X120.797 Y39.163 E186.7246 F2400
G0 X121.232 Y39.032 F5400
G1 X125.684 Y43.485 E187.0388 F2400
G0 X126.131 Y43.366 F5400
G1 X121.617 Y38.852 E187.3573 F2400
G0 X121.960 Y38.629 F5400
G1 X126.647 Y43.316 E187.6879 F2400
G0 X127.212 Y43.316 F5400
G1 X122.265 Y38.368 E188.0370 F2400
G0 X122.525 Y38.063 F5400
G1 X127.778 Y43.316 E188.4077 F2400
G0 X128.344 Y43.316 F5400
G1 X122.747 Y37.719 E188.8026 F2400
G0 X122.926 Y37.332 F5400
G1 X128.909 Y43.316 E189.2248 F2400
G0 X129.475 Y43.316 F5400
G1 X123.055 Y36.896 E189.6777 F2400
G0 X123.120 Y36.395 F5400
G1 X130.041 Y43.316 E190.1661 F2400
G0 X130.606 Y43.316 F5400
G1 X123.126 Y35.835 E190.6938 F2400
G0 X123.126 Y35.270 F5400
G1 X131.172 Y43.316 E191.2615 F2400
G0 X131.738 Y43.316 F5400
G1 X123.126 Y34.704 E191.8691 F2400
G0 X123.126 Y34.138 F5400
G1 X132.304 Y43.316 E192.5167 F2400
G0 X132.869 Y43.316 F5400
G1 X123.126 Y33.572 E193.2041 F2400
G0 X123.126 Y33.007 F5400
G1 X133.435 Y43.316 E193.9314 F2400
G0 X134.001 Y43.316 F5400
G1 X123.126 Y32.441 E194.6987 F2400
G0 X123.126 Y31.875 F5400
G1 X128.317 Y37.066 E195.0649 F2400
G0 X128.211 Y36.395 F5400
G1 X123.126 Y31.310 E195.4237 F2400
G0 X123.126 Y30.744 F5400
G1 X128.205 Y35.823 E195.7821 F2400
G0 X128.205 Y35.257 F5400
G1 X123.126 Y30.178 E196.1404 F2400
G0 X123.126 Y29.613 F5400
G1 X128.205 Y34.692 E196.4988 F2400
G0 X128.205 Y34.126 F5400
G1 X123.126 Y29.047 E196.8571 F2400
G0 X123.126 Y28.481 F5400
G1 X128.205 Y33.560 E197.2154 F2400
G0 X128.205 Y32.994 F5400
G1 X123.126 Y27.916 E197.5738 F2400
G0 X123.126 Y27.350 F5400
G1 X128.205 Y32.429 E197.9321 F2400
G0 X128.205 Y31.863 F5400
G1 X123.126 Y26.784 E198.2904 F2400
G0 X123.126 Y26.219 F5400
G1 X128.205 Y31.297 E198.6488 F2400
G0 X128.205 Y30.732 F5400
G1 X123.126 Y25.653 E199.0071 F2400
G0 X123.126 Y25.087 F5400
G1 X128.205 Y30.166 E199.3655 F2400
G0 X128.205 Y29.600 F5400
G1 X123.126 Y24.521 E199.7238 F2400
G0 X123.126 Y23.956 F5400
G1 X128.205 Y29.035 E200.0821 F2400
G0 X128.205 Y28.469 F5400
G1 X123.126 Y23.390 E200.4405 F2400
G0 X123.126 Y22.824 F5400
G1 X128.205 Y27.903 E200.7988 F2400
G0 X128.205 Y27.338 F5400
G1 X123.126 Y22.259 E201.1571 F2400
G0 X123.044 Y21.611 F5400
G1 X128.205 Y26.772 E201.5213 F2400
G0 X128.205 Y26.206 F5400
G1 X122.610 Y20.612 E201.9160 F2400
G0 X129.680 Y15.237 F5400
G1 X140.205 Y25.761 E202.6585 F2400
G0 X140.205 Y25.195 F5400
G1 X130.246 Y15.237 E203.3612 F2400
G0 X130.812 Y15.237 F5400
G1 X140.205 Y24.630 E204.0239 F2400
G0 X140.205 Y24.064 F5400
G1 X131.377 Y15.237 E204.6467 F2400
G0 X131.943 Y15.237 F5400
G1 X140.205 Y23.498 E205.2296 F2400
G0 X140.205 Y22.933 F5400
G1 X132.509 Y15.237 E205.7726 F2400
G0 X133.075 Y15.237 F5400
G1 X140.205 Y22.367 E206.2757 F2400
G0 X140.237 Y21.833 F5400
G1 X133.640 Y15.237 E206.7411 F2400
G0 X134.206 Y15.237 F5400
G1 X140.344 Y21.374 E207.1741 F2400
G0 X140.508 Y20.973 F5400
G1 X134.772 Y15.237 E207.5788 F2400
G0 X135.337 Y15.237 F5400
G1 X140.717 Y20.617 E207.9584 F2400
G0 X140.967 Y20.301 F5400
G1 X135.903 Y15.237 E208.3157 F2400
G0 X136.469 Y15.237 F5400
G1 X141.255 Y20.023 E208.6534 F2400
G0 X141.580 Y19.783 F5400
G1 X137.034 Y15.237 E208.9742 F2400
G0 X137.600 Y15.237 F5400
G1 X141.947 Y19.583 E209.2808 F2400
G0 X142.360 Y19.431 F5400
G1 X138.166 Y15.237 E209.5768 F2400
G0 X138.731 Y15.237 F5400
G1 X142.834 Y19.339 E209.8662 F2400
G0 X143.376 Y19.316 F5400
G1 X139.297 Y15.237 E210.1540 F2400
G0 X139.863 Y15.237 F5400
G1 X143.942 Y19.316 E210.4418 F2400
G0 X144.533 Y19.342 F5400
G1 X140.428 Y15.237 E210.7314 F2400
G0 X140.994 Y15.237 F5400
G1 X145.310 Y19.553 E211.0359 F2400
G0 X141.560 Y15.237 F5400
G1 X153.705 Y27.382 E211.8928 F2400
G0 X153.705 Y26.816 F5400
G1 X142.126 Y15.237 E212.7098 F2400
G0 X142.691 Y15.237 F5400
G1 X153.705 Y26.250 E213.4869 F2400
G0 X153.705 Y25.685 F5400
G1 X143.257 Y15.237 E214.2241 F2400
G0 X143.823 Y15.237 F5400
G1 X153.705 Y25.119 E214.9213 F2400
G0 X153.705 Y24.553 F5400
G1 X144.388 Y15.237 E215.5786 F2400
G0 X144.954 Y15.237 F5400
G1 X153.705 Y23.988 E216.1961 F2400
G0 X153.705 Y23.422 F5400
G1 X145.520 Y15.237 E216.7736 F2400
G0 X146.085 Y15.237 F5400
G1 X153.705 Y22.856 E217.3112 F2400
G0 X153.705 Y22.291 F5400
G1 X146.651 Y15.237 E217.8089 F2400
G0 X147.217 Y15.237 F5400
G1 X153.705 Y21.725 E218.2666 F2400
G0 X153.705 Y21.159 F5400
G1 X147.782 Y15.237 E218.6845 F2400
G0 X148.348 Y15.237 F5400
G1 X153.705 Y20.593 E219.0625 F2400
G0 X153.705 Y20.028 F5400
G1 X148.914 Y15.237 E219.4005 F2400
G0 X149.479 Y15.237 F5400
G1 X153.705 Y19.462 E219.6986 F2400
G0 X153.705 Y18.896 F5400
G1 X150.045 Y15.237 E219.9568 F2400
G0 X150.611 Y15.237 F5400
G1 X153.705 Y18.331 E220.1751 F2400
G0 X153.705 Y17.765 F5400
G1 X151.176 Y15.237 E220.3535 F2400
G0 X151.742 Y15.237 F5400
G1 X153.705 Y17.199 E220.4920 F2400
G0 X153.705 Y16.634 F5400
G1 X152.308 Y15.237 E220.5906 F2400
G0 X152.874 Y15.237 F5400
G1 X153.705 Y16.068 E220.6492 F2400
G0 X146.889 Y21.132 F5400
G1 X153.705 Y27.947 E221.1301 F2400
G0 X153.705 Y28.513 F5400
G1 X147.100 Y21.908 E221.5961 F2400
G0 X147.126 Y22.500 F5400
G1 X153.705 Y29.079 E222.0603 F2400
G0 X153.705 Y29.644 F5400
G1 X147.126 Y23.066 E222.5245 F2400
G0 X147.126 Y23.631 F5400
G1 X153.705 Y30.210 E222.9886 F2400
G0 X153.705 Y30.776 F5400
G1 X147.126 Y24.197 E223.4528 F2400
G0 X147.126 Y24.763 F5400
G1 X153.705 Y31.342 E223.9170 F2400
G0 X153.705 Y31.907 F5400
G1 X147.126 Y25.328 E224.3812 F2400
G0 X147.126 Y25.894 F5400
G1 X153.705 Y32.473 E224.8453 F2400
G0 X153.705 Y33.039 F5400
G1 X147.126 Y26.460 E225.3095 F2400
G0 X147.126 Y27.025 F5400
G1 X153.705 Y33.604 E225.7737 F2400
G0 X153.705 Y34.170 F5400
G1 X147.126 Y27.591 E226.2379 F2400
G0 X147.126 Y28.157 F5400
G1 X153.705 Y34.736 E226.7020 F2400
G0 X153.705 Y35.301 F5400
G1 X147.126 Y28.722 E227.1662 F2400
G0 X147.126 Y29.288 F5400
G1 X153.705 Y35.867 E227.6304 F2400
G0 X153.705 Y36.433 F5400
G1 X147.126 Y29.854 E228.0945 F2400
G0 X147.126 Y30.420 F5400
G1 X153.705 Y36.998 E228.5587 F2400
G0 X153.705 Y37.564 F5400
G1 X147.126 Y30.985 E229.0229 F2400
G0 X147.126 Y31.551 F5400
G1 X153.705 Y38.130 E229.4871 F2400
G0 X153.705 Y38.695 F5400
G1 X147.126 Y32.117 E229.9512 F2400
G0 X147.126 Y32.682 F5400
G1 X153.705 Y39.261 E230.4154 F2400
G0 X153.705 Y39.827 F5400
G1 X147.126 Y33.248 E230.8796 F2400
G0 X147.126 Y33.814 F5400
G1 X153.705 Y40.392 E231.3437 F2400
G0 X153.705 Y40.958 F5400
G1 X147.126 Y34.379 E231.8079 F2400
G0 X147.126 Y34.945 F5400
G1 X153.705 Y41.524 E232.2721 F2400
G0 X153.705 Y42.090 F5400
G1 X147.126 Y35.511 E232.7363 F2400
G0 X147.126 Y36.076 F5400
G1 X153.705 Y42.655 E233.2004 F2400
G0 X153.705 Y43.221 F5400
G1 X147.102 Y36.618 E233.6663 F2400
G0 X147.008 Y37.090 F5400
G1 X153.234 Y43.316 E234.1055 F2400
G0 X152.668 Y43.316 F5400
G1 X146.855 Y37.503 E234.5157 F2400
G0 X146.655 Y37.868 F5400
G1 X152.103 Y43.316 E234.9000 F2400
G0 X151.537 Y43.316 F5400
G1 X146.414 Y38.193 E235.2615 F2400
; ------------------------------------
; Layer #1
; ------------------------------------
M106 S0 ;turn off fan
G92 E0 ;reset extr
G0 F3000 E-1.0000
G0 F1200 Z0.600
G0 X143.881 Y37.353 F7200
G0 X141.348 Y36.514
G0 X138.815 Y35.674
G0 X131.217 Y33.155
G0 X128.684 Y32.316
G0 X118.553 Y28.957
G0 X116.020 Y28.118
G0 X105.889 Y24.759
G0 X103.356 Y23.920
G0 X98.290 Y22.241
G0 X95.757 Y21.401
G0 X93.224 Y20.561
G0 X85.626 Y18.043
G0 F3000 E0.0000
;segType:HShell
G1 X88.432 Y15.237 E0.1980 F3600
G0 X87.866 Y15.237 F7200
G1 X85.626 Y17.477 E0.3560 F3600
G0 X85.626 Y16.911 F7200
G1 X87.300 Y15.237 E0.4742 F3600
G0 X86.735 Y15.237 F7200
G1 X85.626 Y16.346 E0.5524 F3600
G0 X85.626 Y15.780 F7200
G1 X86.169 Y15.237 E0.5907 F3600
;segType:Perimeter
G0 X84.926 Y14.477 F7200
G1 X154.465 Y14.477 E4.0601 F2160
G1 X154.465 Y44.076 E5.5368
G1 X126.657 Y44.076 E6.9241
G1 X126.321 Y44.102 E6.9409
G1 X125.985 Y44.183 E6.9582
G1 X125.666 Y44.315 E6.9754
G1 X125.372 Y44.496 E6.9926
G1 X125.109 Y44.720 E7.0098
G1 X124.885 Y44.983 E7.0271
G1 X124.704 Y45.277 E7.0443
G1 X124.572 Y45.596 E7.0615
G1 X124.491 Y45.932 E7.0788
G1 X124.465 Y46.268 E7.0956
G1 X124.465 Y54.326 E7.4976
G1 X124.928 Y55.205 E7.5472
G1 X125.218 Y56.086 E7.5935
G1 X125.359 Y57.004 E7.6398
G1 X125.347 Y57.931 E7.6861
G1 X125.181 Y58.844 E7.7323
G1 X124.867 Y59.717 E7.7786
G1 X124.413 Y60.527 E7.8249
G1 X123.832 Y61.250 E7.8712
G1 X123.139 Y61.867 E7.9175
G1 X122.354 Y62.362 E7.9638
G1 X121.498 Y62.719 E8.0101
G1 X120.595 Y62.931 E8.0564
G1 X119.665 Y62.991 E8.1028
G1 X118.736 Y62.931 E8.1493
G1 X117.832 Y62.719 E8.1956
G1 X116.977 Y62.362 E8.2419
G1 X116.191 Y61.867 E8.2882
G1 X115.499 Y61.250 E8.3345
G1 X114.917 Y60.527 E8.3808
G1 X114.464 Y59.717 E8.4270
G1 X114.150 Y58.844 E8.4733
G1 X113.984 Y57.931 E8.5196
G1 X113.972 Y57.004 E8.5659
G1 X114.113 Y56.087 E8.6122
G1 X114.403 Y55.205 E8.6585
G1 X114.866 Y54.326 E8.7081
G1 X114.866 Y46.268 E9.1101
G1 X114.839 Y45.932 E9.1269
G1 X114.759 Y45.596 E9.1441
G1 X114.627 Y45.277 E9.1614
G1 X114.446 Y44.983 E9.1786
G1 X114.222 Y44.720 E9.1958
G1 X113.959 Y44.496 E9.2131
G1 X113.665 Y44.315 E9.2303
G1 X113.345 Y44.183 E9.2475
G1 X113.010 Y44.102 E9.2648
G1 X112.673 Y44.076 E9.2816
G1 X84.866 Y44.076 E10.6689
G1 X84.866 Y14.537 E12.1426
G0 X85.639 Y14.744 F7200
;segType:Loop
G0 X85.966 Y14.877
G1 X154.065 Y14.877 E15.5401 F3600
G1 X154.065 Y43.676 E16.9769
G1 X126.642 Y43.676 E18.3451
G1 X126.258 Y43.706 E18.3643
G1 X125.861 Y43.801 E18.3846
G1 X125.484 Y43.958 E18.4050
G1 X125.136 Y44.171 E18.4254
G1 X124.825 Y44.436 E18.4457
G1 X124.560 Y44.747 E18.4661
G1 X124.347 Y45.095 E18.4865
G1 X124.190 Y45.472 E18.5069
G1 X124.095 Y45.869 E18.5272
G1 X124.065 Y46.253 E18.5464
G1 X124.065 Y54.425 E18.9541
G1 X124.558 Y55.362 E19.0070
G1 X124.828 Y56.180 E19.0499
G1 X124.959 Y57.032 E19.0929
G1 X124.947 Y57.893 E19.1359
G1 X124.794 Y58.740 E19.1789
G1 X124.502 Y59.551 E19.2218
G1 X124.081 Y60.302 E19.2648
G1 X123.541 Y60.973 E19.3078
G1 X122.898 Y61.546 E19.3507
G1 X122.169 Y62.005 E19.3937
G1 X121.375 Y62.337 E19.4367
G1 X120.536 Y62.534 E19.4797
G1 X119.665 Y62.590 E19.5232
G1 X118.795 Y62.534 E19.5667
G1 X117.956 Y62.337 E19.6097
G1 X117.161 Y62.005 E19.6527
G1 X116.432 Y61.546 E19.6956
G1 X115.789 Y60.973 E19.7386
G1 X115.250 Y60.302 E19.7816
G1 X114.829 Y59.551 E19.8245
G1 X114.537 Y58.740 E19.8675
G1 X114.384 Y57.893 E19.9105
G1 X114.372 Y57.032 E19.9534
G1 X114.503 Y56.180 E19.9964
G1 X114.773 Y55.362 E20.0394
G1 X115.266 Y54.425 E20.0922
G1 X115.266 Y46.253 E20.5000
G1 X115.236 Y45.869 E20.5191
G1 X115.140 Y45.472 E20.5395
G1 X114.984 Y45.095 E20.5599
G1 X114.771 Y44.747 E20.5803
G1 X114.506 Y44.436 E20.6006
G1 X114.195 Y44.171 E20.6210
G1 X113.847 Y43.958 E20.6414
G1 X113.470 Y43.801 E20.6618
G1 X113.073 Y43.706 E20.6821
G1 X112.689 Y43.676 E20.7013
G1 X85.266 Y43.676 E22.0695
G1 X85.266 Y14.877 E23.5063
G1 X85.766 Y14.877 E23.5312
G0 X85.766 Y14.877 F7200
G0 X92.565 Y32.825
G0 X92.565 Y32.825
G0 X92.565 Y36.300
G0 X92.595 Y36.683
G0 X92.690 Y37.080
G0 X92.847 Y37.458
G0 X93.060 Y37.806
G0 X93.325 Y38.116
G0 X93.636 Y38.382
G0 X93.984 Y38.595
G0 X94.361 Y38.751
G0 X94.758 Y38.846
G0 X94.848 Y38.853
G0 X94.848 Y38.853
G0 X94.994 Y39.238
;segType:HShell
G0 X94.990 Y39.226
G1 X90.900 Y43.316 E23.8198 F3600
G0 X91.466 Y43.316 F7200
G1 X95.544 Y39.237 E24.1075 F3600
;segType:Perimeter
G0 X95.133 Y38.728 F7200
G1 X94.430 Y38.347 E24.1474 F2160
G1 X94.166 Y38.237 E24.1617
G1 X93.872 Y38.057 E24.1789
G1 X93.609 Y37.833 E24.1962
G1 X93.385 Y37.570 E24.2134
G1 X93.204 Y37.276 E24.2306
G1 X93.072 Y36.956 E24.2479
G1 X92.991 Y36.621 E24.2651
G1 X92.965 Y36.284 E24.2819
G1 X92.965 Y22.268 E24.9812
G1 X92.991 Y21.932 E24.9980
G1 X93.072 Y21.596 E25.0152
G1 X93.204 Y21.277 E25.0325
G1 X93.385 Y20.983 E25.0497
G1 X93.609 Y20.720 E25.0669
G1 X93.872 Y20.496 E25.0842
G1 X94.166 Y20.315 E25.1014
G1 X94.485 Y20.183 E25.1186
G1 X94.821 Y20.102 E25.1359
G1 X95.158 Y20.076 E25.1527
G1 X96.173 Y20.076 E25.2034
G1 X96.510 Y20.102 E25.2202
G1 X96.845 Y20.183 E25.2374
G1 X97.165 Y20.315 E25.2547
G1 X97.459 Y20.496 E25.2719
G1 X97.722 Y20.720 E25.2891
G1 X97.946 Y20.983 E25.3064
G1 X98.127 Y21.277 E25.3236
G1 X98.259 Y21.596 E25.3408
G1 X98.339 Y21.932 E25.3581
G1 X98.366 Y22.268 E25.3749
G1 X98.366 Y36.284 E26.0742
G1 X98.339 Y36.621 E26.0910
G1 X98.259 Y36.956 E26.1082
G1 X98.127 Y37.276 E26.1255
G1 X97.946 Y37.570 E26.1427
G1 X97.722 Y37.833 E26.1599
G1 X97.459 Y38.057 E26.1771
G1 X97.165 Y38.237 E26.1944
G1 X96.845 Y38.370 E26.2116
G1 X96.510 Y38.450 E26.2288
G1 X96.173 Y38.477 E26.2457
G1 X95.157 Y38.477 E26.2964
G1 X94.821 Y38.450 E26.3132
G1 X94.544 Y38.384 E26.3274
G0 X93.751 Y38.279 F7200
;segType:Loop
G0 X93.260 Y38.040
G1 X93.060 Y37.806 E26.3428 F3600
G1 X92.847 Y37.458 E26.3632
G1 X92.690 Y37.080 E26.3835
G1 X92.595 Y36.683 E26.4039
G1 X92.565 Y36.300 E26.4231
G1 X92.565 Y22.253 E27.1239
G1 X92.595 Y21.869 E27.1431
G1 X92.690 Y21.472 E27.1635
G1 X92.847 Y21.095 E27.1839
G1 X93.060 Y20.747 E27.2042
G1 X93.325 Y20.436 E27.2246
G1 X93.636 Y20.171 E27.2450
G1 X93.984 Y19.958 E27.2654
G1 X94.361 Y19.801 E27.2857
G1 X94.758 Y19.706 E27.3061
G1 X95.142 Y19.676 E27.3253
G1 X96.189 Y19.676 E27.3775
G1 X96.573 Y19.706 E27.3967
G1 X96.970 Y19.801 E27.4171
G1 X97.347 Y19.958 E27.4375
G1 X97.695 Y20.171 E27.4578
G1 X98.006 Y20.436 E27.4782
G1 X98.271 Y20.747 E27.4986
G1 X98.484 Y21.095 E27.5190
G1 X98.640 Y21.472 E27.5393
G1 X98.736 Y21.869 E27.5597
G1 X98.766 Y22.253 E27.5789
G1 X98.766 Y36.300 E28.2797
G1 X98.736 Y36.683 E28.2989
G1 X98.640 Y37.080 E28.3193
G1 X98.484 Y37.458 E28.3397
G1 X98.271 Y37.806 E28.3600
G1 X98.006 Y38.116 E28.3804
G1 X97.695 Y38.382 E28.4008
G1 X97.347 Y38.595 E28.4211
G1 X96.969 Y38.751 E28.4415
G1 X96.573 Y38.846 E28.4619
G1 X96.189 Y38.877 E28.4811
G1 X95.141 Y38.877 E28.5333
G1 X94.758 Y38.846 E28.5525
G1 X94.361 Y38.751 E28.5729
G1 X93.984 Y38.595 E28.5933
G1 X93.636 Y38.382 E28.6136
G0 X94.805 Y38.446 F7200
G0 X94.821 Y38.450
G0 X95.157 Y38.477
G0 X95.359 Y38.477
G0 X95.359 Y38.477
G0 X108.599 Y39.207
;segType:HShell
G0 X108.585 Y39.207
G1 X104.476 Y43.316 E28.9035 F3600
G0 X105.042 Y43.316 F7200
G1 X109.391 Y38.966 E29.2104 F3600
;segType:Perimeter
G0 X109.580 Y38.279 F7200
G1 X108.787 Y38.384 E29.2503 F2160
G1 X108.510 Y38.450 E29.2646
G1 X108.173 Y38.477 E29.2814
G1 X107.158 Y38.477 E29.3321
G1 X106.821 Y38.450 E29.3489
G1 X106.485 Y38.370 E29.3661
G1 X106.166 Y38.237 E29.3834
G1 X105.872 Y38.057 E29.4006
G1 X105.609 Y37.833 E29.4178
G1 X105.385 Y37.570 E29.4351
G1 X105.204 Y37.276 E29.4523
G1 X105.072 Y36.956 E29.4695
G1 X104.991 Y36.621 E29.4868
G1 X104.965 Y36.284 E29.5036
G1 X104.965 Y22.268 E30.2029
G1 X104.991 Y21.932 E30.2197
G1 X105.072 Y21.596 E30.2369
G1 X105.204 Y21.277 E30.2542
G1 X105.385 Y20.983 E30.2714
G1 X105.609 Y20.720 E30.2886
G1 X105.872 Y20.496 E30.3058
G1 X106.166 Y20.315 E30.3231
G1 X106.485 Y20.183 E30.3403
G1 X106.821 Y20.102 E30.3575
G1 X107.158 Y20.076 E30.3744
G1 X108.173 Y20.076 E30.4250
G1 X108.510 Y20.102 E30.4419
G1 X108.846 Y20.183 E30.4591
G1 X109.165 Y20.315 E30.4763
G1 X109.459 Y20.496 E30.4936
G1 X109.722 Y20.720 E30.5108
G1 X109.946 Y20.983 E30.5280
G1 X110.126 Y21.277 E30.5453
G1 X110.259 Y21.596 E30.5625
G1 X110.339 Y21.932 E30.5797
G1 X110.366 Y22.268 E30.5966
G1 X110.366 Y36.284 E31.2958
G1 X110.339 Y36.621 E31.3127
G1 X110.259 Y36.956 E31.3299
G1 X110.126 Y37.276 E31.3471
G1 X109.946 Y37.570 E31.3643
G1 X109.722 Y37.833 E31.3816
G1 X109.459 Y38.057 E31.3988
G1 X109.165 Y38.237 E31.4160
G1 X108.901 Y38.347 E31.4303
G0 X108.198 Y38.728 F7200
;segType:Loop
G0 X107.756 Y38.877
G1 X107.142 Y38.877 E31.4609 F3600
G1 X106.758 Y38.846 E31.4801
G1 X106.361 Y38.751 E31.5005
G1 X105.984 Y38.595 E31.5209
G1 X105.636 Y38.382 E31.5412
G1 X105.325 Y38.116 E31.5616
G1 X105.060 Y37.806 E31.5820
G1 X104.847 Y37.458 E31.6023
G1 X104.691 Y37.080 E31.6227
G1 X104.595 Y36.683 E31.6431
G1 X104.565 Y36.300 E31.6623
G1 X104.565 Y22.253 E32.3631
G1 X104.595 Y21.869 E32.3823
G1 X104.691 Y21.472 E32.4027
G1 X104.847 Y21.095 E32.4230
G1 X105.060 Y20.747 E32.4434
G1 X105.325 Y20.436 E32.4638
G1 X105.636 Y20.171 E32.4842
G1 X105.984 Y19.958 E32.5045
G1 X106.361 Y19.801 E32.5249
G1 X106.758 Y19.706 E32.5453
G1 X107.142 Y19.676 E32.5645
G1 X108.189 Y19.676 E32.6167
G1 X108.572 Y19.706 E32.6359
G1 X108.970 Y19.801 E32.6563
G1 X109.347 Y19.958 E32.6766
G1 X109.695 Y20.171 E32.6970
G1 X110.006 Y20.436 E32.7174
G1 X110.271 Y20.747 E32.7378
G1 X110.484 Y21.095 E32.7581
G1 X110.640 Y21.472 E32.7785
G1 X110.736 Y21.869 E32.7989
G1 X110.766 Y22.253 E32.8181
G1 X110.766 Y36.300 E33.5189
G1 X110.736 Y36.683 E33.5381
G1 X110.640 Y37.080 E33.5585
G1 X110.484 Y37.458 E33.5788
G1 X110.271 Y37.806 E33.5992
G1 X110.006 Y38.116 E33.6196
G1 X109.695 Y38.382 E33.6399
G1 X109.347 Y38.595 E33.6603
G1 X108.969 Y38.751 E33.6807
G1 X108.572 Y38.846 E33.7011
G1 X108.189 Y38.877 E33.7202
G1 X107.956 Y38.877 E33.7319
;segType:HShell
G0 X119.303 Y39.237 F7200
G1 X114.544 Y43.996 E34.0676 F3600
G0 X114.214 Y43.760 F7200
G1 X118.766 Y39.208 E34.3888 F3600
;segType:Perimeter
G0 X119.133 Y38.728 F7200
G1 X118.430 Y38.347 E34.4287 F2160
G1 X118.166 Y38.237 E34.4430
G1 X117.872 Y38.057 E34.4602
G1 X117.609 Y37.833 E34.4774
G1 X117.385 Y37.570 E34.4947
G1 X117.204 Y37.276 E34.5119
G1 X117.072 Y36.956 E34.5291
G1 X116.991 Y36.621 E34.5464
G1 X116.965 Y36.284 E34.5632
G1 X116.965 Y22.268 E35.2624
G1 X116.991 Y21.932 E35.2793
G1 X117.072 Y21.596 E35.2965
G1 X117.204 Y21.277 E35.3137
G1 X117.385 Y20.983 E35.3310
G1 X117.609 Y20.720 E35.3482
G1 X117.872 Y20.496 E35.3654
G1 X118.166 Y20.315 E35.3827
G1 X118.485 Y20.183 E35.3999
G1 X118.821 Y20.102 E35.4171
G1 X119.158 Y20.076 E35.4340
G1 X120.173 Y20.076 E35.4847
G1 X120.510 Y20.102 E35.5015
G1 X120.845 Y20.183 E35.5187
G1 X121.165 Y20.315 E35.5359
G1 X121.459 Y20.496 E35.5532
G1 X121.722 Y20.720 E35.5704
G1 X121.946 Y20.983 E35.5876
G1 X122.127 Y21.277 E35.6049
G1 X122.259 Y21.596 E35.6221
G1 X122.339 Y21.932 E35.6393
G1 X122.366 Y22.268 E35.6562
G1 X122.366 Y36.284 E36.3554
G1 X122.339 Y36.621 E36.3723
G1 X122.259 Y36.956 E36.3895
G1 X122.127 Y37.276 E36.4067
G1 X121.946 Y37.570 E36.4239
G1 X121.722 Y37.833 E36.4412
G1 X121.459 Y38.057 E36.4584
G1 X121.165 Y38.237 E36.4757
G1 X120.845 Y38.370 E36.4929
G1 X120.510 Y38.450 E36.5101
G1 X120.173 Y38.477 E36.5269
G1 X119.157 Y38.477 E36.5776
G1 X118.821 Y38.450 E36.5945
G1 X118.544 Y38.384 E36.6087
G0 X117.751 Y38.279 F7200
;segType:Loop
G0 X117.260 Y38.040
G1 X117.060 Y37.806 E36.6241 F3600
G1 X116.847 Y37.458 E36.6445
G1 X116.690 Y37.080 E36.6648
G1 X116.595 Y36.683 E36.6852
G1 X116.565 Y36.300 E36.7044
G1 X116.565 Y22.253 E37.4052
G1 X116.595 Y21.869 E37.4244
G1 X116.690 Y21.472 E37.4448
G1 X116.847 Y21.095 E37.4652
G1 X117.060 Y20.747 E37.4855
G1 X117.325 Y20.436 E37.5059
G1 X117.636 Y20.171 E37.5263
G1 X117.984 Y19.958 E37.5466
G1 X118.361 Y19.801 E37.5670
G1 X118.758 Y19.706 E37.5874
G1 X119.142 Y19.676 E37.6066
G1 X120.189 Y19.676 E37.6588
G1 X120.573 Y19.706 E37.6780
G1 X120.969 Y19.801 E37.6984
G1 X121.347 Y19.958 E37.7188
G1 X121.695 Y20.171 E37.7391
G1 X122.006 Y20.436 E37.7595
G1 X122.271 Y20.747 E37.7799
G1 X122.484 Y21.095 E37.8002
G1 X122.640 Y21.472 E37.8206
G1 X122.736 Y21.869 E37.8410
G1 X122.766 Y22.253 E37.8602
G1 X122.766 Y36.300 E38.5610
G1 X122.736 Y36.683 E38.5802
G1 X122.640 Y37.080 E38.6006
G1 X122.484 Y37.458 E38.6209
G1 X122.271 Y37.806 E38.6413
G1 X122.006 Y38.116 E38.6617
G1 X121.695 Y38.382 E38.6821
G1 X121.347 Y38.595 E38.7024
G1 X120.969 Y38.751 E38.7228
G1 X120.573 Y38.846 E38.7432
G1 X120.189 Y38.877 E38.7624
G1 X119.141 Y38.877 E38.8146
G1 X118.758 Y38.846 E38.8338
G1 X118.361 Y38.751 E38.8542
G1 X117.984 Y38.595 E38.8746
G1 X117.636 Y38.382 E38.8949
G0 X117.636 Y38.382 F7200
G0 X117.636 Y38.382
G0 X117.984 Y38.595
G0 X118.361 Y38.751
G0 X118.758 Y38.846
G0 X119.141 Y38.877
G0 X120.189 Y38.877
G0 X120.573 Y38.846
G0 X120.969 Y38.751
G0 X121.346 Y38.595
G0 X121.346 Y38.595
G0 X132.337 Y39.228
;segType:HShell
G0 X132.323 Y39.227
G1 X128.235 Y43.316 E39.1834 F3600
G0 X128.801 Y43.316 F7200
G1 X133.003 Y39.114 E39.4798 F3600
;segType:Perimeter
G0 X133.580 Y38.279 F7200
G1 X132.787 Y38.384 E39.5198 F2160
G1 X132.510 Y38.450 E39.5340
G1 X132.173 Y38.477 E39.5508
G1 X131.158 Y38.477 E39.6015
G1 X130.821 Y38.450 E39.6183
G1 X130.485 Y38.370 E39.6356
G1 X130.166 Y38.237 E39.6528
G1 X129.872 Y38.057 E39.6700
G1 X129.609 Y37.833 E39.6873
G1 X129.385 Y37.570 E39.7045
G1 X129.204 Y37.276 E39.7217
G1 X129.072 Y36.956 E39.7390
G1 X128.991 Y36.621 E39.7562
G1 X128.965 Y36.284 E39.7730
G1 X128.965 Y22.268 E40.4723
G1 X128.991 Y21.932 E40.4891
G1 X129.072 Y21.596 E40.5063
G1 X129.204 Y21.277 E40.5236
G1 X129.385 Y20.983 E40.5408
G1 X129.609 Y20.720 E40.5580
G1 X129.872 Y20.496 E40.5753
G1 X130.166 Y20.315 E40.5925
G1 X130.485 Y20.183 E40.6097
G1 X130.821 Y20.102 E40.6270
G1 X131.158 Y20.076 E40.6438
G1 X132.173 Y20.076 E40.6945
G1 X132.510 Y20.102 E40.7113
G1 X132.846 Y20.183 E40.7285
G1 X133.165 Y20.315 E40.7458
G1 X133.459 Y20.496 E40.7630
G1 X133.722 Y20.720 E40.7802
G1 X133.946 Y20.983 E40.7975
G1 X134.126 Y21.277 E40.8147
G1 X134.259 Y21.596 E40.8319
G1 X134.339 Y21.932 E40.8492
G1 X134.366 Y22.268 E40.8660
G1 X134.366 Y36.284 E41.5652
G1 X134.339 Y36.621 E41.5821
G1 X134.259 Y36.956 E41.5993
G1 X134.126 Y37.276 E41.6165
G1 X133.946 Y37.570 E41.6338
G1 X133.722 Y37.833 E41.6510
G1 X133.459 Y38.057 E41.6682
G1 X133.165 Y38.237 E41.6855
G1 X132.901 Y38.347 E41.6997
G0 X132.198 Y38.728 F7200
;segType:Loop
G0 X131.756 Y38.877
G1 X131.142 Y38.877 E41.7304 F3600
G1 X130.758 Y38.846 E41.7495
G1 X130.361 Y38.751 E41.7699
G1 X129.984 Y38.595 E41.7903
G1 X129.636 Y38.382 E41.8107
G1 X129.325 Y38.116 E41.8310
G1 X129.060 Y37.806 E41.8514
G1 X128.847 Y37.458 E41.8718
G1 X128.691 Y37.080 E41.8922
G1 X128.595 Y36.683 E41.9125
G1 X128.565 Y36.300 E41.9317
G1 X128.565 Y22.253 E42.6325
G1 X128.595 Y21.869 E42.6517
G1 X128.691 Y21.472 E42.6721
G1 X128.847 Y21.095 E42.6925
G1 X129.060 Y20.747 E42.7128
G1 X129.325 Y20.436 E42.7332
G1 X129.636 Y20.171 E42.7536
G1 X129.984 Y19.958 E42.7740
G1 X130.361 Y19.801 E42.7943
G1 X130.758 Y19.706 E42.8147
G1 X131.142 Y19.676 E42.8339
G1 X132.189 Y19.676 E42.8861
G1 X132.572 Y19.706 E42.9053
G1 X132.970 Y19.801 E42.9257
G1 X133.347 Y19.958 E42.9461
G1 X133.695 Y20.171 E42.9664
G1 X134.005 Y20.436 E42.9868
G1 X134.271 Y20.747 E43.0072
G1 X134.484 Y21.095 E43.0276
G1 X134.640 Y21.472 E43.0479
G1 X134.736 Y21.869 E43.0683
G1 X134.766 Y22.253 E43.0875
G1 X134.766 Y36.300 E43.7883
G1 X134.736 Y36.683 E43.8075
G1 X134.640 Y37.080 E43.8279
G1 X134.484 Y37.458 E43.8483
G1 X134.271 Y37.806 E43.8686
G1 X134.006 Y38.116 E43.8890
G1 X133.695 Y38.382 E43.9094
G1 X133.347 Y38.595 E43.9298
G1 X132.969 Y38.751 E43.9501
G1 X132.572 Y38.846 E43.9705
G1 X132.189 Y38.877 E43.9897
G1 X131.956 Y38.877 E44.0013
;segType:HShell
G0 X144.844 Y39.152 F7200
G1 X140.680 Y43.316 E44.2951 F3600
G0 X141.246 Y43.316 F7200
G1 X145.857 Y38.705 E44.6204 F3600
;segType:Perimeter
G0 X145.580 Y38.279 F7200
G1 X144.787 Y38.384 E44.6603 F2160
G1 X144.510 Y38.450 E44.6746
G1 X144.173 Y38.477 E44.6914
G1 X143.157 Y38.477 E44.7421
G1 X142.821 Y38.450 E44.7589
G1 X142.485 Y38.370 E44.7761
G1 X142.166 Y38.237 E44.7934
G1 X141.872 Y38.057 E44.8106
G1 X141.609 Y37.833 E44.8278
G1 X141.385 Y37.570 E44.8451
G1 X141.204 Y37.275 E44.8623
G1 X141.072 Y36.956 E44.8795
G1 X140.991 Y36.621 E44.8968
G1 X140.965 Y36.284 E44.9136
G1 X140.965 Y22.268 E45.6128
G1 X140.991 Y21.932 E45.6297
G1 X141.072 Y21.596 E45.6469
G1 X141.204 Y21.277 E45.6641
G1 X141.385 Y20.983 E45.6814
G1 X141.609 Y20.720 E45.6986
G1 X141.872 Y20.496 E45.7158
G1 X142.166 Y20.315 E45.7331
G1 X142.485 Y20.183 E45.7503
G1 X142.821 Y20.102 E45.7675
G1 X143.158 Y20.076 E45.7844
G1 X144.173 Y20.076 E45.8351
G1 X144.510 Y20.102 E45.8519
G1 X144.845 Y20.183 E45.8691
G1 X145.165 Y20.315 E45.8864
G1 X145.459 Y20.496 E45.9036
G1 X145.722 Y20.720 E45.9208
G1 X145.946 Y20.983 E45.9381
G1 X146.127 Y21.277 E45.9553
G1 X146.259 Y21.596 E45.9725
G1 X146.339 Y21.932 E45.9897
G1 X146.366 Y22.268 E46.0066
G1 X146.366 Y36.284 E46.7058
G1 X146.339 Y36.621 E46.7227
G1 X146.259 Y36.956 E46.7399
G1 X146.127 Y37.276 E46.7571
G1 X145.946 Y37.570 E46.7744
G1 X145.722 Y37.833 E46.7916
G1 X145.459 Y38.057 E46.8088
G1 X145.165 Y38.237 E46.8260
G1 X144.901 Y38.347 E46.8403
G0 X144.198 Y38.728 F7200
;segType:Loop
G0 X143.756 Y38.877
G1 X143.141 Y38.877 E46.8710 F3600
G1 X142.758 Y38.846 E46.8901
G1 X142.361 Y38.751 E46.9105
G1 X141.984 Y38.595 E46.9309
G1 X141.636 Y38.382 E46.9512
G1 X141.325 Y38.116 E46.9716
G1 X141.060 Y37.806 E46.9920
G1 X140.847 Y37.458 E47.0124
G1 X140.690 Y37.080 E47.0327
G1 X140.595 Y36.683 E47.0531
G1 X140.565 Y36.300 E47.0723
G1 X140.565 Y22.253 E47.7731
G1 X140.595 Y21.869 E47.7923
G1 X140.690 Y21.472 E47.8127
G1 X140.847 Y21.095 E47.8331
G1 X141.060 Y20.747 E47.8534
G1 X141.325 Y20.436 E47.8738
G1 X141.636 Y20.171 E47.8942
G1 X141.984 Y19.958 E47.9145
G1 X142.361 Y19.801 E47.9349
G1 X142.758 Y19.706 E47.9553
G1 X143.142 Y19.676 E47.9745
G1 X144.189 Y19.676 E48.0267
G1 X144.573 Y19.706 E48.0459
G1 X144.970 Y19.801 E48.0663
G1 X145.347 Y19.958 E48.0867
G1 X145.695 Y20.171 E48.1070
G1 X146.006 Y20.436 E48.1274
G1 X146.271 Y20.747 E48.1478
G1 X146.484 Y21.095 E48.1682
G1 X146.640 Y21.472 E48.1885
G1 X146.736 Y21.869 E48.2089
G1 X146.766 Y22.253 E48.2281
G1 X146.766 Y36.300 E48.9289
G1 X146.736 Y36.683 E48.9481
G1 X146.640 Y37.080 E48.9685
G1 X146.484 Y37.458 E48.9889
G1 X146.271 Y37.806 E49.0092
G1 X146.006 Y38.116 E49.0296
G1 X145.695 Y38.382 E49.0500
G1 X145.347 Y38.595 E49.0703
G1 X144.969 Y38.751 E49.0907
G1 X144.573 Y38.846 E49.1111
G1 X144.189 Y38.877 E49.1303
G1 X143.956 Y38.877 E49.1419
;segType:HShell
G0 X144.193 Y39.237 F7200
G1 X140.114 Y43.316 E49.4297 F3600
G0 X139.549 Y43.316 F7200
G1 X143.628 Y39.237 E49.7175 F3600
G0 X143.067 Y39.232 F7200
G1 X138.983 Y43.316 E50.0056 F3600
G0 X138.417 Y43.316 F7200
G1 X142.563 Y39.170 E50.2981 F3600
G0 X142.124 Y39.043 F7200
G1 X137.852 Y43.316 E50.5995 F3600
G0 X137.286 Y43.316 F7200
G1 X141.736 Y38.866 E50.9135 F3600
G0 X141.390 Y38.646 F7200
G1 X136.720 Y43.316 E51.2430 F3600
G0 X136.155 Y43.316 F7200
G1 X141.085 Y38.385 E51.5909 F3600
G0 X140.822 Y38.082 F7200
G1 X135.589 Y43.316 E51.9601 F3600
G0 X135.023 Y43.316 F7200
G1 X140.598 Y37.741 E52.3535 F3600
G0 X140.416 Y37.358 F7200
G1 X134.458 Y43.316 E52.7738 F3600
G0 X133.892 Y43.316 F7200
G1 X140.283 Y36.925 E53.2247 F3600
G0 X140.214 Y36.428 F7200
G1 X133.326 Y43.316 E53.7107 F3600
G0 X132.761 Y43.316 F7200
G1 X140.205 Y35.871 E54.2359 F3600
G0 X140.205 Y35.306 F7200
G1 X132.195 Y43.316 E54.8010 F3600
G0 X131.629 Y43.316 F7200
G1 X140.205 Y34.740 E55.4061 F3600
G0 X140.205 Y34.174 F7200
G1 X131.064 Y43.316 E56.0511 F3600
G0 X130.498 Y43.316 F7200
G1 X140.205 Y33.609 E56.7359 F3600
G0 X140.205 Y33.043 F7200
G1 X129.932 Y43.316 E57.4607 F3600
G0 X129.366 Y43.316 F7200
G1 X140.205 Y32.477 E58.2254 F3600
G0 X134.686 Y36.888 F7200
G0 X134.640 Y37.080
G0 X134.484 Y37.458
G0 X134.271 Y37.806
G0 X134.006 Y38.116
G0 X133.695 Y38.382
G0 X133.347 Y38.595
G0 X132.969 Y38.751
G0 X132.572 Y38.846
G0 X132.200 Y38.876
G0 X132.200 Y38.876
G0 X131.738 Y39.245
G0 X131.748 Y39.237
G1 X127.669 Y43.316 E58.5132 F3600
G0 X127.104 Y43.316 F7200
G1 X131.183 Y39.237 E58.8010 F3600
G0 X130.661 Y39.193 F7200
G1 X126.530 Y43.323 E59.0924 F3600
G0 X125.856 Y43.432 F7200
G1 X130.210 Y39.078 E59.3996 F3600
G0 X129.811 Y38.911 F7200
G1 X115.626 Y53.096 E60.4004 F3600
G0 X115.626 Y52.531 F7200
G1 X129.460 Y38.696 E61.3765 F3600
G0 X129.150 Y38.441 F7200
G1 X115.626 Y51.965 E62.3307 F3600
G0 X115.626 Y51.399 F7200
G1 X128.878 Y38.147 E63.2657 F3600
G0 X128.644 Y37.816 F7200
G1 X115.626 Y50.834 E64.1842 F3600
G0 X115.626 Y50.268 F7200
G1 X128.451 Y37.443 E65.0891 F3600
G0 X128.306 Y37.022 F7200
G1 X115.626 Y49.702 E65.9837 F3600
G0 X115.626 Y49.137 F7200
G1 X128.223 Y36.540 E66.8725 F3600
G0 X128.205 Y35.992 F7200
G1 X115.626 Y48.571 E67.7600 F3600
G0 X115.626 Y48.005 F7200
G1 X128.205 Y35.426 E68.6475 F3600
G0 X128.205 Y34.861 F7200
G1 X115.626 Y47.439 E69.5350 F3600
G0 X115.626 Y46.874 F7200
G1 X128.205 Y34.295 E70.4225 F3600
G0 X128.205 Y33.729 F7200
G1 X115.626 Y46.308 E71.3100 F3600
G0 X115.585 Y45.783 F7200
G1 X128.205 Y33.164 E72.2004 F3600
G0 X128.205 Y32.598 F7200
G1 X115.472 Y45.331 E73.0988 F3600
G0 X115.306 Y44.931 F7200
G1 X121.185 Y39.052 E73.5136 F3600
G0 X120.454 Y39.217 F7200
G1 X115.091 Y44.580 E73.8920 F3600
G0 X114.837 Y44.269 F7200
G1 X119.869 Y39.237 E74.2471 F3600
G0 X118.301 Y39.107 F7200
G1 X113.843 Y43.566 E74.5617 F3600
G0 X113.423 Y43.420 F7200
G1 X117.895 Y38.948 E74.8772 F3600
G0 X117.535 Y38.742 F7200
G1 X112.943 Y43.334 E75.2012 F3600
G0 X112.396 Y43.316 F7200
G1 X117.215 Y38.496 E75.5412 F3600
G0 X116.934 Y38.212 F7200
G1 X111.830 Y43.316 E75.9013 F3600
G0 X111.265 Y43.316 F7200
G1 X116.690 Y37.891 E76.2841 F3600
G0 X116.486 Y37.528 F7200
G1 X110.699 Y43.316 E76.6924 F3600
G0 X110.133 Y43.316 F7200
G1 X116.329 Y37.119 E77.1296 F3600
G0 X116.231 Y36.652 F7200
G1 X109.568 Y43.316 E77.5997 F3600
G0 X109.002 Y43.316 F7200
G1 X116.205 Y36.113 E78.1080 F3600
G0 X116.205 Y35.547 F7200
G1 X108.436 Y43.316 E78.6561 F3600
G0 X107.870 Y43.316 F7200
G1 X116.205 Y34.981 E79.2441 F3600
G0 X116.205 Y34.416 F7200
G1 X107.305 Y43.316 E79.8721 F3600
G0 X106.739 Y43.316 F7200
G1 X116.205 Y33.850 E80.5399 F3600
G0 X116.205 Y33.284 F7200
G1 X106.173 Y43.316 E81.2477 F3600
G0 X105.608 Y43.316 F7200
G1 X116.205 Y32.719 E81.9954 F3600
G0 X110.855 Y37.502 F7200
G1 X116.205 Y32.153 E82.3728 F3600
G0 X116.205 Y31.587 F7200
G1 X111.096 Y36.696 E82.7333 F3600
G0 X111.126 Y36.100 F7200
G1 X116.205 Y31.022 E83.0916 F3600
G0 X116.205 Y30.456 F7200
G1 X111.126 Y35.535 E83.4500 F3600
G0 X111.126 Y34.969 F7200
G1 X116.205 Y29.890 E83.8083 F3600
G0 X116.205 Y29.324 F7200
G1 X111.126 Y34.403 E84.1666 F3600
G0 X111.126 Y33.838 F7200
G1 X116.205 Y28.759 E84.5250 F3600
G0 X116.205 Y28.193 F7200
G1 X111.126 Y33.272 E84.8833 F3600
G0 X111.126 Y32.706 F7200
G1 X116.205 Y27.627 E85.2417 F3600
G0 X116.205 Y27.062 F7200
G1 X111.126 Y32.141 E85.6000 F3600
G0 X111.126 Y31.575 F7200
G1 X116.205 Y26.496 E85.9584 F3600
G0 X116.205 Y25.930 F7200
G1 X111.126 Y31.009 E86.3167 F3600
G0 X111.126 Y30.444 F7200
G1 X116.205 Y25.365 E86.6751 F3600
G0 X116.205 Y24.799 F7200
G1 X111.126 Y29.878 E87.0334 F3600
G0 X111.126 Y29.312 F7200
G1 X116.205 Y24.233 E87.3917 F3600
G0 X116.205 Y23.668 F7200
G1 X111.126 Y28.746 E87.7501 F3600
G0 X111.126 Y28.181 F7200
G1 X116.205 Y23.102 E88.1084 F3600
G0 X116.205 Y22.536 F7200
G1 X111.126 Y27.615 E88.4668 F3600
G0 X111.126 Y27.049 F7200
G1 X116.228 Y21.948 E88.8267 F3600
G0 X116.416 Y21.194 F7200
G1 X111.126 Y26.484 E89.2000 F3600
G0 X111.126 Y25.918 F7200
G1 X121.807 Y15.237 E89.9536 F3600
G0 X121.242 Y15.237 F7200
G1 X111.126 Y25.352 E90.6673 F3600
G0 X111.126 Y24.787 F7200
G1 X120.676 Y15.237 E91.3411 F3600
G0 X120.110 Y15.237 F7200
G1 X111.126 Y24.221 E91.9750 F3600
G0 X111.126 Y23.655 F7200
G1 X119.544 Y15.237 E92.5690 F3600
G0 X118.979 Y15.237 F7200
G1 X111.126 Y23.090 E93.1230 F3600
G0 X111.126 Y22.524 F7200
G1 X118.413 Y15.237 E93.6372 F3600
G0 X117.847 Y15.237 F7200
G1 X111.105 Y21.979 E94.1129 F3600
G0 X111.018 Y21.501 F7200
G1 X117.282 Y15.237 E94.5549 F3600
G0 X116.716 Y15.237 F7200
G1 X110.869 Y21.084 E94.9674 F3600
G0 X110.673 Y20.714 F7200
G1 X116.150 Y15.237 E95.3539 F3600
G0 X115.585 Y15.237 F7200
G1 X110.436 Y20.386 E95.7171 F3600
G0 X110.161 Y20.095 F7200
G1 X115.019 Y15.237 E96.0599 F3600
G0 X114.453 Y15.237 F7200
G1 X109.848 Y19.842 E96.3849 F3600
G0 X109.495 Y19.629 F7200
G1 X113.888 Y15.237 E96.6948 F3600
G0 X113.322 Y15.237 F7200
G1 X109.095 Y19.463 E96.9930 F3600
G0 X108.641 Y19.352 F7200
G1 X112.756 Y15.237 E97.2834 F3600
G0 X112.191 Y15.237 F7200
G1 X108.112 Y19.316 E97.5711 F3600
G0 X107.546 Y19.316 F7200
G1 X111.625 Y15.237 E97.8589 F3600
G0 X111.059 Y15.237 F7200
G1 X106.968 Y19.328 E98.1476 F3600
G0 X106.280 Y19.450 F7200
G1 X110.494 Y15.237 E98.4449 F3600
G0 X109.928 Y15.237 F7200
G1 X99.126 Y26.039 E99.2070 F3600
G0 X99.126 Y25.473 F7200
G1 X109.362 Y15.237 E99.9293 F3600
G0 X108.796 Y15.237 F7200
G1 X99.126 Y24.907 E100.6116 F3600
G0 X99.126 Y24.341 F7200
G1 X108.231 Y15.237 E101.2539 F3600
G0 X107.665 Y15.237 F7200
G1 X99.126 Y23.776 E101.8564 F3600
G0 X99.126 Y23.210 F7200
G1 X107.099 Y15.237 E102.4190 F3600
G0 X106.534 Y15.237 F7200
G1 X99.126 Y22.644 E102.9416 F3600
G0 X99.114 Y22.090 F7200
G1 X105.968 Y15.237 E103.4252 F3600
G0 X105.402 Y15.237 F7200
G1 X99.041 Y21.598 E103.8740 F3600
G0 X98.905 Y21.169 F7200
G1 X104.837 Y15.237 E104.2926 F3600
G0 X104.271 Y15.237 F7200
G1 X98.719 Y20.789 E104.6843 F3600
G0 X98.491 Y20.451 F7200
G1 X103.705 Y15.237 E105.0522 F3600
G0 X103.140 Y15.237 F7200
G1 X98.226 Y20.151 E105.3989 F3600
G0 X97.921 Y19.890 F7200
G1 X102.574 Y15.237 E105.7272 F3600
G0 X102.008 Y15.237 F7200
G1 X97.572 Y19.673 E106.0402 F3600
G0 X97.180 Y19.499 F7200
G1 X101.443 Y15.237 E106.3409 F3600
G0 X100.877 Y15.237 F7200
G1 X96.738 Y19.375 E106.6330 F3600
G0 X96.230 Y19.318 F7200
G1 X100.311 Y15.237 E106.9209 F3600
G0 X99.746 Y15.237 F7200
G1 X95.667 Y19.316 E107.2087 F3600
G0 X95.099 Y19.318 F7200
G1 X99.180 Y15.237 E107.4966 F3600
G0 X98.614 Y15.237 F7200
G1 X94.438 Y19.412 E107.7913 F3600
G0 X93.307 Y19.978 F7200
G1 X98.048 Y15.237 E108.1258 F3600
G0 X85.626 Y18.608 F7200
G1 X88.998 Y15.237 E108.3637 F3600
G0 X89.563 Y15.237 F7200
G1 X85.626 Y19.174 E108.6415 F3600
G0 X85.626 Y19.740 F7200
G1 X90.129 Y15.237 E108.9592 F3600
G0 X90.695 Y15.237 F7200
G1 X85.626 Y20.305 E109.3168 F3600
G0 X85.626 Y20.871 F7200
G1 X91.260 Y15.237 E109.7143 F3600
G0 X91.826 Y15.237 F7200
G1 X85.626 Y21.437 E110.1518 F3600
G0 X85.626 Y22.002 F7200
G1 X92.392 Y15.237 E110.6291 F3600
G0 X92.957 Y15.237 F7200
G1 X85.626 Y22.568 E111.1464 F3600
G0 X85.626 Y23.134 F7200
G1 X93.523 Y15.237 E111.7036 F3600
G0 X94.089 Y15.237 F7200
G1 X85.626 Y23.699 E112.3007 F3600
G0 X85.626 Y24.265 F7200
G1 X94.654 Y15.237 E112.9377 F3600
G0 X95.220 Y15.237 F7200
G1 X85.626 Y24.831 E113.6146 F3600
G0 X85.626 Y25.396 F7200
G1 X95.786 Y15.237 E114.3314 F3600
G0 X96.351 Y15.237 F7200
G1 X85.626 Y25.962 E115.0882 F3600
G0 X85.626 Y26.528 F7200
G1 X96.917 Y15.237 E115.8848 F3600
G0 X97.483 Y15.237 F7200
G1 X85.626 Y27.094 E116.7214 F3600
G0 X85.626 Y27.659 F7200
G1 X92.867 Y20.418 E117.2323 F3600
G0 X92.302 Y21.549 F7200
G1 X85.626 Y28.225 E117.7033 F3600
G0 X85.626 Y28.791 F7200
G1 X92.207 Y22.209 E118.1677 F3600
G0 X92.205 Y22.777 F7200
G1 X85.626 Y29.356 E118.6318 F3600
G0 X85.626 Y29.922 F7200
G1 X92.205 Y23.343 E119.0960 F3600
G0 X92.205 Y23.909 F7200
G1 X85.626 Y30.488 E119.5602 F3600
G0 X85.626 Y31.053 F7200
G1 X92.205 Y24.474 E120.0243 F3600
G0 X92.205 Y25.040 F7200
G1 X85.626 Y31.619 E120.4885 F3600
G0 X85.626 Y32.185 F7200
G1 X92.205 Y25.606 E120.9527 F3600
G0 X92.205 Y26.172 F7200
G1 X85.626 Y32.750 E121.4169 F3600
G0 X85.626 Y33.316 F7200
G1 X92.205 Y26.737 E121.8810 F3600
G0 X92.205 Y27.303 F7200
G1 X85.626 Y33.882 E122.3452 F3600
G0 X85.626 Y34.447 F7200
G1 X92.205 Y27.869 E122.8094 F3600
G0 X92.205 Y28.434 F7200
G1 X85.626 Y35.013 E123.2736 F3600
G0 X85.626 Y35.579 F7200
G1 X92.205 Y29.000 E123.7377 F3600
G0 X92.205 Y29.566 F7200
G1 X85.626 Y36.144 E124.2019 F3600
G0 X85.626 Y36.710 F7200
G1 X92.205 Y30.131 E124.6661 F3600
G0 X92.205 Y30.697 F7200
G1 X85.626 Y37.276 E125.1302 F3600
G0 X85.626 Y37.842 F7200
G1 X92.205 Y31.263 E125.5944 F3600
G0 X92.205 Y31.828 F7200
G1 X85.626 Y38.407 E126.0586 F3600
G0 X85.626 Y38.973 F7200
G1 X92.205 Y32.394 E126.5228 F3600
G0 X92.205 Y32.960 F7200
G1 X85.626 Y39.539 E126.9869 F3600
G0 X85.626 Y40.104 F7200
G1 X92.205 Y33.525 E127.4511 F3600
G0 X92.205 Y34.091 F7200
G1 X85.626 Y40.670 E127.9153 F3600
G0 X85.626 Y41.236 F7200
G1 X92.205 Y34.657 E128.3794 F3600
G0 X92.205 Y35.223 F7200
G1 X85.626 Y41.801 E128.8436 F3600
G0 X85.626 Y42.367 F7200
G1 X92.205 Y35.788 E129.3078 F3600
G0 X92.208 Y36.351 F7200
G1 X85.626 Y42.933 E129.7722 F3600
G0 X85.809 Y43.316 F7200
G1 X92.267 Y36.858 E130.2278 F3600
G0 X92.391 Y37.299 F7200
G1 X86.374 Y43.316 E130.6523 F3600
G0 X86.940 Y43.316 F7200
G1 X92.566 Y37.689 E131.0493 F3600
G0 X92.784 Y38.037 F7200
G1 X87.506 Y43.316 E131.4217 F3600
G0 X88.071 Y43.316 F7200
G1 X93.045 Y38.342 E131.7726 F3600
G0 X93.346 Y38.607 F7200
G1 X88.637 Y43.316 E132.1048 F3600
G0 X89.203 Y43.316 F7200
G1 X93.685 Y38.834 E132.4210 F3600
G0 X94.066 Y39.019 F7200
G1 X89.769 Y43.316 E132.7242 F3600
G0 X90.334 Y43.316 F7200
G1 X94.496 Y39.154 E133.0178 F3600
G0 X96.110 Y39.237 F7200
G1 X92.031 Y43.316 E133.3056 F3600
G0 X92.597 Y43.316 F7200
G1 X96.735 Y39.178 E133.5975 F3600
G0 X97.642 Y38.837 F7200
G1 X93.163 Y43.316 E133.9135 F3600
G0 X93.728 Y43.316 F7200
G1 X104.205 Y32.839 E134.6527 F3600
G0 X104.205 Y33.405 F7200
G1 X94.294 Y43.316 E135.3520 F3600
G0 X94.860 Y43.316 F7200
G1 X104.205 Y33.970 E136.0114 F3600
G0 X104.205 Y34.536 F7200
G1 X95.425 Y43.316 E136.6308 F3600
G0 X95.991 Y43.316 F7200
G1 X104.205 Y35.102 E137.2103 F3600
G0 X104.205 Y35.667 F7200
G1 X96.557 Y43.316 E137.7500 F3600
G0 X97.122 Y43.316 F7200
G1 X104.205 Y36.233 E138.2497 F3600
G0 X104.243 Y36.760 F7200
G1 X97.688 Y43.316 E138.7122 F3600
G0 X98.254 Y43.316 F7200
G1 X104.356 Y37.214 E139.1427 F3600
G0 X104.522 Y37.614 F7200
G1 X98.819 Y43.316 E139.5450 F3600
G0 X99.385 Y43.316 F7200
G1 X104.736 Y37.965 E139.9225 F3600
G0 X104.989 Y38.277 F7200
G1 X99.951 Y43.316 E140.2780 F3600
G0 X100.517 Y43.316 F7200
G1 X105.280 Y38.552 E140.6141 F3600
G0 X105.610 Y38.788 F7200
G1 X101.082 Y43.316 E140.9336 F3600
G0 X101.648 Y43.316 F7200
G1 X105.980 Y38.983 E141.2393 F3600
G0 X106.399 Y39.131 F7200
G1 X102.214 Y43.316 E141.5345 F3600
G0 X102.779 Y43.316 F7200
G1 X106.878 Y39.217 E141.8237 F3600
G0 X107.424 Y39.237 F7200
G1 X103.345 Y43.316 E142.1115 F3600
G0 X103.911 Y43.316 F7200
G1 X107.989 Y39.237 E142.3993 F3600
G0 X107.794 Y38.877 F7200
G0 X107.142 Y38.877
G0 X106.758 Y38.846
G0 X106.361 Y38.751
G0 X105.984 Y38.595
G0 X105.636 Y38.382
G0 X105.325 Y38.116
G0 X105.060 Y37.806
G0 X104.847 Y37.458
G0 X104.691 Y37.080
G0 X104.595 Y36.683
G0 X104.565 Y36.300
G0 X104.565 Y32.936
G0 X104.565 Y32.936
G0 X104.199 Y32.262
G0 X104.205 Y32.273
G1 X98.726 Y37.752 E142.7858 F3600
G0 X99.067 Y36.845 F7200
G1 X104.205 Y31.708 E143.1483 F3600
G0 X104.205 Y31.142 F7200
G1 X99.126 Y36.221 E143.5067 F3600
G0 X99.126 Y35.655 F7200
G1 X104.205 Y30.576 E143.8650 F3600
G0 X104.205 Y30.011 F7200
G1 X99.126 Y35.089 E144.2233 F3600
G0 X99.126 Y34.524 F7200
G1 X104.205 Y29.445 E144.5817 F3600
G0 X104.205 Y28.879 F7200
G1 X99.126 Y33.958 E144.9400 F3600
G0 X99.126 Y33.392 F7200
G1 X104.205 Y28.314 E145.2984 F3600
G0 X104.205 Y27.748 F7200
G1 X99.126 Y32.827 E145.6567 F3600
G0 X99.126 Y32.261 F7200
G1 X104.205 Y27.182 E146.0150 F3600
G0 X104.205 Y26.616 F7200
G1 X99.126 Y31.695 E146.3734 F3600
G0 X99.126 Y31.130 F7200
G1 X104.205 Y26.051 E146.7317 F3600
G0 X104.205 Y25.485 F7200
G1 X99.126 Y30.564 E147.0900 F3600
G0 X99.126 Y29.998 F7200
G1 X104.205 Y24.919 E147.4484 F3600
G0 X104.205 Y24.354 F7200
G1 X99.126 Y29.433 E147.8067 F3600
G0 X99.126 Y28.867 F7200
G1 X104.205 Y23.788 E148.1651 F3600
G0 X104.205 Y23.222 F7200
G1 X99.126 Y28.301 E148.5234 F3600
G0 X99.126 Y27.736 F7200
G1 X104.205 Y22.657 E148.8817 F3600
G0 X104.217 Y22.078 F7200
G1 X99.126 Y27.170 E149.2410 F3600
G0 X99.126 Y26.604 F7200
G1 X104.340 Y21.390 E149.6088 F3600
G0 X104.788 Y21.238 F7200
G0 X104.847 Y21.095
G0 X105.060 Y20.747
G0 X105.325 Y20.436
G0 X105.636 Y20.171
G0 X105.984 Y19.958
G0 X106.361 Y19.801
G0 X106.758 Y19.706
G0 X107.142 Y19.676
G0 X108.189 Y19.676
G0 X108.572 Y19.706
G0 X108.970 Y19.801
G0 X108.982 Y19.806
G0 X108.982 Y19.806
G0 X122.385 Y15.232
G0 X122.373 Y15.237
G1 X118.083 Y19.527 E149.9115 F3600
G0 X118.837 Y19.339 F7200
G1 X122.939 Y15.237 E150.2009 F3600
G0 X123.504 Y15.237 F7200
G1 X119.425 Y19.316 E150.4887 F3600
G0 X119.991 Y19.316 F7200
G1 X124.070 Y15.237 E150.7765 F3600
G0 X124.636 Y15.237 F7200
G1 X120.531 Y19.341 E151.0661 F3600
G0 X121.000 Y19.438 F7200
G1 X125.201 Y15.237 E151.3625 F3600
G0 X125.767 Y15.237 F7200
G1 X121.410 Y19.594 E151.6700 F3600
G0 X121.773 Y19.796 F7200
G1 X126.333 Y15.237 E151.9917 F3600
G0 X126.898 Y15.237 F7200
G1 X122.096 Y20.040 E152.3305 F3600
G0 X122.380 Y20.320 F7200
G1 X127.464 Y15.237 E152.6892 F3600
G0 X128.030 Y15.237 F7200
G1 X122.627 Y20.639 E153.0704 F3600
G0 X122.834 Y20.998 F7200
G1 X128.595 Y15.237 E153.4769 F3600
G0 X129.161 Y15.237 F7200
G1 X122.994 Y21.404 E153.9120 F3600
G0 X123.097 Y21.867 F7200
G1 X129.727 Y15.237 E154.3798 F3600
G0 X130.292 Y15.237 F7200
G1 X123.126 Y22.403 E154.8854 F3600
G0 X123.126 Y22.969 F7200
G1 X130.858 Y15.237 E155.4310 F3600
G0 X131.424 Y15.237 F7200
G1 X123.126 Y23.535 E156.0165 F3600
G0 X123.126 Y24.100 F7200
G1 X131.990 Y15.237 E156.6418 F3600
G0 X132.555 Y15.237 F7200
G1 X123.126 Y24.666 E157.3071 F3600
G0 X123.126 Y25.232 F7200
G1 X133.121 Y15.237 E158.0123 F3600
G0 X133.687 Y15.237 F7200
G1 X123.126 Y25.797 E158.7574 F3600
G0 X123.126 Y26.363 F7200
G1 X128.502 Y20.988 E159.1367 F3600
G0 X128.238 Y21.817 F7200
G1 X123.126 Y26.929 E159.4974 F3600
G0 X123.126 Y27.494 F7200
G1 X128.205 Y22.416 E159.8557 F3600
G0 X128.205 Y22.981 F7200
G1 X123.126 Y28.060 E160.2140 F3600
G0 X123.126 Y28.626 F7200
G1 X128.205 Y23.547 E160.5724 F3600
G0 X128.205 Y24.113 F7200
G1 X123.126 Y29.191 E160.9307 F3600
G0 X123.126 Y29.757 F7200
G1 X128.205 Y24.678 E161.2891 F3600
G0 X128.205 Y25.244 F7200
G1 X123.126 Y30.323 E161.6474 F3600
G0 X123.126 Y30.888 F7200
G1 X128.205 Y25.810 E162.0057 F3600
G0 X128.205 Y26.375 F7200
G1 X123.126 Y31.454 E162.3641 F3600
G0 X123.126 Y32.020 F7200
G1 X128.205 Y26.941 E162.7224 F3600
G0 X128.205 Y27.507 F7200
G1 X123.126 Y32.586 E163.0807 F3600
G0 X123.126 Y33.151 F7200
G1 X128.205 Y28.072 E163.4391 F3600
G0 X128.205 Y28.638 F7200
G1 X123.126 Y33.717 E163.7974 F3600
G0 X123.126 Y34.283 F7200
G1 X128.205 Y29.204 E164.1558 F3600
G0 X128.205 Y29.769 F7200
G1 X123.126 Y34.848 E164.5141 F3600
G0 X123.126 Y35.414 F7200
G1 X128.205 Y30.335 E164.8724 F3600
G0 X128.205 Y30.901 F7200
G1 X123.126 Y35.980 E165.2308 F3600
G0 X123.106 Y36.565 F7200
G1 X128.205 Y31.466 E165.5905 F3600
G0 X128.205 Y32.032 F7200
G1 X122.941 Y37.296 E165.9619 F3600
G0 X123.821 Y45.467 F7200
G1 X115.626 Y53.662 E166.5402 F3600
G0 X115.626 Y54.228 F7200
G1 X123.712 Y46.141 E167.1107 F3600
G0 X123.705 Y46.715 F7200
G1 X115.315 Y55.104 E167.7026 F3600
G0 X114.920 Y56.065 F7200
G1 X123.705 Y47.280 E168.3224 F3600
G0 X123.705 Y47.846 F7200
G1 X114.776 Y56.775 E168.9524 F3600
G0 X114.737 Y57.380 F7200
G1 X123.705 Y48.412 E169.5852 F3600
G0 X123.705 Y48.977 F7200
G1 X114.756 Y57.926 E170.2166 F3600
G0 X114.843 Y58.405 F7200
G1 X123.705 Y49.543 E170.8418 F3600
G0 X123.705 Y50.109 F7200
G1 X114.960 Y58.853 E171.4588 F3600
G0 X115.110 Y59.269 F7200
G1 X123.705 Y50.674 E172.0652 F3600
G0 X123.705 Y51.240 F7200
G1 X115.296 Y59.648 E172.6585 F3600
G0 X115.500 Y60.011 F7200
G1 X123.705 Y51.806 E173.2374 F3600
G0 X123.705 Y52.371 F7200
G1 X115.740 Y60.337 E173.7994 F3600
G0 X115.992 Y60.650 F7200
G1 X123.705 Y52.937 E174.3435 F3600
G0 X123.705 Y53.503 F7200
G1 X116.280 Y60.928 E174.8674 F3600
G0 X116.579 Y61.194 F7200
G1 X123.705 Y54.069 E175.3702 F3600
G0 X123.746 Y54.593 F7200
G1 X116.915 Y61.424 E175.8522 F3600
G0 X117.262 Y61.643 F7200
G1 X123.941 Y54.963 E176.3235 F3600
G0 X124.136 Y55.334 F7200
G1 X117.651 Y61.820 E176.7811 F3600
G0 X118.050 Y61.986 F7200
G1 X124.302 Y55.734 E177.2222 F3600
G0 X124.442 Y56.160 F7200
G1 X118.505 Y62.096 E177.6410 F3600
G0 X118.982 Y62.185 F7200
G1 X124.533 Y56.634 E178.0327 F3600
G0 X124.597 Y57.136 F7200
G1 X119.514 Y62.219 E178.3914 F3600
G0 X120.097 Y62.201 F7200
G1 X124.589 Y57.709 E178.7083 F3600
G0 X124.495 Y58.370 F7200
G1 X120.751 Y62.114 E178.9725 F3600
G0 X121.561 Y61.869 F7200
G1 X124.254 Y59.176 E179.1625 F3600
G0 X124.949 Y57.749 F7200
G0 X124.959 Y57.032
G0 X124.828 Y56.180
G0 X124.558 Y55.362
G0 X124.065 Y54.425
G0 X124.065 Y46.253
G0 X124.095 Y45.869
G0 X124.190 Y45.472
G0 X124.347 Y45.095
G0 X124.560 Y44.747
G0 X124.825 Y44.436
G0 X125.136 Y44.171
G0 X125.484 Y43.958
G0 X125.861 Y43.801
G0 X126.258 Y43.706
G0 X126.642 Y43.676
G0 X131.806 Y43.676
G0 X131.806 Y43.676
G0 X135.008 Y37.102
G0 X135.003 Y37.114
G1 X140.205 Y31.912 E179.5295 F3600
G0 X140.205 Y31.346 F7200
G1 X135.116 Y36.434 E179.8885 F3600
G0 X135.126 Y35.859 F7200
G1 X140.205 Y30.780 E180.2469 F3600
G0 X140.205 Y30.215 F7200
G1 X135.126 Y35.293 E180.6052 F3600
G0 X135.126 Y34.728 F7200
G1 X140.205 Y29.649 E180.9636 F3600
G0 X140.205 Y29.083 F7200
G1 X135.126 Y34.162 E181.3219 F3600
G0 X135.126 Y33.596 F7200
G1 X140.205 Y28.518 E181.6802 F3600
G0 X140.205 Y27.952 F7200
G1 X135.126 Y33.031 E182.0386 F3600
G0 X135.126 Y32.465 F7200
G1 X140.205 Y27.386 E182.3969 F3600
G0 X140.205 Y26.821 F7200
G1 X135.126 Y31.899 E182.7552 F3600
G0 X135.126 Y31.334 F7200
G1 X140.205 Y26.255 E183.1136 F3600
G0 X140.205 Y25.689 F7200
G1 X135.126 Y30.768 E183.4719 F3600
G0 X135.126 Y30.202 F7200
G1 X140.205 Y25.123 E183.8303 F3600
G0 X140.205 Y24.558 F7200
G1 X135.126 Y29.637 E184.1886 F3600
G0 X135.126 Y29.071 F7200
G1 X140.205 Y23.992 E184.5469 F3600
G0 X140.205 Y23.426 F7200
G1 X135.126 Y28.505 E184.9053 F3600
G0 X135.126 Y27.940 F7200
G1 X140.205 Y22.861 E185.2636 F3600
G0 X140.205 Y22.295 F7200
G1 X135.126 Y27.374 E185.6219 F3600
G0 X135.126 Y26.808 F7200
G1 X140.275 Y21.659 E185.9853 F3600
G0 X140.663 Y20.705 F7200
G1 X135.126 Y26.243 E186.3759 F3600
G0 X135.126 Y25.677 F7200
G1 X145.566 Y15.237 E187.1125 F3600
G0 X145.000 Y15.237 F7200
G1 X135.126 Y25.111 E187.8092 F3600
G0 X135.126 Y24.545 F7200
G1 X144.435 Y15.237 E188.4660 F3600
G0 X143.869 Y15.237 F7200
G1 X135.126 Y23.980 E189.0829 F3600
G0 X135.126 Y23.414 F7200
G1 X143.303 Y15.237 E189.6598 F3600
G0 X142.738 Y15.237 F7200
G1 X135.126 Y22.848 E190.1969 F3600
G0 X135.126 Y22.283 F7200
G1 X142.172 Y15.237 E190.6940 F3600
G0 X141.606 Y15.237 F7200
G1 X135.080 Y21.763 E191.1545 F3600
G0 X134.964 Y21.313 F7200
G1 X141.041 Y15.237 E191.5832 F3600
G0 X140.475 Y15.237 F7200
G1 X134.796 Y20.915 E191.9838 F3600
G0 X134.581 Y20.565 F7200
G1 X139.909 Y15.237 E192.3597 F3600
G0 X139.343 Y15.237 F7200
G1 X134.325 Y20.255 E192.7138 F3600
G0 X134.031 Y19.984 F7200
G1 X138.778 Y15.237 E193.0488 F3600
G0 X138.212 Y15.237 F7200
G1 X133.698 Y19.751 E193.3673 F3600
G0 X133.325 Y19.559 F7200
G1 X137.646 Y15.237 E193.6722 F3600
G0 X137.081 Y15.237 F7200
G1 X132.903 Y19.415 E193.9670 F3600
G0 X132.419 Y19.333 F7200
G1 X136.515 Y15.237 E194.2560 F3600
G0 X135.949 Y15.237 F7200
G1 X131.870 Y19.316 E194.5438 F3600
G0 X131.305 Y19.316 F7200
G1 X135.384 Y15.237 E194.8316 F3600
G0 X134.818 Y15.237 F7200
G1 X130.706 Y19.349 E195.1217 F3600
G0 X129.877 Y19.612 F7200
G1 X134.252 Y15.237 E195.4304 F3600
G0 X146.132 Y15.237 F7200
G1 X141.595 Y19.774 E195.7505 F3600
G0 X142.548 Y19.386 F7200
G1 X146.697 Y15.237 E196.0433 F3600
G0 X147.263 Y15.237 F7200
G1 X143.184 Y19.316 E196.3311 F3600
G0 X143.750 Y19.316 F7200
G1 X147.829 Y15.237 E196.6189 F3600
G0 X148.394 Y15.237 F7200
G1 X144.307 Y19.324 E196.9072 F3600
G0 X144.805 Y19.392 F7200
G1 X148.960 Y15.237 E197.2004 F3600
G0 X149.526 Y15.237 F7200
G1 X145.239 Y19.523 E197.5028 F3600
G0 X145.623 Y19.705 F7200
G1 X150.092 Y15.237 E197.8181 F3600
G0 X150.657 Y15.237 F7200
G1 X145.965 Y19.928 E198.1491 F3600
G0 X146.269 Y20.190 F7200
G1 X151.223 Y15.237 E198.4986 F3600
G0 X151.789 Y15.237 F7200
G1 X146.530 Y20.496 E198.8697 F3600
G0 X146.751 Y20.840 F7200
G1 X152.354 Y15.237 E199.2650 F3600
G0 X152.920 Y15.237 F7200
G1 X146.929 Y21.228 E199.6877 F3600
G0 X147.057 Y21.665 F7200
G1 X153.486 Y15.237 E200.1413 F3600
G0 X153.705 Y15.583 F7200
G1 X147.120 Y22.168 E200.6059 F3600
G0 X147.126 Y22.728 F7200
G1 X153.705 Y16.149 E201.0700 F3600
G0 X153.705 Y16.715 F7200
G1 X147.126 Y23.293 E201.5342 F3600
G0 X147.126 Y23.859 F7200
G1 X153.705 Y17.280 E201.9984 F3600
G0 X153.705 Y17.846 F7200
G1 X147.126 Y24.425 E202.4625 F3600
G0 X147.126 Y24.990 F7200
G1 X153.705 Y18.412 E202.9267 F3600
G0 X153.705 Y18.977 F7200
G1 X147.126 Y25.556 E203.3909 F3600
G0 X147.126 Y26.122 F7200
G1 X153.705 Y19.543 E203.8551 F3600
G0 X153.705 Y20.109 F7200
G1 X147.126 Y26.688 E204.3192 F3600
G0 X147.126 Y27.253 F7200
G1 X153.705 Y20.674 E204.7834 F3600
G0 X153.705 Y21.240 F7200
G1 X147.126 Y27.819 E205.2476 F3600
G0 X147.126 Y28.385 F7200
G1 X153.705 Y21.806 E205.7118 F3600
G0 X153.705 Y22.371 F7200
G1 X147.126 Y28.950 E206.1759 F3600
G0 X147.126 Y29.516 F7200
G1 X153.705 Y22.937 E206.6401 F3600
G0 X153.705 Y23.503 F7200
G1 X147.126 Y30.082 E207.1043 F3600
G0 X147.126 Y30.647 F7200
G1 X153.705 Y24.068 E207.5684 F3600
G0 X153.705 Y24.634 F7200
G1 X147.126 Y31.213 E208.0326 F3600
G0 X147.126 Y31.779 F7200
G1 X153.705 Y25.200 E208.4968 F3600
G0 X153.705 Y25.766 F7200
G1 X147.126 Y32.344 E208.9610 F3600
G0 X147.126 Y32.910 F7200
G1 X153.705 Y26.331 E209.4251 F3600
G0 X153.705 Y26.897 F7200
G1 X147.126 Y33.476 E209.8893 F3600
G0 X147.126 Y34.041 F7200
G1 X153.705 Y27.463 E210.3535 F3600
G0 X153.705 Y28.028 F7200
G1 X147.126 Y34.607 E210.8177 F3600
G0 X147.126 Y35.173 F7200
G1 X153.705 Y28.594 E211.2818 F3600
G0 X153.705 Y29.160 F7200
G1 X147.126 Y35.738 E211.7460 F3600
G0 X147.126 Y36.304 F7200
G1 X153.705 Y29.725 E212.2102 F3600
G0 X153.705 Y30.291 F7200
G1 X147.041 Y36.955 E212.6804 F3600
G0 X146.594 Y37.968 F7200
G1 X153.705 Y30.857 E213.1821 F3600
G0 X153.705 Y31.422 F7200
G1 X141.812 Y43.316 E214.0212 F3600
G0 X142.377 Y43.316 F7200
G1 X153.705 Y31.988 E214.8204 F3600
G0 X153.705 Y32.554 F7200
G1 X142.943 Y43.316 E215.5797 F3600
G0 X143.509 Y43.316 F7200
G1 X153.705 Y33.119 E216.2991 F3600
G0 X153.705 Y33.685 F7200
G1 X144.074 Y43.316 E216.9786 F3600
G0 X144.640 Y43.316 F7200
G1 X153.705 Y34.251 E217.6182 F3600
G0 X153.705 Y34.817 F7200
G1 X145.206 Y43.316 E218.2178 F3600
G0 X145.771 Y43.316 F7200
G1 X153.705 Y35.382 E218.7776 F3600
G0 X153.705 Y35.948 F7200
G1 X146.337 Y43.316 E219.2974 F3600
G0 X146.903 Y43.316 F7200
G1 X153.705 Y36.514 E219.7773 F3600
G0 X153.705 Y37.079 F7200
G1 X147.468 Y43.316 E220.2174 F3600
G0 X148.034 Y43.316 F7200
G1 X153.705 Y37.645 E220.6175 F3600
G0 X153.705 Y38.211 F7200
G1 X148.600 Y43.316 E220.9776 F3600
G0 X149.165 Y43.316 F7200
G1 X153.705 Y38.776 E221.2979 F3600
G0 X153.705 Y39.342 F7200
G1 X149.731 Y43.316 E221.5783 F3600
G0 X150.297 Y43.316 F7200
G1 X153.705 Y39.908 E221.8187 F3600
G0 X153.705 Y40.473 F7200
G1 X150.862 Y43.316 E222.0193 F3600
G0 X151.428 Y43.316 F7200
G1 X153.705 Y41.039 E222.1799 F3600
G0 X153.705 Y41.605 F7200
G1 X151.994 Y43.316 E222.3006 F3600
G0 X152.560 Y43.316 F7200
G1 X153.705 Y42.170 E222.3814 F3600
G0 X153.705 Y42.736 F7200
G1 X153.125 Y43.316 E222.4223 F3600
; ------------------------------------
; Layer #2
; ------------------------------------
M106 S0 ;turn off fan
G92 E0 ;reset extr
G0 F3000 E-1.0000
G0 F1200 Z0.900
G0 X131.429 Y34.312 F7200
G0 X129.018 Y33.312
G0 X119.376 Y29.311
G0 X116.965 Y28.310
G0 X107.322 Y24.309
G0 X104.911 Y23.309
G0 X85.626 Y15.306
G0 F3000 E0.0000
;segType:HShell
G1 X92.231 Y21.910 E0.4660 F3600
G0 X92.205 Y22.450 F7200
G1 X85.626 Y15.871 E0.9302 F3600
;segType:Perimeter
G0 X84.926 Y14.477 F7200
G1 X154.465 Y14.477 E4.3995 F2160
G1 X154.465 Y44.076 E5.8762
G1 X126.657 Y44.076 E7.2635
G1 X126.321 Y44.102 E7.2804
G1 X125.985 Y44.183 E7.2976
G1 X125.666 Y44.315 E7.3148
G1 X125.372 Y44.496 E7.3320
G1 X125.109 Y44.720 E7.3493
G1 X124.885 Y44.983 E7.3665
G1 X124.704 Y45.277 E7.3837
G1 X124.572 Y45.596 E7.4010
G1 X124.491 Y45.932 E7.4182
G1 X124.465 Y46.268 E7.4350
G1 X124.465 Y54.326 E7.8370
G1 X124.928 Y55.205 E7.8866
G1 X125.218 Y56.086 E7.9329
G1 X125.359 Y57.004 E7.9792
G1 X125.347 Y57.931 E8.0255
G1 X125.181 Y58.844 E8.0718
G1 X124.867 Y59.717 E8.1181
G1 X124.413 Y60.527 E8.1644
G1 X123.832 Y61.250 E8.2106
G1 X123.139 Y61.867 E8.2569
G1 X122.354 Y62.362 E8.3032
G1 X121.498 Y62.719 E8.3495
G1 X120.595 Y62.931 E8.3958
G1 X119.665 Y62.991 E8.4423
G1 X118.736 Y62.931 E8.4888
G1 X117.832 Y62.719 E8.5350
G1 X116.977 Y62.362 E8.5813
G1 X116.191 Y61.867 E8.6276
G1 X115.499 Y61.250 E8.6739
G1 X114.917 Y60.527 E8.7202
G1 X114.464 Y59.717 E8.7665
G1 X114.150 Y58.844 E8.8128
G1 X113.984 Y57.931 E8.8591
G1 X113.972 Y57.004 E8.9053
G1 X114.113 Y56.087 E8.9516
G1 X114.403 Y55.205 E8.9979
G1 X114.866 Y54.326 E9.0475
G1 X114.866 Y46.268 E9.4495
G1 X114.839 Y45.932 E9.4663
G1 X114.759 Y45.596 E9.4836
G1 X114.627 Y45.277 E9.5008
G1 X114.446 Y44.983 E9.5180
G1 X114.222 Y44.720 E9.5353
G1 X113.959 Y44.496 E9.5525
G1 X113.665 Y44.315 E9.5697
G1 X113.345 Y44.183 E9.5870
G1 X113.010 Y44.102 E9.6042
G1 X112.673 Y44.076 E9.6210
G1 X84.866 Y44.076 E11.0083
G1 X84.866 Y14.537 E12.4821
G0 X85.639 Y14.744 F7200
;segType:Loop
G0 X85.966 Y14.877
G1 X154.065 Y14.877 E15.8795 F3600
G1 X154.065 Y43.676 E17.3163
G1 X126.642 Y43.676 E18.6845
G1 X126.258 Y43.706 E18.7037
G1 X125.861 Y43.801 E18.7241
G1 X125.484 Y43.958 E18.7444
G1 X125.136 Y44.171 E18.7648
G1 X124.825 Y44.436 E18.7852
G1 X124.560 Y44.747 E18.8056
G1 X124.347 Y45.095 E18.8259
G1 X124.190 Y45.472 E18.8463
G1 X124.095 Y45.869 E18.8667
G1 X124.065 Y46.253 E18.8859
G1 X124.065 Y54.425 E19.2936
G1 X124.558 Y55.362 E19.3464
G1 X124.828 Y56.180 E19.3894
G1 X124.959 Y57.032 E19.4324
G1 X124.947 Y57.893 E19.4753
G1 X124.794 Y58.740 E19.5183
G1 X124.502 Y59.551 E19.5613
G1 X124.081 Y60.302 E19.6042
G1 X123.541 Y60.973 E19.6472
G1 X122.898 Y61.546 E19.6902
G1 X122.169 Y62.005 E19.7331
G1 X121.375 Y62.337 E19.7761
G1 X120.536 Y62.534 E19.8191
G1 X119.665 Y62.590 E19.8626
G1 X118.795 Y62.534 E19.9062
G1 X117.956 Y62.337 E19.9491
G1 X117.161 Y62.005 E19.9921
G1 X116.432 Y61.546 E20.0351
G1 X115.789 Y60.973 E20.0780
G1 X115.250 Y60.302 E20.1210
G1 X114.829 Y59.551 E20.1640
G1 X114.537 Y58.740 E20.2069
G1 X114.384 Y57.893 E20.2499
G1 X114.372 Y57.032 E20.2929
G1 X114.503 Y56.180 E20.3359
G1 X114.773 Y55.362 E20.3788
G1 X115.266 Y54.425 E20.4317
G1 X115.266 Y46.253 E20.8394
G1 X115.236 Y45.869 E20.8586
G1 X115.140 Y45.472 E20.8789
G1 X114.984 Y45.095 E20.8993
G1 X114.771 Y44.747 E20.9197
G1 X114.506 Y44.436 E20.9401
G1 X114.195 Y44.171 E20.9604
G1 X113.847 Y43.958 E20.9808
G1 X113.470 Y43.801 E21.0012
G1 X113.073 Y43.706 E21.0216
G1 X112.689 Y43.676 E21.0407
G1 X85.266 Y43.676 E22.4089
G1 X85.266 Y14.877 E23.8457
G1 X85.766 Y14.877 E23.8706
G0 X85.766 Y14.877 F7200
G0 X92.565 Y32.041
G0 X92.565 Y32.041
G0 X92.565 Y36.300
G0 X92.595 Y36.683
G0 X92.690 Y37.080
G0 X92.847 Y37.458
G0 X93.060 Y37.806
G0 X93.325 Y38.116
G0 X93.636 Y38.382
G0 X93.984 Y38.595
G0 X94.361 Y38.751
G0 X94.758 Y38.846
G0 X95.141 Y38.877
G0 X95.272 Y38.877
G0 X95.272 Y38.877
G0 X95.420 Y39.249
;segType:HShell
G0 X95.415 Y39.237
G1 X99.494 Y43.316 E24.1584 F3600
G0 X100.059 Y43.316 F7200
G1 X95.981 Y39.237 E24.4462 F3600
;segType:Perimeter
G0 X95.133 Y38.728 F7200
G1 X94.430 Y38.347 E24.4861 F2160
G1 X94.166 Y38.237 E24.5004
G1 X93.872 Y38.057 E24.5176
G1 X93.609 Y37.833 E24.5348
G1 X93.385 Y37.570 E24.5520
G1 X93.204 Y37.276 E24.5693
G1 X93.072 Y36.956 E24.5865
G1 X92.991 Y36.621 E24.6037
G1 X92.965 Y36.284 E24.6206
G1 X92.965 Y22.268 E25.3198
G1 X92.991 Y21.932 E25.3367
G1 X93.072 Y21.596 E25.3539
G1 X93.204 Y21.277 E25.3711
G1 X93.385 Y20.983 E25.3884
G1 X93.609 Y20.720 E25.4056
G1 X93.872 Y20.496 E25.4228
G1 X94.166 Y20.315 E25.4401
G1 X94.485 Y20.183 E25.4573
G1 X94.821 Y20.102 E25.4745
G1 X95.158 Y20.076 E25.4914
G1 X96.173 Y20.076 E25.5420
G1 X96.510 Y20.102 E25.5589
G1 X96.845 Y20.183 E25.5761
G1 X97.165 Y20.315 E25.5933
G1 X97.459 Y20.496 E25.6106
G1 X97.722 Y20.720 E25.6278
G1 X97.946 Y20.983 E25.6450
G1 X98.127 Y21.277 E25.6623
G1 X98.259 Y21.596 E25.6795
G1 X98.339 Y21.932 E25.6967
G1 X98.366 Y22.268 E25.7136
G1 X98.366 Y36.284 E26.4128
G1 X98.339 Y36.621 E26.4296
G1 X98.259 Y36.956 E26.4469
G1 X98.127 Y37.276 E26.4641
G1 X97.946 Y37.570 E26.4813
G1 X97.722 Y37.833 E26.4986
G1 X97.459 Y38.057 E26.5158
G1 X97.165 Y38.237 E26.5330
G1 X96.845 Y38.370 E26.5503
G1 X96.510 Y38.450 E26.5675
G1 X96.173 Y38.477 E26.5843
G1 X95.157 Y38.477 E26.6350
G1 X94.821 Y38.450 E26.6518
G1 X94.544 Y38.384 E26.6661
G0 X93.751 Y38.279 F7200
;segType:Loop
G0 X93.260 Y38.040
G1 X93.060 Y37.806 E26.6815 F3600
G1 X92.847 Y37.458 E26.7018
G1 X92.690 Y37.080 E26.7222
G1 X92.595 Y36.683 E26.7426
G1 X92.565 Y36.300 E26.7618
G1 X92.565 Y22.253 E27.4626
G1 X92.595 Y21.869 E27.4818
G1 X92.690 Y21.472 E27.5022
G1 X92.847 Y21.095 E27.5225
G1 X93.060 Y20.747 E27.5429
G1 X93.325 Y20.436 E27.5633
G1 X93.636 Y20.171 E27.5837
G1 X93.984 Y19.958 E27.6040
G1 X94.361 Y19.801 E27.6244
G1 X94.758 Y19.706 E27.6448
G1 X95.142 Y19.676 E27.6640
G1 X96.189 Y19.676 E27.7162
G1 X96.573 Y19.706 E27.7354
G1 X96.970 Y19.801 E27.7558
G1 X97.347 Y19.958 E27.7761
G1 X97.695 Y20.171 E27.7965
G1 X98.006 Y20.436 E27.8169
G1 X98.271 Y20.747 E27.8373
G1 X98.484 Y21.095 E27.8576
G1 X98.640 Y21.472 E27.8780
G1 X98.736 Y21.869 E27.8984
G1 X98.766 Y22.253 E27.9176
G1 X98.766 Y36.300 E28.6184
G1 X98.736 Y36.683 E28.6376
G1 X98.640 Y37.080 E28.6579
G1 X98.484 Y37.458 E28.6783
G1 X98.271 Y37.806 E28.6987
G1 X98.006 Y38.116 E28.7191
G1 X97.695 Y38.382 E28.7394
G1 X97.347 Y38.595 E28.7598
G1 X96.969 Y38.751 E28.7802
G1 X96.573 Y38.846 E28.8006
G1 X96.189 Y38.877 E28.8197
G1 X95.141 Y38.877 E28.8720
G1 X94.758 Y38.846 E28.8912
G1 X94.361 Y38.751 E28.9115
G1 X93.984 Y38.595 E28.9319
G1 X93.636 Y38.382 E28.9523
G0 X93.636 Y38.382 F7200
G0 X94.519 Y38.789
G0 X94.519 Y38.789
G0 X105.112 Y43.676
G0 X105.112 Y43.676
G0 X112.689 Y43.676
G0 X113.073 Y43.706
G0 X113.470 Y43.801
G0 X113.847 Y43.958
G0 X114.195 Y44.171
G0 X114.506 Y44.436
G0 X114.771 Y44.747
G0 X114.984 Y45.095
G0 X115.140 Y45.472
G0 X115.236 Y45.869
G0 X115.266 Y46.253
G0 X115.266 Y48.360
G0 X115.266 Y48.360
G0 X123.717 Y52.259
;segType:HShell
G0 X123.705 Y52.253
G1 X110.025 Y38.573 E29.9175 F3600
;segType:Perimeter
G0 X109.580 Y38.279 F7200
G1 X108.787 Y38.384 E29.9574 F2160
G1 X108.510 Y38.450 E29.9716
