; GCode generated by CraftWare

G28 X0 Y0
G28 Z0


M104 S215 ;set head temp (no wait)
M190 S60 ;set bed temp (wait)
M109 S215 ;set head temp (wait)
; ------------------------------------
; Layer #0
; ------------------------------------
M106 S0 ;turn off fan
G21 ; mm
G90 ; abs
G92 E0 ;reset extr
G0 F1200 Z0.300
;segType:Skirt
G0 F3000 E-1.0000
G0 X93.060 Y90.464 F5400
G0 F3000 E0.0000
G1 X93.060 Y90.199 E0.0132 F2400
G1 X92.927 Y90.067 E0.0225
G1 X92.927 Y89.802 E0.0358
G1 X92.795 Y89.670 E0.0451
G1 X92.663 Y88.743 E0.0918
G1 X92.663 Y88.214 E0.1182
G1 X92.530 Y88.081 E0.1275
G1 X92.530 Y85.964 E0.2332
G1 X92.663 Y85.567 E0.2541
G1 X92.663 Y85.037 E0.2805
G1 X92.927 Y84.243 E0.3222
G1 X92.927 Y83.978 E0.3354
G1 X93.324 Y83.317 E0.3739
G1 X93.457 Y82.920 E0.3948
G1 X93.721 Y82.655 E0.4135
G1 X93.920 Y82.324 E0.4328
G1 X93.986 Y81.861 E0.4561
G1 X93.986 Y57.508 E1.6711
G1 X93.920 Y57.310 E1.6815
G1 X67.450 Y57.310 E3.0021
G1 X66.986 Y57.243 E3.0255
G1 X63.942 Y54.199 E3.2403
G1 X63.942 Y22.434 E4.8250
G1 X64.141 Y22.103 E4.8443
G1 X66.920 Y19.324 E5.0404
G1 X134.685 Y19.324 E8.4212
G1 X138.920 Y19.324 E8.6325
G1 X139.251 Y19.523 E8.6517
G1 X142.031 Y22.302 E8.8478
G1 X142.031 Y54.067 E10.4326
G1 X141.832 Y54.398 E10.4519
G1 X138.920 Y57.310 E10.6573
G1 X112.450 Y57.310 E11.9779
G1 X111.987 Y57.375 E12.0013
G1 X111.987 Y82.258 E13.2426
G1 X112.108 Y82.460 E13.2544
G0 F3000 E12.2544
G0 X108.920 Y78.145 F5400
G0 X107.325 Y75.988
G0 X91.384 Y54.413
G0 X89.789 Y52.255
G0 X77.036 Y34.995
G0 X75.442 Y32.838
G0 X69.065 Y24.208
G0 F3000 E13.2544
;segType:HShell
G1 X75.628 Y30.771 E13.7175 F2400
G0 X75.592 Y31.300 F5400
G1 X69.013 Y24.721 E14.1817 F2400
;segType:Perimeter
G0 X68.313 Y23.448 F5400
G1 X137.852 Y23.448 E17.6510 F1440
G1 X137.852 Y53.047 E19.1277
G1 X110.045 Y53.047 E20.5150
G1 X109.708 Y53.073 E20.5319
G1 X109.372 Y53.154 E20.5491
G1 X109.053 Y53.286 E20.5663
G1 X108.759 Y53.467 E20.5836
G1 X108.496 Y53.691 E20.6008
G1 X108.272 Y53.953 E20.6180
G1 X108.091 Y54.248 E20.6353
G1 X107.959 Y54.567 E20.6525
G1 X107.878 Y54.903 E20.6697
G1 X107.852 Y55.239 E20.6866
G1 X107.852 Y83.312 E22.0871
G1 X108.460 Y84.151 E22.1388
G1 X108.881 Y85.008 E22.1864
G1 X109.150 Y85.924 E22.2341
G1 X109.261 Y86.871 E22.2817
G1 X109.208 Y87.824 E22.3293
G1 X108.994 Y88.754 E22.3769
G1 X108.625 Y89.634 E22.4245
G1 X108.113 Y90.439 E22.4721
G1 X107.471 Y91.145 E22.5197
G1 X106.718 Y91.732 E22.5673
G1 X105.877 Y92.183 E22.6149
G1 X104.971 Y92.484 E22.6625
G1 X104.028 Y92.627 E22.7102
G1 X103.053 Y92.607 E22.7588
G1 X102.077 Y92.627 E22.8075
G1 X101.134 Y92.484 E22.8551
G1 X100.228 Y92.183 E22.9027
G1 X99.387 Y91.732 E22.9503
G1 X98.634 Y91.145 E22.9979
G1 X97.992 Y90.439 E23.0455
G1 X97.480 Y89.634 E23.0931
G1 X97.111 Y88.754 E23.1407
G1 X96.897 Y87.824 E23.1884
G1 X96.845 Y86.871 E23.2360
G1 X96.955 Y85.923 E23.2836
G1 X97.224 Y85.007 E23.3312
G1 X97.645 Y84.151 E23.3788
G1 X98.253 Y83.312 E23.4305
G1 X98.253 Y55.239 E24.8311
G1 X98.227 Y54.903 E24.8479
G1 X98.146 Y54.567 E24.8651
G1 X98.014 Y54.248 E24.8824
G1 X97.833 Y53.953 E24.8996
G1 X97.609 Y53.691 E24.9168
G1 X97.346 Y53.467 E24.9341
G1 X97.052 Y53.286 E24.9513
G1 X96.733 Y53.154 E24.9685
G1 X96.397 Y53.073 E24.9858
G1 X96.060 Y53.047 E25.0026
G1 X68.253 Y53.047 E26.3899
G1 X68.253 Y23.508 E27.8636
G0 X69.026 Y23.715 F5400
;segType:Loop
G0 X69.353 Y23.848
G1 X137.452 Y23.848 E31.2611 F2400
G1 X137.452 Y52.647 E32.6979
G1 X110.029 Y52.647 E34.0661
G1 X109.645 Y52.677 E34.0853
G1 X109.248 Y52.772 E34.1056
G1 X108.871 Y52.928 E34.1260
G1 X108.523 Y53.142 E34.1464
G1 X108.212 Y53.407 E34.1668
G1 X107.947 Y53.718 E34.1871
G1 X107.734 Y54.066 E34.2075
G1 X107.578 Y54.443 E34.2279
G1 X107.482 Y54.840 E34.2482
G1 X107.452 Y55.224 E34.2674
G1 X107.452 Y83.442 E35.6753
G1 X108.117 Y84.358 E35.7317
G1 X108.507 Y85.154 E35.7759
G1 X108.757 Y86.004 E35.8201
G1 X108.859 Y86.883 E35.8643
G1 X108.810 Y87.768 E35.9085
G1 X108.612 Y88.631 E35.9527
G1 X108.270 Y89.448 E35.9969
G1 X107.794 Y90.195 E36.0411
G1 X107.198 Y90.851 E36.0853
G1 X106.499 Y91.396 E36.1295
G1 X105.718 Y91.814 E36.1737
G1 X104.878 Y92.093 E36.2179
G1 X104.002 Y92.226 E36.2621
G1 X103.053 Y92.207 E36.3094
G1 X102.103 Y92.226 E36.3568
G1 X101.227 Y92.093 E36.4010
G1 X100.387 Y91.814 E36.4452
G1 X99.606 Y91.396 E36.4894
G1 X98.907 Y90.851 E36.5336
G1 X98.311 Y90.196 E36.5778
G1 X97.835 Y89.448 E36.6220
G1 X97.493 Y88.631 E36.6662
G1 X97.295 Y87.768 E36.7104
G1 X97.246 Y86.883 E36.7546
G1 X97.348 Y86.004 E36.7988
G1 X97.598 Y85.153 E36.8430
G1 X97.988 Y84.358 E36.8872
G1 X98.653 Y83.442 E36.9436
G1 X98.653 Y55.224 E38.3514
G1 X98.623 Y54.840 E38.3706
G1 X98.527 Y54.443 E38.3910
G1 X98.371 Y54.066 E38.4114
G1 X98.158 Y53.718 E38.4318
G1 X97.893 Y53.407 E38.4521
G1 X97.582 Y53.142 E38.4725
G1 X97.234 Y52.928 E38.4929
G1 X96.857 Y52.772 E38.5132
G1 X96.460 Y52.677 E38.5336
G1 X96.076 Y52.647 E38.5528
G1 X68.653 Y52.647 E39.9210
G1 X68.653 Y23.848 E41.3578
G1 X69.153 Y23.848 E41.3827
G0 X69.153 Y23.848 F5400
G0 X78.334 Y28.662
G0 X78.334 Y28.662
G0 X78.529 Y28.647
G0 X79.576 Y28.647
G0 X79.960 Y28.677
G0 X80.357 Y28.772
G0 X80.734 Y28.929
G0 X81.082 Y29.142
G0 X81.392 Y29.407
G0 X81.658 Y29.718
G0 X81.868 Y30.060
G0 X82.027 Y30.442
G0 X82.070 Y30.621
G0 X82.070 Y30.621
G0 X82.496 Y30.844
;segType:HShell
G0 X82.484 Y30.838
G1 X87.592 Y35.947 E41.7431 F2400
G0 X87.592 Y35.381 F5400
G1 X82.249 Y30.037 E42.1201 F2400
;segType:Perimeter
G0 X81.553 Y29.832 F5400
G1 X81.660 Y30.625 E42.1601 F1440
G1 X81.726 Y30.903 E42.1743
G1 X81.753 Y31.239 E42.1911
G1 X81.753 Y45.255 E42.8904
G1 X81.726 Y45.592 E42.9072
G1 X81.646 Y45.927 E42.9245
G1 X81.514 Y46.246 E42.9417
G1 X81.333 Y46.541 E42.9589
G1 X81.113 Y46.799 E42.9759
G1 X80.846 Y47.028 E42.9934
G1 X80.552 Y47.208 E43.0106
G1 X80.233 Y47.341 E43.0278
G1 X79.897 Y47.421 E43.0451
G1 X79.560 Y47.448 E43.0619
G1 X78.545 Y47.448 E43.1126
G1 X78.208 Y47.421 E43.1294
G1 X77.872 Y47.341 E43.1467
G1 X77.553 Y47.208 E43.1639
G1 X77.259 Y47.028 E43.1811
G1 X76.996 Y46.803 E43.1984
G1 X76.772 Y46.541 E43.2156
G1 X76.591 Y46.246 E43.2328
G1 X76.459 Y45.927 E43.2500
G1 X76.378 Y45.592 E43.2673
G1 X76.352 Y45.255 E43.2841
G1 X76.352 Y31.239 E43.9834
G1 X76.378 Y30.903 E44.0002
G1 X76.459 Y30.567 E44.0174
G1 X76.591 Y30.248 E44.0347
G1 X76.772 Y29.954 E44.0519
G1 X76.996 Y29.691 E44.0691
G1 X77.259 Y29.467 E44.0864
G1 X77.548 Y29.289 E44.1033
G1 X77.872 Y29.154 E44.1208
G1 X78.208 Y29.073 E44.1380
G1 X78.545 Y29.047 E44.1549
G1 X79.561 Y29.047 E44.2056
G1 X79.897 Y29.073 E44.2224
G1 X80.233 Y29.154 E44.2396
G1 X80.552 Y29.286 E44.2569
G1 X80.846 Y29.467 E44.2741
G1 X81.109 Y29.691 E44.2913
G1 X81.333 Y29.954 E44.3086
G1 X81.511 Y30.243 E44.3255
G1 X81.623 Y30.511 E44.3400
G0 X82.004 Y31.215 F5400
;segType:Loop
G0 X82.153 Y31.656
G1 X82.153 Y45.271 E45.0192 F2400
G1 X82.123 Y45.654 E45.0384
G1 X82.027 Y46.051 E45.0588
G1 X81.871 Y46.429 E45.0792
G1 X81.658 Y46.777 E45.0995
G1 X81.397 Y47.083 E45.1196
G1 X81.083 Y47.352 E45.1403
G1 X80.734 Y47.566 E45.1607
G1 X80.357 Y47.722 E45.1810
G1 X79.960 Y47.817 E45.2014
G1 X79.576 Y47.848 E45.2206
G1 X78.529 Y47.848 E45.2728
G1 X78.146 Y47.817 E45.2920
G1 X77.748 Y47.722 E45.3124
G1 X77.371 Y47.566 E45.3328
G1 X77.023 Y47.353 E45.3531
G1 X76.712 Y47.087 E45.3735
G1 X76.447 Y46.777 E45.3939
G1 X76.234 Y46.429 E45.4143
G1 X76.078 Y46.051 E45.4346
G1 X75.982 Y45.654 E45.4550
G1 X75.952 Y45.271 E45.4742
G1 X75.952 Y31.224 E46.1750
G1 X75.982 Y30.840 E46.1942
G1 X76.078 Y30.443 E46.2146
G1 X76.234 Y30.066 E46.2350
G1 X76.447 Y29.718 E46.2553
G1 X76.712 Y29.407 E46.2757
G1 X77.023 Y29.142 E46.2961
G1 X77.366 Y28.932 E46.3161
G1 X77.748 Y28.772 E46.3368
G1 X78.145 Y28.677 E46.3572
G1 X78.529 Y28.647 E46.3764
G1 X79.576 Y28.647 E46.4286
G1 X79.960 Y28.677 E46.4478
G1 X80.357 Y28.772 E46.4682
G1 X80.734 Y28.929 E46.4886
G1 X81.082 Y29.142 E46.5089
G1 X81.392 Y29.407 E46.5293
G1 X81.658 Y29.718 E46.5497
G1 X81.868 Y30.060 E46.5697
G1 X82.027 Y30.442 E46.5904
G1 X82.123 Y30.840 E46.6108
G1 X82.153 Y31.224 E46.6300
G1 X82.153 Y31.456 E46.6416
G0 X82.153 Y31.456 F5400
G0 X87.952 Y37.693
G0 X87.952 Y37.693
G0 X87.952 Y31.224
G0 X87.982 Y30.840
G0 X88.078 Y30.443
G0 X88.234 Y30.066
G0 X88.447 Y29.718
G0 X88.713 Y29.407
G0 X89.023 Y29.142
G0 X89.371 Y28.929
G0 X89.748 Y28.772
G0 X90.145 Y28.677
G0 X90.529 Y28.647
G0 X91.576 Y28.647
G0 X91.960 Y28.677
G0 X92.357 Y28.772
G0 X92.734 Y28.929
G0 X93.082 Y29.142
G0 X93.393 Y29.407
G0 X93.658 Y29.718
G0 X93.871 Y30.066
G0 X94.027 Y30.443
G0 X94.123 Y30.840
G0 X94.153 Y31.224
G0 X94.153 Y44.361
G0 X94.153 Y44.361
G0 X107.101 Y58.285
;segType:HShell
G0 X107.092 Y58.275
G1 X94.483 Y45.666 E47.5312 F2400
;segType:Perimeter
G0 X93.969 Y45.663 F5400
G1 X93.482 Y46.298 E47.5711 F1440
G1 X93.333 Y46.541 E47.5853
G1 X93.109 Y46.803 E47.6026
G1 X92.846 Y47.028 E47.6198
G1 X92.552 Y47.208 E47.6370
G1 X92.233 Y47.341 E47.6543
G1 X91.897 Y47.421 E47.6715
G1 X91.560 Y47.448 E47.6883
G1 X90.545 Y47.448 E47.7390
G1 X90.208 Y47.421 E47.7558
G1 X89.872 Y47.341 E47.7731
G1 X89.553 Y47.208 E47.7903
G1 X89.259 Y47.028 E47.8075
G1 X88.996 Y46.803 E47.8248
G1 X88.772 Y46.541 E47.8420
G1 X88.591 Y46.247 E47.8592
G1 X88.459 Y45.927 E47.8765
G1 X88.379 Y45.592 E47.8937
G1 X88.352 Y45.255 E47.9105
G1 X88.352 Y31.239 E48.6098
G1 X88.379 Y30.903 E48.6266
G1 X88.459 Y30.567 E48.6438
G1 X88.591 Y30.248 E48.6611
G1 X88.772 Y29.954 E48.6783
G1 X88.996 Y29.691 E48.6955
G1 X89.259 Y29.467 E48.7128
G1 X89.553 Y29.286 E48.7300
G1 X89.872 Y29.154 E48.7472
G1 X90.208 Y29.073 E48.7645
G1 X90.544 Y29.047 E48.7813
G1 X91.561 Y29.047 E48.8320
G1 X91.897 Y29.073 E48.8488
G1 X92.233 Y29.154 E48.8660
G1 X92.552 Y29.286 E48.8833
G1 X92.846 Y29.467 E48.9005
G1 X93.109 Y29.691 E48.9177
G1 X93.333 Y29.954 E48.9350
G1 X93.514 Y30.248 E48.9522
G1 X93.646 Y30.567 E48.9694
G1 X93.727 Y30.903 E48.9867
G1 X93.753 Y31.239 E49.0035
G1 X93.753 Y45.255 E49.7027
G1 X93.727 Y45.592 E49.7196
G1 X93.646 Y45.927 E49.7368
G1 X93.537 Y46.191 E49.7511
G0 X93.309 Y46.958 F5400
;segType:Loop
G0 X92.997 Y47.405
G1 X92.734 Y47.566 E49.7664 F2400
G1 X92.357 Y47.722 E49.7868
G1 X91.959 Y47.817 E49.8072
G1 X91.576 Y47.848 E49.8264
G1 X90.529 Y47.848 E49.8786
G1 X90.146 Y47.817 E49.8978
G1 X89.748 Y47.722 E49.9182
G1 X89.371 Y47.566 E49.9385
G1 X89.023 Y47.353 E49.9589
G1 X88.713 Y47.087 E49.9793
G1 X88.447 Y46.777 E49.9997
G1 X88.234 Y46.429 E50.0200
G1 X88.078 Y46.051 E50.0404
G1 X87.982 Y45.654 E50.0608
G1 X87.952 Y45.271 E50.0800
G1 X87.952 Y31.224 E50.7808
G1 X87.982 Y30.840 E50.8000
G1 X88.078 Y30.443 E50.8204
G1 X88.234 Y30.066 E50.8407
G1 X88.447 Y29.718 E50.8611
G1 X88.713 Y29.407 E50.8815
G1 X89.023 Y29.142 E50.9018
G1 X89.371 Y28.929 E50.9222
G1 X89.748 Y28.772 E50.9426
G1 X90.145 Y28.677 E50.9629
G1 X90.529 Y28.647 E50.9821
G1 X91.576 Y28.647 E51.0344
G1 X91.960 Y28.677 E51.0536
G1 X92.357 Y28.772 E51.0739
G1 X92.734 Y28.929 E51.0943
G1 X93.082 Y29.142 E51.1147
G1 X93.393 Y29.407 E51.1351
G1 X93.658 Y29.718 E51.1554
G1 X93.871 Y30.066 E51.1758
G1 X94.027 Y30.443 E51.1962
G1 X94.123 Y30.840 E51.2165
G1 X94.153 Y31.224 E51.2357
G1 X94.153 Y45.271 E51.9365
G1 X94.123 Y45.654 E51.9558
G1 X94.027 Y46.051 E51.9761
G1 X93.871 Y46.429 E51.9965
G1 X93.658 Y46.777 E52.0169
G1 X93.393 Y47.087 E52.0372
;segType:HShell
G0 X107.210 Y54.433 F5400
G1 X94.513 Y41.736 E52.9330 F2400
G0 X94.513 Y41.171 F5400
G1 X99.896 Y46.553 E53.3128 F2400
;segType:Perimeter
G0 X100.355 Y46.332 F5400
G1 X100.374 Y45.532 E53.3527 F1440
G1 X100.352 Y45.255 E53.3666
G1 X100.352 Y31.239 E54.0658
G1 X100.379 Y30.903 E54.0827
G1 X100.459 Y30.567 E54.0999
G1 X100.591 Y30.248 E54.1171
G1 X100.772 Y29.954 E54.1343
G1 X100.996 Y29.691 E54.1516
G1 X101.259 Y29.467 E54.1688
G1 X101.553 Y29.286 E54.1860
G1 X101.872 Y29.154 E54.2033
G1 X102.208 Y29.073 E54.2205
G1 X102.545 Y29.047 E54.2373
G1 X103.560 Y29.047 E54.2880
G1 X103.897 Y29.073 E54.3049
G1 X104.233 Y29.154 E54.3221
G1 X104.552 Y29.286 E54.3393
G1 X104.846 Y29.467 E54.3565
G1 X105.109 Y29.691 E54.3738
G1 X105.333 Y29.954 E54.3910
G1 X105.514 Y30.248 E54.4082
G1 X105.646 Y30.567 E54.4255
G1 X105.726 Y30.903 E54.4427
G1 X105.753 Y31.239 E54.4595
G1 X105.753 Y45.255 E55.1588
G1 X105.726 Y45.592 E55.1756
G1 X105.646 Y45.927 E55.1929
G1 X105.514 Y46.247 E55.2101
G1 X105.333 Y46.541 E55.2273
G1 X105.109 Y46.803 E55.2445
G1 X104.846 Y47.028 E55.2618
G1 X104.552 Y47.208 E55.2790
G1 X104.233 Y47.341 E55.2962
G1 X103.897 Y47.421 E55.3135
G1 X103.560 Y47.448 E55.3303
G1 X102.545 Y47.448 E55.3810
G1 X102.208 Y47.421 E55.3978
G1 X101.872 Y47.341 E55.4151
G1 X101.553 Y47.208 E55.4323
G1 X101.259 Y47.028 E55.4495
G1 X100.996 Y46.804 E55.4668
G1 X100.772 Y46.541 E55.4840
G1 X100.591 Y46.246 E55.5012
G1 X100.461 Y45.932 E55.5182
G1 X100.393 Y45.650 E55.5327
G0 X100.126 Y44.896 F5400
;segType:Loop
G0 X99.952 Y44.493
G1 X99.952 Y31.224 E56.1947 F2400
G1 X99.982 Y30.840 E56.2139
G1 X100.078 Y30.443 E56.2342
G1 X100.234 Y30.066 E56.2546
G1 X100.447 Y29.718 E56.2750
G1 X100.712 Y29.407 E56.2954
G1 X101.023 Y29.142 E56.3157
G1 X101.371 Y28.929 E56.3361
G1 X101.748 Y28.772 E56.3565
G1 X102.145 Y28.677 E56.3768
G1 X102.529 Y28.647 E56.3960
G1 X103.576 Y28.647 E56.4483
G1 X103.960 Y28.677 E56.4675
G1 X104.357 Y28.772 E56.4878
G1 X104.734 Y28.929 E56.5082
G1 X105.082 Y29.142 E56.5286
G1 X105.393 Y29.407 E56.5490
G1 X105.658 Y29.718 E56.5693
G1 X105.871 Y30.066 E56.5897
G1 X106.027 Y30.443 E56.6101
G1 X106.123 Y30.840 E56.6305
G1 X106.153 Y31.224 E56.6496
G1 X106.153 Y45.271 E57.3505
G1 X106.123 Y45.654 E57.3697
G1 X106.027 Y46.051 E57.3900
G1 X105.871 Y46.429 E57.4104
G1 X105.658 Y46.777 E57.4308
G1 X105.393 Y47.087 E57.4511
G1 X105.082 Y47.353 E57.4715
G1 X104.734 Y47.566 E57.4919
G1 X104.357 Y47.722 E57.5123
G1 X103.960 Y47.817 E57.5326
G1 X103.576 Y47.848 E57.5518
G1 X102.529 Y47.848 E57.6041
G1 X102.145 Y47.817 E57.6233
G1 X101.748 Y47.722 E57.6436
G1 X101.371 Y47.566 E57.6640
G1 X101.023 Y47.353 E57.6844
G1 X100.712 Y47.087 E57.7048
G1 X100.447 Y46.777 E57.7251
G1 X100.234 Y46.429 E57.7455
G1 X100.080 Y46.057 E57.7656
G1 X99.982 Y45.655 E57.7862
G1 X99.952 Y45.271 E57.8054
G1 X99.952 Y44.693 E57.8343
G0 X99.952 Y44.693 F5400
G0 X99.952 Y31.224
G0 X99.982 Y30.840
G0 X100.078 Y30.443
G0 X100.234 Y30.066
G0 X100.447 Y29.718
G0 X100.712 Y29.407
G0 X101.023 Y29.142
G0 X101.371 Y28.929
G0 X101.748 Y28.772
G0 X102.145 Y28.677
G0 X102.529 Y28.647
G0 X103.576 Y28.647
G0 X103.960 Y28.677
G0 X104.357 Y28.772
G0 X104.734 Y28.929
G0 X105.082 Y29.142
G0 X105.393 Y29.407
G0 X105.658 Y29.718
G0 X105.871 Y30.066
G0 X106.027 Y30.443
G0 X106.123 Y30.840
G0 X106.153 Y31.224
G0 X106.153 Y37.046
G0 X106.153 Y37.046
G0 X112.780 Y28.872
;segType:HShell
G0 X112.772 Y28.883
G1 X108.097 Y24.208 E58.1641 F2400
G0 X108.663 Y24.208 F5400
G1 X113.117 Y28.662 E58.4783 F2400
;segType:Perimeter
G0 X113.138 Y29.246 F5400
G1 X113.930 Y29.140 E58.5183 F1440
G1 X114.208 Y29.073 E58.5325
G1 X114.545 Y29.047 E58.5493
G1 X115.561 Y29.047 E58.6000
G1 X115.897 Y29.073 E58.6169
G1 X116.233 Y29.154 E58.6341
G1 X116.552 Y29.286 E58.6513
G1 X116.846 Y29.467 E58.6685
G1 X117.109 Y29.691 E58.6858
G1 X117.333 Y29.954 E58.7030
G1 X117.511 Y30.243 E58.7200
G1 X117.646 Y30.567 E58.7375
G1 X117.726 Y30.903 E58.7547
G1 X117.753 Y31.239 E58.7715
G1 X117.753 Y45.255 E59.4708
G1 X117.726 Y45.592 E59.4876
G1 X117.646 Y45.927 E59.5049
G1 X117.514 Y46.246 E59.5221
G1 X117.333 Y46.541 E59.5393
G1 X117.113 Y46.799 E59.5563
G1 X116.846 Y47.028 E59.5738
G1 X116.552 Y47.208 E59.5910
G1 X116.233 Y47.341 E59.6082
G1 X115.897 Y47.421 E59.6255
G1 X115.560 Y47.448 E59.6423
G1 X114.545 Y47.448 E59.6930
G1 X114.208 Y47.421 E59.7098
G1 X113.872 Y47.341 E59.7271
G1 X113.553 Y47.208 E59.7443
G1 X113.259 Y47.028 E59.7615
G1 X112.996 Y46.803 E59.7788
G1 X112.772 Y46.541 E59.7960
G1 X112.591 Y46.247 E59.8132
G1 X112.459 Y45.927 E59.8304
G1 X112.378 Y45.592 E59.8477
G1 X112.352 Y45.255 E59.8645
G1 X112.352 Y31.239 E60.5638
G1 X112.378 Y30.903 E60.5806
G1 X112.459 Y30.567 E60.5978
G1 X112.591 Y30.248 E60.6151
G1 X112.772 Y29.954 E60.6323
G1 X112.996 Y29.691 E60.6495
G1 X113.259 Y29.467 E60.6668
G1 X113.548 Y29.289 E60.6837
G1 X113.817 Y29.177 E60.6982
G0 X114.520 Y28.796 F5400
;segType:Loop
G0 X114.962 Y28.647
G1 X115.576 Y28.647 E60.7289 F2400
G1 X115.960 Y28.677 E60.7481
G1 X116.357 Y28.772 E60.7684
G1 X116.734 Y28.929 E60.7888
G1 X117.082 Y29.142 E60.8092
G1 X117.392 Y29.407 E60.8295
G1 X117.658 Y29.718 E60.8499
G1 X117.868 Y30.060 E60.8700
G1 X118.027 Y30.442 E60.8906
G1 X118.123 Y30.840 E60.9111
G1 X118.153 Y31.224 E60.9302
G1 X118.153 Y45.271 E61.6310
G1 X118.123 Y45.654 E61.6502
G1 X118.027 Y46.051 E61.6706
G1 X117.871 Y46.429 E61.6910
G1 X117.658 Y46.777 E61.7114
G1 X117.397 Y47.083 E61.7314
G1 X117.083 Y47.352 E61.7521
G1 X116.734 Y47.566 E61.7725
G1 X116.357 Y47.722 E61.7929
G1 X115.960 Y47.817 E61.8132
G1 X115.576 Y47.848 E61.8324
G1 X114.529 Y47.848 E61.8847
G1 X114.146 Y47.817 E61.9038
G1 X113.748 Y47.722 E61.9242
G1 X113.371 Y47.566 E61.9446
G1 X113.023 Y47.353 E61.9650
G1 X112.712 Y47.087 E61.9854
G1 X112.447 Y46.777 E62.0057
G1 X112.234 Y46.429 E62.0261
G1 X112.078 Y46.051 E62.0465
G1 X111.982 Y45.654 E62.0668
G1 X111.952 Y45.271 E62.0860
G1 X111.952 Y31.224 E62.7868
G1 X111.982 Y30.840 E62.8060
G1 X112.078 Y30.443 E62.8264
G1 X112.234 Y30.066 E62.8468
G1 X112.447 Y29.718 E62.8671
G1 X112.712 Y29.407 E62.8875
G1 X113.023 Y29.142 E62.9079
G1 X113.366 Y28.932 E62.9280
G1 X113.748 Y28.772 E62.9486
G1 X114.145 Y28.677 E62.9690
G1 X114.529 Y28.647 E62.9882
G1 X114.762 Y28.647 E62.9998
G0 X114.762 Y28.647 F5400
G0 X115.576 Y28.647
G0 X115.960 Y28.677
G0 X116.357 Y28.772
G0 X116.734 Y28.929
G0 X117.082 Y29.142
G0 X117.392 Y29.407
G0 X117.658 Y29.718
G0 X117.868 Y30.060
G0 X118.027 Y30.442
G0 X118.123 Y30.840
G0 X118.153 Y31.224
G0 X118.153 Y32.397
G0 X118.153 Y32.397
G0 X123.952 Y38.812
G0 X123.952 Y38.812
G0 X123.952 Y45.271
G0 X123.982 Y45.654
G0 X124.078 Y46.051
G0 X124.234 Y46.429
G0 X124.447 Y46.777
G0 X124.713 Y47.087
G0 X125.023 Y47.353
G0 X125.371 Y47.566
G0 X125.748 Y47.722
G0 X126.146 Y47.817
G0 X126.529 Y47.848
G0 X127.576 Y47.848
G0 X127.959 Y47.817
G0 X128.357 Y47.722
G0 X128.734 Y47.566
G0 X129.082 Y47.353
G0 X129.393 Y47.087
G0 X129.658 Y46.777
G0 X129.871 Y46.429
G0 X130.027 Y46.051
G0 X130.123 Y45.654
G0 X130.124 Y45.638
G0 X130.124 Y45.638
G0 X130.428 Y45.973
;segType:HShell
G0 X130.419 Y45.964
G1 X136.742 Y52.287 E63.4459 F2400
G0 X137.092 Y52.071 F5400
G1 X130.498 Y45.477 E63.9112 F2400
;segType:Perimeter
G0 X129.969 Y45.663 F5400
G1 X129.482 Y46.298 E63.9511 F1440
G1 X129.333 Y46.541 E63.9653
G1 X129.109 Y46.803 E63.9826
G1 X128.846 Y47.028 E63.9998
G1 X128.552 Y47.208 E64.0170
G1 X128.233 Y47.341 E64.0343
G1 X127.897 Y47.421 E64.0515
G1 X127.560 Y47.448 E64.0683
G1 X126.545 Y47.448 E64.1190
G1 X126.208 Y47.421 E64.1358
G1 X125.872 Y47.341 E64.1531
G1 X125.553 Y47.208 E64.1703
G1 X125.259 Y47.028 E64.1875
G1 X124.996 Y46.804 E64.2048
G1 X124.772 Y46.541 E64.2220
G1 X124.591 Y46.247 E64.2392
G1 X124.459 Y45.927 E64.2565
G1 X124.379 Y45.592 E64.2737
G1 X124.352 Y45.255 E64.2905
G1 X124.352 Y31.239 E64.9898
G1 X124.379 Y30.903 E65.0066
G1 X124.459 Y30.567 E65.0238
G1 X124.591 Y30.248 E65.0411
G1 X124.772 Y29.954 E65.0583
G1 X124.996 Y29.691 E65.0755
G1 X125.259 Y29.467 E65.0928
G1 X125.553 Y29.286 E65.1100
G1 X125.872 Y29.154 E65.1272
G1 X126.208 Y29.073 E65.1445
G1 X126.544 Y29.047 E65.1613
G1 X127.561 Y29.047 E65.2120
G1 X127.897 Y29.073 E65.2288
G1 X128.233 Y29.154 E65.2460
G1 X128.552 Y29.286 E65.2633
G1 X128.846 Y29.467 E65.2805
G1 X129.109 Y29.691 E65.2977
G1 X129.333 Y29.954 E65.3150
G1 X129.514 Y30.248 E65.3322
G1 X129.646 Y30.567 E65.3494
G1 X129.727 Y30.903 E65.3667
G1 X129.753 Y31.239 E65.3835
G1 X129.753 Y45.255 E66.0827
G1 X129.727 Y45.592 E66.0996
G1 X129.646 Y45.927 E66.1168
G1 X129.537 Y46.191 E66.1311
G0 X129.309 Y46.958 F5400
;segType:Loop
G0 X128.997 Y47.405
G1 X128.734 Y47.566 E66.1464 F2400
G1 X128.357 Y47.722 E66.1668
G1 X127.959 Y47.817 E66.1872
G1 X127.576 Y47.848 E66.2064
G1 X126.529 Y47.848 E66.2586
G1 X126.146 Y47.817 E66.2778
G1 X125.748 Y47.722 E66.2982
G1 X125.371 Y47.566 E66.3186
G1 X125.023 Y47.353 E66.3389
G1 X124.713 Y47.087 E66.3593
G1 X124.447 Y46.777 E66.3797
G1 X124.234 Y46.429 E66.4000
G1 X124.078 Y46.051 E66.4204
G1 X123.982 Y45.654 E66.4408
G1 X123.952 Y45.271 E66.4600
G1 X123.952 Y31.224 E67.1608
G1 X123.982 Y30.840 E67.1800
G1 X124.078 Y30.443 E67.2004
G1 X124.234 Y30.066 E67.2207
G1 X124.447 Y29.718 E67.2411
G1 X124.713 Y29.407 E67.2615
G1 X125.023 Y29.142 E67.2818
G1 X125.371 Y28.929 E67.3022
G1 X125.748 Y28.772 E67.3226
G1 X126.145 Y28.677 E67.3429
G1 X126.529 Y28.647 E67.3621
G1 X127.576 Y28.647 E67.4144
G1 X127.960 Y28.677 E67.4336
G1 X128.357 Y28.772 E67.4540
G1 X128.734 Y28.929 E67.4743
G1 X129.082 Y29.142 E67.4947
G1 X129.393 Y29.407 E67.5151
G1 X129.658 Y29.718 E67.5354
G1 X129.871 Y30.066 E67.5558
G1 X130.027 Y30.443 E67.5762
G1 X130.123 Y30.840 E67.5966
G1 X130.153 Y31.224 E67.6157
G1 X130.153 Y45.271 E68.3166
G1 X130.123 Y45.654 E68.3358
G1 X130.027 Y46.051 E68.3561
G1 X129.871 Y46.429 E68.3765
G1 X129.658 Y46.777 E68.3969
G1 X129.393 Y47.087 E68.4172
;segType:HShell
G0 X125.763 Y48.096 F5400
G1 X129.954 Y52.287 E68.7129 F2400
G0 X130.519 Y52.287 F5400
G1 X126.434 Y48.201 E69.0011 F2400
G0 X127.006 Y48.208 F5400
G1 X131.085 Y52.287 E69.2889 F2400
G0 X131.651 Y52.287 F5400
G1 X127.572 Y48.208 E69.5767 F2400
G0 X128.087 Y48.157 F5400
G1 X132.216 Y52.287 E69.8681 F2400
G0 X132.782 Y52.287 F5400
G1 X128.534 Y48.039 E70.1678 F2400
G0 X128.929 Y47.868 F5400
G1 X133.348 Y52.287 E70.4796 F2400
G0 X133.914 Y52.287 F5400
G1 X129.280 Y47.654 E70.8065 F2400
G0 X129.587 Y47.395 F5400
G1 X134.479 Y52.287 E71.1516 F2400
G0 X135.045 Y52.287 F5400
G1 X129.857 Y47.098 E71.5177 F2400
G0 X130.088 Y46.764 F5400
G1 X135.611 Y52.287 E71.9073 F2400
G0 X136.176 Y52.287 F5400
G1 X130.278 Y46.388 E72.3235 F2400
G0 X130.513 Y44.926 F5400
G1 X137.092 Y51.505 E72.7877 F2400
G0 X137.092 Y50.940 F5400
G1 X130.513 Y44.361 E73.2519 F2400
G0 X130.513 Y43.795 F5400
G1 X137.092 Y50.374 E73.7161 F2400
G0 X137.092 Y49.808 F5400
G1 X130.513 Y43.229 E74.1803 F2400
G0 X130.513 Y42.664 F5400
G1 X137.092 Y49.243 E74.6444 F2400
G0 X137.092 Y48.677 F5400
G1 X130.513 Y42.098 E75.1086 F2400
G0 X130.513 Y41.532 F5400
G1 X137.092 Y48.111 E75.5728 F2400
G0 X137.092 Y47.546 F5400
G1 X130.513 Y40.967 E76.0370 F2400
G0 X130.513 Y40.401 F5400
G1 X137.092 Y46.980 E76.5012 F2400
G0 X137.092 Y46.414 F5400
G1 X130.513 Y39.835 E76.9654 F2400
G0 X130.513 Y39.270 F5400
G1 X137.092 Y45.849 E77.4296 F2400
G0 X137.092 Y45.283 F5400
G1 X130.513 Y38.704 E77.8938 F2400
G0 X130.513 Y38.138 F5400
G1 X137.092 Y44.717 E78.3579 F2400
G0 X137.092 Y44.152 F5400
G1 X130.513 Y37.573 E78.8221 F2400
G0 X130.513 Y37.007 F5400
G1 X137.092 Y43.586 E79.2863 F2400
G0 X137.092 Y43.020 F5400
G1 X130.513 Y36.441 E79.7505 F2400
G0 X130.513 Y35.875 F5400
G1 X137.092 Y42.454 E80.2147 F2400
G0 X137.092 Y41.889 F5400
G1 X130.513 Y35.310 E80.6789 F2400
G0 X130.513 Y34.744 F5400
G1 X137.092 Y41.323 E81.1431 F2400
G0 X137.092 Y40.757 F5400
G1 X130.513 Y34.178 E81.6073 F2400
G0 X130.513 Y33.613 F5400
G1 X137.092 Y40.192 E82.0714 F2400
G0 X137.092 Y39.626 F5400
G1 X130.513 Y33.047 E82.5356 F2400
G0 X130.513 Y32.481 F5400
G1 X137.092 Y39.060 E82.9998 F2400
G0 X137.092 Y38.495 F5400
G1 X130.513 Y31.916 E83.4640 F2400
G0 X130.513 Y31.350 F5400
G1 X137.092 Y37.929 E83.9282 F2400
G0 X137.092 Y37.363 F5400
G1 X130.469 Y30.741 E84.3955 F2400
G0 X130.188 Y29.894 F5400
G1 X137.092 Y36.798 E84.8826 F2400
G0 X137.092 Y36.232 F5400
G1 X125.068 Y24.208 E85.7310 F2400
G0 X125.634 Y24.208 F5400
G1 X137.092 Y35.666 E86.5394 F2400
G0 X137.092 Y35.101 F5400
G1 X126.199 Y24.208 E87.3080 F2400
G0 X126.765 Y24.208 F5400
G1 X137.092 Y34.535 E88.0366 F2400
G0 X137.092 Y33.969 F5400
G1 X127.331 Y24.208 E88.7253 F2400
G0 X127.896 Y24.208 F5400
G1 X137.092 Y33.404 E89.3741 F2400
G0 X137.092 Y32.838 F5400
G1 X128.462 Y24.208 E89.9830 F2400
G0 X129.028 Y24.208 F5400
G1 X137.092 Y32.272 E90.5520 F2400
G0 X137.092 Y31.706 F5400
G1 X129.593 Y24.208 E91.0811 F2400
G0 X130.159 Y24.208 F5400
G1 X137.092 Y31.141 E91.5702 F2400
G0 X137.092 Y30.575 F5400
G1 X130.725 Y24.208 E92.0195 F2400
G0 X131.291 Y24.208 F5400
G1 X137.092 Y30.009 E92.4288 F2400
G0 X137.092 Y29.444 F5400
G1 X131.856 Y24.208 E92.7982 F2400
G0 X132.422 Y24.208 F5400
G1 X137.092 Y28.878 E93.1277 F2400
G0 X137.092 Y28.312 F5400
G1 X132.988 Y24.208 E93.4173 F2400
G0 X133.553 Y24.208 F5400
G1 X137.092 Y27.747 E93.6670 F2400
G0 X137.092 Y27.181 F5400
G1 X134.119 Y24.208 E93.8768 F2400
G0 X134.685 Y24.208 F5400
G1 X137.092 Y26.615 E94.0466 F2400
G0 X137.092 Y26.050 F5400
G1 X135.250 Y24.208 E94.1766 F2400
G0 X135.816 Y24.208 F5400
G1 X137.092 Y25.484 E94.2666 F2400
G0 X137.092 Y24.918 F5400
G1 X136.382 Y24.208 E94.3168 F2400
G0 X128.907 Y28.612 F5400
G1 X124.502 Y24.208 E94.6275 F2400
G0 X123.937 Y24.208 F5400
G1 X128.060 Y28.331 E94.9184 F2400
G0 X127.450 Y28.287 F5400
G1 X123.371 Y24.208 E95.2062 F2400
G0 X122.805 Y24.208 F5400
G1 X126.884 Y28.287 E95.4940 F2400
G0 X126.333 Y28.301 F5400
G1 X122.240 Y24.208 E95.7828 F2400
G0 X121.674 Y24.208 F5400
G1 X125.845 Y28.379 E96.0771 F2400
G0 X125.419 Y28.519 F5400
G1 X121.108 Y24.208 E96.3813 F2400
G0 X120.542 Y24.208 F5400
G1 X125.042 Y28.708 E96.6988 F2400
G0 X124.707 Y28.938 F5400
G1 X119.977 Y24.208 E97.0325 F2400
G0 X119.411 Y24.208 F5400
G1 X124.410 Y29.207 E97.3852 F2400
G0 X124.150 Y29.513 F5400
G1 X118.845 Y24.208 E97.7595 F2400
G0 X118.280 Y24.208 F5400
G1 X123.936 Y29.864 E98.1585 F2400
G0 X123.764 Y30.258 F5400
G1 X117.714 Y24.208 E98.5854 F2400
G0 X117.148 Y24.208 F5400
G1 X123.645 Y30.704 E99.0438 F2400
G0 X123.592 Y31.217 F5400
G1 X116.583 Y24.208 E99.5383 F2400
G0 X116.017 Y24.208 F5400
G1 X123.592 Y31.783 E100.0728 F2400
G0 X123.592 Y32.349 F5400
G1 X115.451 Y24.208 E100.6472 F2400
G0 X114.886 Y24.208 F5400
G1 X123.592 Y32.914 E101.2615 F2400
G0 X123.592 Y33.480 F5400
G1 X114.320 Y24.208 E101.9157 F2400
G0 X113.754 Y24.208 F5400
G1 X123.592 Y34.046 E102.6098 F2400
G0 X123.592 Y34.611 F5400
G1 X113.189 Y24.208 E103.3438 F2400
G0 X112.623 Y24.208 F5400
G1 X117.218 Y28.803 E103.6680 F2400
G0 X116.218 Y28.369 F5400
G1 X112.057 Y24.208 E103.9616 F2400
G0 X111.492 Y24.208 F5400
G1 X115.570 Y28.287 E104.2494 F2400
G0 X115.005 Y28.287 F5400
G1 X110.926 Y24.208 E104.5372 F2400
G0 X110.360 Y24.208 F5400
G1 X114.444 Y28.292 E104.8253 F2400
G0 X113.942 Y28.356 F5400
G1 X109.794 Y24.208 E105.1180 F2400
G0 X109.229 Y24.208 F5400
G1 X113.505 Y28.484 E105.4197 F2400
G0 X117.997 Y29.582 F5400
G1 X123.592 Y35.177 E105.8144 F2400
G0 X123.592 Y35.743 F5400
G1 X118.431 Y30.582 E106.1786 F2400
G0 X118.513 Y31.229 F5400
G1 X123.592 Y36.308 E106.5369 F2400
G0 X123.592 Y36.874 F5400
G1 X118.513 Y31.795 E106.8953 F2400
G0 X118.513 Y32.361 F5400
G1 X123.592 Y37.440 E107.2537 F2400
G0 X123.592 Y38.005 F5400
G1 X118.513 Y32.926 E107.6120 F2400
G0 X118.513 Y33.492 F5400
G1 X123.592 Y38.571 E107.9704 F2400
G0 X123.592 Y39.137 F5400
G1 X118.513 Y34.058 E108.3287 F2400
G0 X118.513 Y34.623 F5400
G1 X123.592 Y39.703 E108.6871 F2400
G0 X123.592 Y40.268 F5400
G1 X118.513 Y35.189 E109.0455 F2400
G0 X118.513 Y35.755 F5400
G1 X123.592 Y40.834 E109.4038 F2400
G0 X123.592 Y41.400 F5400
G1 X118.513 Y36.320 E109.7622 F2400
G0 X118.513 Y36.886 F5400
G1 X123.592 Y41.965 E110.1205 F2400
G0 X123.592 Y42.531 F5400
G1 X118.513 Y37.452 E110.4789 F2400
G0 X118.513 Y38.017 F5400
G1 X123.592 Y43.097 E110.8373 F2400
G0 X123.592 Y43.662 F5400
G1 X118.513 Y38.583 E111.1956 F2400
G0 X118.513 Y39.149 F5400
G1 X123.592 Y44.228 E111.5540 F2400
G0 X123.592 Y44.794 F5400
G1 X118.513 Y39.715 E111.9123 F2400
G0 X118.513 Y40.280 F5400
G1 X123.598 Y45.366 E112.2711 F2400
G0 X123.704 Y46.037 F5400
G1 X118.513 Y40.846 E112.6374 F2400
G0 X118.513 Y41.412 F5400
G1 X129.388 Y52.287 E113.4047 F2400
G0 X128.822 Y52.287 F5400
G1 X118.513 Y41.977 E114.1321 F2400
G0 X118.513 Y42.543 F5400
G1 X128.257 Y52.287 E114.8195 F2400
G0 X127.691 Y52.287 F5400
G1 X118.513 Y43.109 E115.4671 F2400
G0 X118.513 Y43.674 F5400
G1 X127.125 Y52.287 E116.0748 F2400
G0 X126.560 Y52.287 F5400
G1 X118.513 Y44.240 E116.6425 F2400
G0 X118.513 Y44.806 F5400
G1 X125.994 Y52.287 E117.1703 F2400
G0 X125.428 Y52.287 F5400
G1 X118.507 Y45.365 E117.6587 F2400
G0 X118.442 Y45.866 F5400
G1 X124.863 Y52.287 E118.1117 F2400
G0 X124.297 Y52.287 F5400
G1 X118.313 Y46.303 E118.5339 F2400
G0 X118.134 Y46.689 F5400
G1 X123.731 Y52.287 E118.9288 F2400
G0 X123.166 Y52.287 F5400
G1 X117.912 Y47.033 E119.2994 F2400
G0 X117.652 Y47.338 F5400
G1 X122.600 Y52.287 E119.6486 F2400
G0 X122.034 Y52.287 F5400
G1 X117.347 Y47.600 E119.9793 F2400
G0 X117.004 Y47.823 F5400
G1 X121.468 Y52.287 E120.2942 F2400
G0 X120.903 Y52.287 F5400
G1 X116.619 Y48.003 E120.5964 F2400
G0 X116.184 Y48.134 F5400
G1 X120.337 Y52.287 E120.8895 F2400
G0 X119.771 Y52.287 F5400
G1 X115.685 Y48.200 E121.1778 F2400
G0 X115.127 Y48.208 F5400
G1 X119.206 Y52.287 E121.4656 F2400
G0 X118.640 Y52.287 F5400
G1 X114.561 Y48.208 E121.7534 F2400
G0 X113.922 Y48.134 F5400
G1 X118.074 Y52.287 E122.0464 F2400
G0 X117.509 Y52.287 F5400
G1 X112.956 Y47.734 E122.3676 F2400
G0 X105.740 Y46.643 F5400
G0 X105.658 Y46.777
G0 X105.393 Y47.087
G0 X105.082 Y47.353
G0 X104.734 Y47.566
G0 X104.357 Y47.722
G0 X103.960 Y47.817
G0 X103.576 Y47.848
G0 X102.529 Y47.848
G0 X102.145 Y47.817
G0 X101.748 Y47.722
G0 X101.371 Y47.566
G0 X101.023 Y47.353
G0 X100.712 Y47.087
G0 X100.447 Y46.777
G0 X100.234 Y46.429
G0 X100.080 Y46.057
G0 X100.012 Y45.777
G0 X100.012 Y45.777
G0 X99.614 Y45.717
G0 X99.627 Y45.719
G1 X94.513 Y40.605 E122.7284 F2400
G0 X94.513 Y40.039 F5400
G1 X99.592 Y45.118 E123.0868 F2400
G0 X99.592 Y44.552 F5400
G1 X94.513 Y39.473 E123.4451 F2400
G0 X94.513 Y38.908 F5400
G1 X99.592 Y43.987 E123.8035 F2400
G0 X99.592 Y43.421 F5400
G1 X94.513 Y38.342 E124.1618 F2400
G0 X94.513 Y37.776 F5400
G1 X99.592 Y42.855 E124.5201 F2400
G0 X99.592 Y42.290 F5400
G1 X94.513 Y37.211 E124.8785 F2400
G0 X94.513 Y36.645 F5400
G1 X99.592 Y41.724 E125.2368 F2400
G0 X99.592 Y41.158 F5400
G1 X94.513 Y36.079 E125.5952 F2400
G0 X94.513 Y35.514 F5400
G1 X99.592 Y40.593 E125.9535 F2400
G0 X99.592 Y40.027 F5400
G1 X94.513 Y34.948 E126.3119 F2400
G0 X94.513 Y34.382 F5400
G1 X99.592 Y39.461 E126.6702 F2400
G0 X99.592 Y38.896 F5400
G1 X94.513 Y33.817 E127.0286 F2400
G0 X94.513 Y33.251 F5400
G1 X99.592 Y38.330 E127.3869 F2400
G0 X99.592 Y37.764 F5400
G1 X94.513 Y32.685 E127.7453 F2400
G0 X94.513 Y32.120 F5400
G1 X99.592 Y37.198 E128.1036 F2400
G0 X99.592 Y36.633 F5400
G1 X94.513 Y31.554 E128.4619 F2400
G0 X94.494 Y30.969 F5400
G1 X99.592 Y36.067 E128.8216 F2400
G0 X99.592 Y35.501 F5400
G1 X94.335 Y30.244 E129.1925 F2400
G0 X94.513 Y42.302 F5400
G1 X107.116 Y54.905 E130.0817 F2400
G0 X107.092 Y55.446 F5400
G1 X94.513 Y42.868 E130.9692 F2400
G0 X94.513 Y43.433 F5400
G1 X107.092 Y56.012 E131.8567 F2400
G0 X107.092 Y56.578 F5400
G1 X94.513 Y43.999 E132.7442 F2400
G0 X94.513 Y44.565 F5400
G1 X107.092 Y57.143 E133.6317 F2400
G0 X107.092 Y57.709 F5400
G1 X94.513 Y45.130 E134.5192 F2400
G0 X92.790 Y47.932 F5400
G1 X97.569 Y52.711 E134.8564 F2400
G0 X96.642 Y52.350 F5400
G1 X92.379 Y48.087 E135.1572 F2400
G0 X91.909 Y48.183 F5400
G1 X96.013 Y52.287 E135.4467 F2400
G0 X95.447 Y52.287 F5400
G1 X91.368 Y48.208 E135.7345 F2400
G0 X90.802 Y48.208 F5400
G1 X94.881 Y52.287 E136.0223 F2400
G0 X94.316 Y52.287 F5400
G1 X90.213 Y48.184 E136.3118 F2400
G0 X89.453 Y47.989 F5400
G1 X93.750 Y52.287 E136.6150 F2400
G0 X93.184 Y52.287 F5400
G1 X82.513 Y41.615 E137.3679 F2400
G0 X82.513 Y42.181 F5400
G1 X92.618 Y52.287 E138.0809 F2400
G0 X92.053 Y52.287 F5400
G1 X82.513 Y42.747 E138.7540 F2400
G0 X82.513 Y43.312 F5400
G1 X91.487 Y52.287 E139.3872 F2400
G0 X90.921 Y52.287 F5400
G1 X82.513 Y43.878 E139.9804 F2400
G0 X82.513 Y44.444 F5400
G1 X90.356 Y52.287 E140.5338 F2400
G0 X89.790 Y52.287 F5400
G1 X82.513 Y45.010 E141.0472 F2400
G0 X82.492 Y45.554 F5400
G1 X89.224 Y52.287 E141.5223 F2400
G0 X88.659 Y52.287 F5400
G1 X82.403 Y46.031 E141.9637 F2400
G0 X82.253 Y46.447 F5400
G1 X88.093 Y52.287 E142.3757 F2400
G0 X87.527 Y52.287 F5400
G1 X82.056 Y46.816 E142.7617 F2400
G0 X81.818 Y47.143 F5400
G1 X86.962 Y52.287 E143.1246 F2400
G0 X86.396 Y52.287 F5400
G1 X81.542 Y47.433 E143.4670 F2400
G0 X81.229 Y47.685 F5400
G1 X85.830 Y52.287 E143.7917 F2400
G0 X85.265 Y52.287 F5400
G1 X80.875 Y47.897 E144.1014 F2400
G0 X80.475 Y48.063 F5400
G1 X84.699 Y52.287 E144.3994 F2400
G0 X84.133 Y52.287 F5400
G1 X80.020 Y48.173 E144.6896 F2400
G0 X79.489 Y48.208 F5400
G1 X83.568 Y52.287 E144.9774 F2400
G0 X83.002 Y52.287 F5400
G1 X78.923 Y48.208 E145.2652 F2400
G0 X78.344 Y48.194 F5400
G1 X82.436 Y52.287 E145.5540 F2400
G0 X81.870 Y52.287 F5400
G1 X77.654 Y48.070 E145.8515 F2400
G0 X77.874 Y47.752 F5400
G0 X78.146 Y47.817
G0 X78.529 Y47.848
G0 X79.576 Y47.848
G0 X79.960 Y47.817
G0 X80.357 Y47.722
G0 X80.734 Y47.566
G0 X81.083 Y47.352
G0 X81.397 Y47.083
G0 X81.658 Y46.777
G0 X81.871 Y46.429
G0 X82.027 Y46.051
G0 X82.123 Y45.654
G0 X82.153 Y45.271
G0 X82.153 Y41.570
G0 X82.153 Y41.570
G0 X82.520 Y41.039
G0 X82.513 Y41.050
G1 X87.810 Y46.347 E146.2253 F2400
G0 X87.616 Y45.587 F5400
G1 X82.513 Y40.484 E146.5853 F2400
G0 X82.513 Y39.918 F5400
G1 X87.592 Y44.998 E146.9437 F2400
G0 X87.592 Y44.432 F5400
G1 X82.513 Y39.353 E147.3020 F2400
G0 X82.513 Y38.787 F5400
G1 X87.592 Y43.866 E147.6604 F2400
G0 X87.592 Y43.300 F5400
G1 X82.513 Y38.221 E148.0188 F2400
G0 X82.513 Y37.656 F5400
G1 X87.592 Y42.735 E148.3771 F2400
G0 X87.592 Y42.169 F5400
G1 X82.513 Y37.090 E148.7355 F2400
G0 X82.513 Y36.524 F5400
G1 X87.592 Y41.603 E149.0939 F2400
G0 X87.592 Y41.038 F5400
G1 X82.513 Y35.959 E149.4522 F2400
G0 X82.513 Y35.393 F5400
G1 X87.592 Y40.472 E149.8106 F2400
G0 X87.592 Y39.906 F5400
G1 X82.513 Y34.827 E150.1690 F2400
G0 X82.513 Y34.262 F5400
G1 X87.592 Y39.341 E150.5273 F2400
G0 X87.592 Y38.775 F5400
G1 X82.513 Y33.696 E150.8857 F2400
G0 X82.513 Y33.130 F5400
G1 X87.592 Y38.209 E151.2441 F2400
G0 X87.592 Y37.644 F5400
G1 X82.513 Y32.564 E151.6024 F2400
G0 X82.513 Y31.999 F5400
G1 X87.592 Y37.078 E151.9608 F2400
G0 X87.592 Y36.512 F5400
G1 X82.513 Y31.433 E152.3192 F2400
G0 X80.762 Y28.550 F5400
G1 X76.419 Y24.208 E152.6256 F2400
G0 X75.853 Y24.208 F5400
G1 X79.962 Y28.316 E152.9154 F2400
G0 X79.366 Y28.287 F5400
G1 X75.288 Y24.208 E153.2032 F2400
G0 X74.722 Y24.208 F5400
G1 X78.801 Y28.287 E153.4910 F2400
G0 X78.256 Y28.307 F5400
G1 X74.156 Y24.208 E153.7802 F2400
G0 X73.591 Y24.208 F5400
G1 X77.778 Y28.395 E154.0756 F2400
G0 X77.361 Y28.544 F5400
G1 X73.025 Y24.208 E154.3815 F2400
G0 X72.459 Y24.208 F5400
G1 X76.991 Y28.739 E154.7013 F2400
G0 X76.662 Y28.976 F5400
G1 X71.894 Y24.208 E155.0377 F2400
G0 X71.328 Y24.208 F5400
G1 X76.372 Y29.252 E155.3936 F2400
G0 X76.119 Y29.564 F5400
G1 X70.762 Y24.208 E155.7715 F2400
G0 X70.197 Y24.208 F5400
G1 X75.906 Y29.917 E156.1743 F2400
G0 X75.740 Y30.317 F5400
G1 X69.631 Y24.208 E156.6054 F2400
G0 X69.013 Y51.874 F5400
G1 X69.425 Y52.287 E156.6345 F2400
G0 X69.991 Y52.287 F5400
G1 X69.013 Y51.309 E156.7035 F2400
G0 X69.013 Y50.743 F5400
G1 X70.557 Y52.287 E156.8124 F2400
G0 X71.122 Y52.287 F5400
G1 X69.013 Y50.177 E156.9612 F2400
G0 X69.013 Y49.611 F5400
G1 X71.688 Y52.287 E157.1500 F2400
G0 X72.254 Y52.287 F5400
G1 X69.013 Y49.046 E157.3787 F2400
G0 X69.013 Y48.480 F5400
G1 X72.820 Y52.287 E157.6472 F2400
G0 X73.385 Y52.287 F5400
G1 X69.013 Y47.914 E157.9557 F2400
G0 X69.013 Y47.349 F5400
G1 X73.951 Y52.287 E158.3041 F2400
G0 X74.517 Y52.287 F5400
G1 X69.013 Y46.783 E158.6924 F2400
G0 X69.013 Y46.217 F5400
G1 X75.082 Y52.287 E159.1206 F2400
G0 X75.648 Y52.287 F5400
G1 X69.013 Y45.652 E159.5888 F2400
G0 X69.013 Y45.086 F5400
G1 X76.214 Y52.287 E160.0968 F2400
G0 X76.779 Y52.287 F5400
G1 X69.013 Y44.520 E160.6448 F2400
G0 X69.013 Y43.955 F5400
G1 X77.345 Y52.287 E161.2327 F2400
G0 X77.911 Y52.287 F5400
G1 X69.013 Y43.389 E161.8604 F2400
G0 X69.013 Y42.823 F5400
G1 X78.476 Y52.287 E162.5281 F2400
G0 X79.042 Y52.287 F5400
G1 X69.013 Y42.258 E163.2357 F2400
G0 X69.013 Y41.692 F5400
G1 X79.608 Y52.287 E163.9833 F2400
G0 X80.173 Y52.287 F5400
G1 X69.013 Y41.126 E164.7707 F2400
G0 X69.013 Y40.561 F5400
G1 X80.739 Y52.287 E165.5980 F2400
G0 X81.305 Y52.287 F5400
G1 X69.013 Y39.995 E166.4653 F2400
G0 X69.013 Y39.429 F5400
G1 X75.730 Y46.146 E166.9392 F2400
G0 X75.605 Y45.456 F5400
G1 X69.013 Y38.863 E167.4044 F2400
G0 X69.013 Y38.298 F5400
G1 X75.592 Y44.877 E167.8686 F2400
G0 X75.592 Y44.311 F5400
G1 X69.013 Y37.732 E168.3327 F2400
G0 X69.013 Y37.166 F5400
G1 X75.592 Y43.745 E168.7969 F2400
G0 X75.592 Y43.180 F5400
G1 X69.013 Y36.601 E169.2611 F2400
G0 X69.013 Y36.035 F5400
G1 X75.592 Y42.614 E169.7253 F2400
G0 X75.592 Y42.048 F5400
G1 X69.013 Y35.469 E170.1895 F2400
G0 X69.013 Y34.904 F5400
G1 X75.592 Y41.483 E170.6537 F2400
G0 X75.592 Y40.917 F5400
G1 X69.013 Y34.338 E171.1179 F2400
G0 X69.013 Y33.772 F5400
G1 X75.592 Y40.351 E171.5821 F2400
G0 X75.592 Y39.786 F5400
G1 X69.013 Y33.207 E172.0462 F2400
G0 X69.013 Y32.641 F5400
G1 X75.592 Y39.220 E172.5104 F2400
G0 X75.592 Y38.654 F5400
G1 X69.013 Y32.075 E172.9746 F2400
G0 X69.013 Y31.510 F5400
G1 X75.592 Y38.089 E173.4388 F2400
G0 X75.592 Y37.523 F5400
G1 X69.013 Y30.944 E173.9030 F2400
G0 X69.013 Y30.378 F5400
G1 X75.592 Y36.957 E174.3672 F2400
G0 X75.592 Y36.391 F5400
G1 X69.013 Y29.813 E174.8314 F2400
G0 X69.013 Y29.247 F5400
G1 X75.592 Y35.826 E175.2956 F2400
G0 X75.592 Y35.260 F5400
G1 X69.013 Y28.681 E175.7597 F2400
G0 X69.013 Y28.115 F5400
G1 X75.592 Y34.694 E176.2239 F2400
G0 X75.592 Y34.129 F5400
G1 X69.013 Y27.550 E176.6881 F2400
G0 X69.013 Y26.984 F5400
G1 X75.592 Y33.563 E177.1523 F2400
G0 X75.592 Y32.997 F5400
G1 X69.013 Y26.418 E177.6165 F2400
G0 X69.013 Y25.853 F5400
G1 X75.592 Y32.432 E178.0807 F2400
G0 X75.592 Y31.866 F5400
G1 X69.013 Y25.287 E178.5449 F2400
G0 X76.985 Y24.208 F5400
G1 X87.592 Y34.815 E179.2933 F2400
G0 X87.592 Y34.250 F5400
G1 X77.550 Y24.208 E180.0018 F2400
G0 X78.116 Y24.208 F5400
G1 X87.592 Y33.684 E180.6704 F2400
G0 X87.592 Y33.118 F5400
G1 X78.682 Y24.208 E181.2990 F2400
G0 X79.247 Y24.208 F5400
G1 X87.592 Y32.552 E181.8878 F2400
G0 X87.592 Y31.987 F5400
G1 X79.813 Y24.208 E182.4366 F2400
G0 X80.379 Y24.208 F5400
G1 X87.592 Y31.421 E182.9456 F2400
G0 X87.618 Y30.881 F5400
G1 X80.945 Y24.208 E183.4164 F2400
G0 X81.510 Y24.208 F5400
G1 X87.715 Y30.412 E183.8542 F2400
G0 X87.870 Y30.002 F5400
G1 X82.076 Y24.208 E184.2630 F2400
G0 X82.642 Y24.208 F5400
G1 X88.073 Y29.639 E184.6462 F2400
G0 X88.316 Y29.317 F5400
G1 X83.207 Y24.208 E185.0067 F2400
G0 X83.773 Y24.208 F5400
G1 X88.597 Y29.032 E185.3471 F2400
G0 X88.916 Y28.785 F5400
G1 X84.339 Y24.208 E185.6700 F2400
G0 X84.904 Y24.208 F5400
G1 X89.275 Y28.579 E185.9784 F2400
G0 X89.680 Y28.418 F5400
G1 X85.470 Y24.208 E186.2755 F2400
G0 X86.036 Y24.208 F5400
G1 X90.144 Y28.316 E186.5653 F2400
G0 X90.680 Y28.287 F5400
G1 X86.601 Y24.208 E186.8531 F2400
G0 X87.167 Y24.208 F5400
G1 X91.246 Y28.287 E187.1409 F2400
G0 X91.831 Y28.306 F5400
G1 X87.733 Y24.208 E187.4300 F2400
G0 X88.298 Y24.208 F5400
G1 X92.555 Y28.465 E187.7304 F2400
G0 X88.864 Y24.208 F5400
G1 X99.592 Y34.936 E188.4873 F2400
G0 X99.592 Y34.370 F5400
G1 X89.430 Y24.208 E189.2043 F2400
G0 X89.995 Y24.208 F5400
G1 X99.592 Y33.804 E189.8814 F2400
G0 X99.592 Y33.239 F5400
G1 X90.561 Y24.208 E190.5185 F2400
G0 X91.127 Y24.208 F5400
G1 X99.592 Y32.673 E191.1158 F2400
G0 X99.592 Y32.107 F5400
G1 X91.693 Y24.208 E191.6731 F2400
G0 X92.258 Y24.208 F5400
G1 X99.592 Y31.542 E192.1906 F2400
G0 X99.609 Y30.993 F5400
G1 X92.824 Y24.208 E192.6693 F2400
G0 X93.390 Y24.208 F5400
G1 X99.691 Y30.510 E193.1139 F2400
G0 X99.835 Y30.088 F5400
G1 X93.955 Y24.208 E193.5288 F2400
G0 X94.521 Y24.208 F5400
G1 X100.027 Y29.714 E193.9173 F2400
G0 X100.261 Y29.382 F5400
G1 X95.087 Y24.208 E194.2823 F2400
G0 X95.652 Y24.208 F5400
G1 X100.532 Y29.088 E194.6266 F2400
G0 X100.841 Y28.831 F5400
G1 X96.218 Y24.208 E194.9528 F2400
G0 X96.784 Y24.208 F5400
G1 X101.192 Y28.616 E195.2638 F2400
G0 X101.590 Y28.448 F5400
G1 X97.349 Y24.208 E195.5630 F2400
G0 X97.915 Y24.208 F5400
G1 X102.039 Y28.332 E195.8540 F2400
G0 X102.560 Y28.287 F5400
G1 X98.481 Y24.208 E196.1418 F2400
G0 X99.046 Y24.208 F5400
G1 X103.125 Y28.287 E196.4296 F2400
G0 X103.700 Y28.295 F5400
G1 X99.612 Y24.208 E196.7180 F2400
G0 X100.178 Y24.208 F5400
G1 X104.377 Y28.407 E197.0142 F2400
G0 X100.743 Y24.208 F5400
G1 X111.592 Y35.056 E197.7796 F2400
G0 X111.592 Y34.491 F5400
G1 X101.309 Y24.208 E198.5051 F2400
G0 X101.875 Y24.208 F5400
G1 X111.592 Y33.925 E199.1907 F2400
G0 X111.592 Y33.359 F5400
G1 X102.441 Y24.208 E199.8364 F2400
G0 X103.006 Y24.208 F5400
G1 X111.592 Y32.794 E200.4422 F2400
G0 X111.592 Y32.228 F5400
G1 X103.572 Y24.208 E201.0080 F2400
G0 X104.138 Y24.208 F5400
G1 X111.592 Y31.662 E201.5340 F2400
G0 X111.600 Y31.105 F5400
G1 X104.703 Y24.208 E202.0206 F2400
G0 X105.269 Y24.208 F5400
G1 X111.668 Y30.607 E202.4721 F2400
G0 X111.800 Y30.173 F5400
G1 X105.835 Y24.208 E202.8930 F2400
G0 X106.400 Y24.208 F5400
G1 X111.981 Y29.789 E203.2867 F2400
G0 X112.205 Y29.447 F5400
G1 X106.966 Y24.208 E203.6564 F2400
G0 X107.532 Y24.208 F5400
G1 X112.467 Y29.143 E204.0046 F2400
G0 X106.393 Y30.423 F5400
G1 X111.592 Y35.622 E204.3714 F2400
G0 X111.592 Y36.188 F5400
G1 X106.504 Y31.100 E204.7303 F2400
G0 X106.513 Y31.674 F5400
G1 X111.592 Y36.753 E205.0887 F2400
G0 X111.592 Y37.319 F5400
G1 X106.513 Y32.240 E205.4470 F2400
G0 X106.513 Y32.806 F5400
G1 X111.592 Y37.885 E205.8053 F2400
G0 X111.592 Y38.450 F5400
G1 X106.513 Y33.371 E206.1637 F2400
G0 X106.513 Y33.937 F5400
G1 X111.592 Y39.016 E206.5220 F2400
G0 X111.592 Y39.582 F5400
G1 X106.513 Y34.503 E206.8804 F2400
G0 X106.513 Y35.069 F5400
G1 X111.592 Y40.147 E207.2387 F2400
G0 X111.592 Y40.713 F5400
G1 X106.513 Y35.634 E207.5970 F2400
G0 X106.513 Y36.200 F5400
G1 X111.592 Y41.279 E207.9554 F2400
G0 X111.592 Y41.844 F5400
G1 X106.513 Y36.766 E208.3137 F2400
G0 X106.513 Y37.331 F5400
G1 X111.592 Y42.410 E208.6720 F2400
G0 X111.592 Y42.976 F5400
G1 X106.513 Y37.897 E209.0304 F2400
G0 X106.513 Y38.463 F5400
G1 X111.592 Y43.542 E209.3887 F2400
G0 X111.592 Y44.107 F5400
G1 X106.513 Y39.028 E209.7471 F2400
G0 X106.513 Y39.594 F5400
G1 X111.592 Y44.673 E210.1054 F2400
G0 X111.592 Y45.239 F5400
G1 X106.513 Y40.160 E210.4637 F2400
G0 X106.513 Y40.725 F5400
G1 X111.666 Y45.878 E210.8273 F2400
G0 X112.066 Y46.844 F5400
G1 X106.513 Y41.291 E211.2191 F2400
G0 X106.513 Y41.857 F5400
G1 X116.943 Y52.287 E211.9550 F2400
G0 X116.377 Y52.287 F5400
G1 X106.513 Y42.422 E212.6510 F2400
G0 X106.513 Y42.988 F5400
G1 X115.812 Y52.287 E213.3070 F2400
G0 X115.246 Y52.287 F5400
G1 X106.513 Y43.554 E213.9232 F2400
G0 X106.513 Y44.119 F5400
G1 X114.680 Y52.287 E214.4994 F2400
G0 X114.115 Y52.287 F5400
G1 X106.513 Y44.685 E215.0357 F2400
G0 X106.513 Y45.251 F5400
G1 X113.549 Y52.287 E215.5322 F2400
G0 X112.983 Y52.287 F5400
G1 X106.466 Y45.769 E215.9920 F2400
G0 X106.348 Y46.217 F5400
G1 X112.417 Y52.287 E216.4202 F2400
G0 X111.852 Y52.287 F5400
G1 X106.180 Y46.615 E216.8204 F2400
G0 X105.965 Y46.965 F5400
G1 X111.286 Y52.287 E217.1959 F2400
G0 X110.720 Y52.287 F5400
G1 X105.707 Y47.273 E217.5496 F2400
G0 X105.412 Y47.544 F5400
G1 X110.155 Y52.287 E217.8842 F2400
G0 X109.620 Y52.318 F5400
G1 X105.079 Y47.777 E218.2046 F2400
G0 X104.705 Y47.968 F5400
G1 X109.160 Y52.423 E218.5190 F2400
G0 X108.757 Y52.586 F5400
G1 X104.282 Y48.111 E218.8347 F2400
G0 X103.797 Y48.191 F5400
G1 X108.400 Y52.795 E219.1595 F2400
G0 X108.083 Y53.044 F5400
G1 X103.247 Y48.208 E219.5007 F2400
G0 X102.682 Y48.208 F5400
G1 X107.804 Y53.330 E219.8622 F2400
G0 X107.563 Y53.655 F5400
G1 X102.080 Y48.172 E220.2490 F2400
G0 X101.247 Y47.904 F5400
G1 X107.363 Y54.020 E220.6805 F2400
G0 X107.092 Y58.841 F5400
G1 X94.379 Y46.128 E221.5775 F2400
G0 X94.218 Y46.532 F5400
G1 X107.092 Y59.406 E222.4858 F2400
G0 X107.092 Y59.972 F5400
G1 X94.010 Y46.890 E223.4088 F2400
G0 X93.763 Y47.208 F5400
G1 X107.092 Y60.538 E224.3492 F2400
G0 X107.092 Y61.103 F5400
G1 X93.477 Y47.489 E225.3098 F2400
G0 X93.154 Y47.731 F5400
G1 X107.092 Y61.669 E226.2932 F2400
G0 X107.092 Y62.235 F5400
G1 X98.589 Y53.731 E226.8931 F2400
G0 X98.949 Y54.658 F5400
G1 X107.092 Y62.800 E227.4676 F2400
G0 X107.092 Y63.366 F5400
G1 X99.013 Y55.287 E228.0376 F2400
G0 X99.013 Y55.853 F5400
G1 X107.092 Y63.932 E228.6076 F2400
G0 X107.092 Y64.497 F5400
G1 X99.013 Y56.419 E229.1777 F2400
G0 X99.013 Y56.984 F5400
G1 X107.092 Y65.063 E229.7477 F2400
G0 X107.092 Y65.629 F5400
G1 X99.013 Y57.550 E230.3177 F2400
G0 X99.013 Y58.116 F5400
G1 X107.092 Y66.194 E230.8877 F2400
G0 X107.092 Y66.760 F5400
G1 X99.013 Y58.681 E231.4577 F2400
G0 X99.013 Y59.247 F5400
G1 X107.092 Y67.326 E232.0277 F2400
G0 X107.092 Y67.891 F5400
G1 X99.013 Y59.813 E232.5977 F2400
G0 X99.013 Y60.378 F5400
G1 X107.092 Y68.457 E233.1677 F2400
G0 X107.092 Y69.023 F5400
G1 X99.013 Y60.944 E233.7377 F2400
G0 X99.013 Y61.510 F5400
G1 X107.092 Y69.589 E234.3077 F2400
G0 X107.092 Y70.154 F5400
G1 X99.013 Y62.075 E234.8777 F2400
G0 X99.013 Y62.641 F5400
G1 X107.092 Y70.720 E235.4477 F2400
G0 X107.092 Y71.286 F5400
G1 X99.013 Y63.207 E236.0177 F2400
G0 X99.013 Y63.772 F5400
G1 X107.092 Y71.851 E236.5878 F2400
G0 X107.092 Y72.417 F5400
G1 X99.013 Y64.338 E237.1578 F2400
G0 X99.013 Y64.904 F5400
G1 X107.092 Y72.983 E237.7278 F2400
G0 X107.092 Y73.548 F5400
G1 X99.013 Y65.470 E238.2978 F2400
G0 X99.013 Y66.035 F5400
G1 X107.092 Y74.114 E238.8678 F2400
G0 X107.092 Y74.680 F5400
G1 X99.013 Y66.601 E239.4378 F2400
G0 X99.013 Y67.167 F5400
G1 X107.092 Y75.245 E240.0078 F2400
G0 X107.092 Y75.811 F5400
G1 X99.013 Y67.732 E240.5778 F2400
G0 X99.013 Y68.298 F5400
G1 X107.092 Y76.377 E241.1478 F2400
G0 X107.092 Y76.942 F5400
G1 X99.013 Y68.864 E241.7178 F2400
G0 X99.013 Y69.429 F5400
G1 X107.092 Y77.508 E242.2878 F2400
G0 X107.092 Y78.074 F5400
G1 X99.013 Y69.995 E242.8578 F2400
G0 X99.013 Y70.561 F5400
G1 X107.092 Y78.640 E243.4278 F2400
G0 X107.092 Y79.205 F5400
G1 X99.013 Y71.126 E243.9978 F2400
G0 X99.013 Y71.692 F5400
G1 X107.092 Y79.771 E244.5679 F2400
G0 X107.092 Y80.337 F5400
G1 X99.013 Y72.258 E245.1379 F2400
G0 X99.013 Y72.823 F5400
G1 X107.092 Y80.902 E245.7079 F2400
G0 X107.092 Y81.468 F5400
G1 X99.013 Y73.389 E246.2779 F2400
G0 X99.013 Y73.955 F5400
G1 X107.092 Y82.034 E246.8479 F2400
G0 X107.092 Y82.599 F5400
G1 X99.013 Y74.520 E247.4179 F2400
G0 X99.013 Y75.086 F5400
G1 X107.092 Y83.165 E247.9879 F2400
G0 X107.545 Y84.184 F5400
G1 X99.013 Y75.652 E248.5899 F2400
G0 X99.545 Y90.891 F5400
G1 X98.544 Y89.891 E248.6605 F2400
G0 X97.908 Y88.688 F5400
G1 X100.786 Y91.567 E248.8636 F2400
G0 X101.565 Y91.780 F5400
G1 X97.698 Y87.913 E249.1365 F2400
G0 X97.628 Y87.278 F5400
G1 X102.214 Y91.863 E249.4600 F2400
G0 X102.768 Y91.852 F5400
G1 X97.628 Y86.712 E249.8227 F2400
G0 X97.687 Y86.205 F5400
G1 X103.334 Y91.852 E250.2211 F2400
G0 X103.911 Y91.864 F5400
G1 X97.798 Y85.750 E250.6524 F2400
G0 X97.926 Y85.313 F5400
G1 X104.413 Y91.800 E251.1101 F2400
G0 X104.889 Y91.710 F5400
G1 X98.109 Y84.930 E251.5885 F2400
G0 X98.295 Y84.551 F5400
G1 X105.313 Y91.569 E252.0836 F2400
G0 X105.716 Y91.406 F5400
G1 X98.532 Y84.222 E252.5905 F2400
G0 X98.770 Y83.894 F5400
G1 X106.085 Y91.209 E253.1066 F2400
G0 X106.433 Y90.991 F5400
G1 X99.008 Y83.566 E253.6305 F2400
G0 X99.013 Y83.006 F5400
G1 X106.750 Y90.743 E254.1764 F2400
G0 X107.050 Y90.477 F5400
G1 X99.013 Y82.440 E254.7435 F2400
G0 X99.013 Y81.874 F5400
G1 X107.320 Y90.181 E255.3296 F2400
G0 X107.574 Y89.870 F5400
G1 X99.013 Y81.309 E255.9336 F2400
G0 X99.013 Y80.743 F5400
G1 X107.794 Y89.524 E256.5532 F2400
G0 X107.999 Y89.163 F5400
G1 X99.013 Y80.177 E257.1871 F2400
G0 X99.013 Y79.612 F5400
G1 X108.166 Y88.764 E257.8329 F2400
G0 X108.309 Y88.342 F5400
G1 X99.013 Y79.046 E258.4888 F2400
G0 X99.013 Y78.480 F5400
G1 X108.414 Y87.882 E259.1521 F2400
G0 X108.471 Y87.373 F5400
G1 X99.013 Y77.915 E259.8194 F2400
G0 X99.013 Y77.349 F5400
G1 X108.490 Y86.826 E260.4880 F2400
G0 X108.416 Y86.186 F5400
G1 X99.013 Y76.783 E261.1514 F2400
G0 X99.013 Y76.218 F5400
G1 X108.208 Y85.412 E261.8002 F2400
; ------------------------------------
; Layer #1
; ------------------------------------
M106 S0 ;turn off fan
G92 E0 ;reset extr
G0 F3000 E-1.0000
G0 F1200 Z0.600
G0 X89.336 Y57.299 F7200
G0 X87.885 Y55.136
G0 X86.433 Y52.974
G0 X82.078 Y46.486
G0 X80.626 Y44.324
G0 X77.723 Y39.998
G0 X76.271 Y37.836
G0 X69.013 Y27.023
G0 F3000 E0.0000
;segType:HShell
G1 X71.828 Y24.208 E0.1986 F3600
G0 X71.262 Y24.208 F7200
G1 X69.013 Y26.457 E0.3573 F3600
G0 X69.013 Y25.892 F7200
G1 X70.697 Y24.208 E0.4761 F3600
G0 X70.131 Y24.208 F7200
G1 X69.013 Y25.326 E0.5550 F3600
G0 X69.013 Y24.760 F7200
G1 X69.565 Y24.208 E0.5940 F3600
;segType:Perimeter
G0 X68.313 Y23.448 F7200
G1 X137.852 Y23.448 E4.0633 F2160
G1 X137.852 Y53.047 E5.5401
G1 X110.045 Y53.047 E6.9274
G1 X109.708 Y53.073 E6.9442
G1 X109.372 Y53.154 E6.9615
G1 X109.053 Y53.286 E6.9787
G1 X108.759 Y53.467 E6.9959
G1 X108.496 Y53.691 E7.0131
G1 X108.272 Y53.953 E7.0304
G1 X108.091 Y54.248 E7.0476
G1 X107.959 Y54.567 E7.0648
G1 X107.878 Y54.903 E7.0821
G1 X107.852 Y55.239 E7.0989
G1 X107.852 Y83.312 E8.4995
G1 X108.460 Y84.151 E8.5512
G1 X108.881 Y85.008 E8.5988
G1 X109.150 Y85.924 E8.6464
G1 X109.261 Y86.871 E8.6940
G1 X109.208 Y87.824 E8.7416
G1 X108.994 Y88.754 E8.7892
G1 X108.625 Y89.634 E8.8368
G1 X108.113 Y90.439 E8.8844
G1 X107.471 Y91.145 E8.9321
G1 X106.718 Y91.732 E8.9797
G1 X105.877 Y92.183 E9.0273
G1 X104.971 Y92.484 E9.0749
G1 X104.028 Y92.627 E9.1225
G1 X103.053 Y92.607 E9.1712
G1 X102.077 Y92.627 E9.2198
G1 X101.134 Y92.484 E9.2674
G1 X100.228 Y92.183 E9.3150
G1 X99.387 Y91.732 E9.3627
G1 X98.634 Y91.145 E9.4103
G1 X97.992 Y90.439 E9.4579
G1 X97.480 Y89.634 E9.5055
G1 X97.111 Y88.754 E9.5531
G1 X96.897 Y87.824 E9.6007
G1 X96.845 Y86.871 E9.6483
G1 X96.955 Y85.923 E9.6959
G1 X97.225 Y85.006 E9.7436
G1 X97.645 Y84.151 E9.7911
G1 X98.253 Y83.312 E9.8429
G1 X98.253 Y55.239 E11.2434
G1 X98.227 Y54.903 E11.2602
G1 X98.146 Y54.567 E11.2775
G1 X98.014 Y54.248 E11.2947
G1 X97.833 Y53.953 E11.3120
G1 X97.609 Y53.691 E11.3292
G1 X97.346 Y53.467 E11.3464
G1 X97.052 Y53.286 E11.3636
G1 X96.733 Y53.154 E11.3809
G1 X96.397 Y53.073 E11.3981
G1 X96.060 Y53.047 E11.4149
G1 X68.253 Y53.047 E12.8023
G1 X68.253 Y23.508 E14.2760
G0 X69.026 Y23.715 F7200
;segType:Loop
G0 X69.353 Y23.848
G1 X137.452 Y23.848 E17.6735 F3600
G1 X137.452 Y52.647 E19.1103
G1 X110.029 Y52.647 E20.4784
G1 X109.645 Y52.677 E20.4976
G1 X109.248 Y52.772 E20.5180
G1 X108.871 Y52.928 E20.5383
G1 X108.523 Y53.142 E20.5587
G1 X108.212 Y53.407 E20.5791
G1 X107.947 Y53.718 E20.5995
G1 X107.734 Y54.066 E20.6198
G1 X107.578 Y54.443 E20.6402
G1 X107.482 Y54.840 E20.6606
G1 X107.452 Y55.224 E20.6798
G1 X107.452 Y83.442 E22.0876
G1 X108.117 Y84.358 E22.1441
G1 X108.507 Y85.154 E22.1883
G1 X108.757 Y86.004 E22.2325
G1 X108.859 Y86.883 E22.2767
G1 X108.810 Y87.768 E22.3209
G1 X108.612 Y88.631 E22.3651
G1 X108.270 Y89.448 E22.4093
G1 X107.794 Y90.195 E22.4535
G1 X107.198 Y90.851 E22.4977
G1 X106.499 Y91.396 E22.5418
G1 X105.718 Y91.814 E22.5860
G1 X104.878 Y92.093 E22.6302
G1 X104.002 Y92.226 E22.6744
G1 X103.053 Y92.207 E22.7218
G1 X102.103 Y92.226 E22.7692
G1 X101.227 Y92.093 E22.8134
G1 X100.387 Y91.814 E22.8576
G1 X99.606 Y91.396 E22.9018
G1 X98.907 Y90.851 E22.9459
G1 X98.311 Y90.196 E22.9901
G1 X97.835 Y89.448 E23.0343
G1 X97.493 Y88.631 E23.0785
G1 X97.295 Y87.768 E23.1227
G1 X97.246 Y86.883 E23.1669
G1 X97.348 Y86.004 E23.2111
G1 X97.599 Y85.152 E23.2554
G1 X97.988 Y84.358 E23.2995
G1 X98.653 Y83.442 E23.3560
G1 X98.653 Y55.224 E24.7638
G1 X98.623 Y54.840 E24.7830
G1 X98.527 Y54.443 E24.8034
G1 X98.371 Y54.066 E24.8238
G1 X98.158 Y53.718 E24.8441
G1 X97.893 Y53.407 E24.8645
G1 X97.582 Y53.142 E24.8849
G1 X97.234 Y52.928 E24.9052
G1 X96.857 Y52.772 E24.9256
G1 X96.460 Y52.677 E24.9460
G1 X96.076 Y52.647 E24.9652
G1 X68.653 Y52.647 E26.3333
G1 X68.653 Y23.848 E27.7701
G1 X69.153 Y23.848 E27.7951
;segType:HShell
G0 X81.883 Y29.427 F7200
G1 X87.102 Y24.208 E28.1633 F3600
G0 X86.536 Y24.208 F7200
G1 X81.618 Y29.126 E28.5103 F3600
;segType:Perimeter
G0 X81.555 Y29.832 F7200
G1 X81.660 Y30.625 E28.5502 F2160
G1 X81.726 Y30.903 E28.5644
G1 X81.753 Y31.239 E28.5813
G1 X81.753 Y45.255 E29.2805
G1 X81.726 Y45.592 E29.2974
G1 X81.646 Y45.927 E29.3146
G1 X81.514 Y46.246 E29.3318
G1 X81.333 Y46.541 E29.3491
G1 X81.109 Y46.804 E29.3663
G1 X80.846 Y47.028 E29.3835
G1 X80.552 Y47.208 E29.4007
G1 X80.233 Y47.341 E29.4180
G1 X79.897 Y47.421 E29.4352
G1 X79.560 Y47.448 E29.4520
G1 X78.545 Y47.448 E29.5027
G1 X78.208 Y47.421 E29.5195
G1 X77.872 Y47.341 E29.5368
G1 X77.553 Y47.208 E29.5540
G1 X77.259 Y47.028 E29.5713
G1 X76.996 Y46.803 E29.5885
G1 X76.772 Y46.541 E29.6057
G1 X76.591 Y46.246 E29.6229
G1 X76.459 Y45.927 E29.6402
G1 X76.378 Y45.592 E29.6574
G1 X76.352 Y45.255 E29.6743
G1 X76.352 Y31.239 E30.3735
G1 X76.378 Y30.903 E30.3903
G1 X76.459 Y30.567 E30.4076
G1 X76.591 Y30.248 E30.4248
G1 X76.772 Y29.954 E30.4420
G1 X76.996 Y29.691 E30.4593
G1 X77.259 Y29.467 E30.4765
G1 X77.553 Y29.286 E30.4937
G1 X77.872 Y29.154 E30.5109
G1 X78.208 Y29.073 E30.5282
G1 X78.545 Y29.047 E30.5450
G1 X79.561 Y29.047 E30.5957
G1 X79.897 Y29.073 E30.6125
G1 X80.233 Y29.154 E30.6298
G1 X80.552 Y29.286 E30.6470
G1 X80.846 Y29.467 E30.6642
G1 X81.109 Y29.691 E30.6814
G1 X81.333 Y29.954 E30.6987
G1 X81.514 Y30.248 E30.7159
G1 X81.623 Y30.512 E30.7301
G0 X82.004 Y31.215 F7200
;segType:Loop
G0 X82.153 Y31.656
G1 X82.153 Y45.271 E31.4094 F3600
G1 X82.123 Y45.654 E31.4286
G1 X82.027 Y46.051 E31.4489
G1 X81.871 Y46.429 E31.4693
G1 X81.658 Y46.777 E31.4897
G1 X81.392 Y47.087 E31.5101
G1 X81.082 Y47.353 E31.5304
G1 X80.734 Y47.566 E31.5508
G1 X80.357 Y47.722 E31.5712
G1 X79.960 Y47.817 E31.5915
G1 X79.576 Y47.848 E31.6107
G1 X78.529 Y47.848 E31.6630
G1 X78.146 Y47.817 E31.6822
G1 X77.748 Y47.722 E31.7025
G1 X77.371 Y47.566 E31.7229
G1 X77.023 Y47.353 E31.7433
G1 X76.712 Y47.087 E31.7637
G1 X76.447 Y46.777 E31.7840
G1 X76.234 Y46.429 E31.8044
G1 X76.078 Y46.051 E31.8248
G1 X75.982 Y45.654 E31.8451
G1 X75.952 Y45.271 E31.8644
G1 X75.952 Y31.224 E32.5652
G1 X75.982 Y30.840 E32.5844
G1 X76.078 Y30.443 E32.6047
G1 X76.234 Y30.066 E32.6251
G1 X76.447 Y29.718 E32.6455
G1 X76.712 Y29.407 E32.6658
G1 X77.023 Y29.142 E32.6862
G1 X77.371 Y28.929 E32.7066
G1 X77.748 Y28.772 E32.7270
G1 X78.145 Y28.677 E32.7473
G1 X78.529 Y28.647 E32.7665
G1 X79.576 Y28.647 E32.8188
G1 X79.960 Y28.677 E32.8380
G1 X80.357 Y28.772 E32.8583
G1 X80.734 Y28.929 E32.8787
G1 X81.082 Y29.142 E32.8991
G1 X81.392 Y29.407 E32.9194
G1 X81.658 Y29.718 E32.9398
G1 X81.871 Y30.066 E32.9602
G1 X82.027 Y30.443 E32.9805
G1 X82.123 Y30.840 E33.0009
G1 X82.153 Y31.224 E33.0201
G1 X82.153 Y31.456 E33.0317
G0 X82.153 Y31.456 F7200
G0 X87.952 Y38.671
G0 X87.952 Y38.671
G0 X87.952 Y45.271
G0 X87.982 Y45.654
G0 X88.078 Y46.051
G0 X88.234 Y46.429
G0 X88.447 Y46.777
G0 X88.713 Y47.087
G0 X89.023 Y47.353
G0 X89.371 Y47.566
G0 X89.748 Y47.722
G0 X90.146 Y47.817
G0 X90.529 Y47.848
G0 X91.576 Y47.848
G0 X91.959 Y47.817
G0 X92.357 Y47.722
G0 X92.734 Y47.566
G0 X93.082 Y47.353
G0 X93.393 Y47.087
G0 X93.658 Y46.777
G0 X93.871 Y46.429
G0 X93.979 Y46.169
G0 X93.979 Y46.169
G0 X94.244 Y46.499
;segType:HShell
G0 X94.236 Y46.489
G1 X99.592 Y41.133 E33.4096 F3600
G0 X99.592 Y40.567 F7200
G1 X94.482 Y45.677 E33.7701 F3600
;segType:Perimeter
G0 X93.969 Y45.663 F7200
G1 X93.482 Y46.298 E33.8101 F2160
G1 X93.333 Y46.541 E33.8243
G1 X93.109 Y46.803 E33.8415
G1 X92.846 Y47.028 E33.8588
G1 X92.552 Y47.208 E33.8760
G1 X92.233 Y47.341 E33.8932
G1 X91.897 Y47.421 E33.9105
G1 X91.560 Y47.448 E33.9273
G1 X90.545 Y47.448 E33.9780
G1 X90.208 Y47.421 E33.9948
G1 X89.872 Y47.341 E34.0120
G1 X89.553 Y47.208 E34.0293
G1 X89.259 Y47.028 E34.0465
G1 X88.996 Y46.803 E34.0637
G1 X88.772 Y46.541 E34.0809
G1 X88.591 Y46.247 E34.0982
G1 X88.459 Y45.927 E34.1154
G1 X88.379 Y45.592 E34.1326
G1 X88.352 Y45.255 E34.1495
G1 X88.352 Y31.239 E34.8487
G1 X88.379 Y30.903 E34.8656
G1 X88.459 Y30.567 E34.8828
G1 X88.591 Y30.248 E34.9000
G1 X88.772 Y29.954 E34.9172
G1 X88.996 Y29.691 E34.9345
G1 X89.259 Y29.467 E34.9517
G1 X89.553 Y29.286 E34.9689
G1 X89.872 Y29.154 E34.9862
G1 X90.208 Y29.073 E35.0034
G1 X90.544 Y29.047 E35.0202
G1 X91.561 Y29.047 E35.0709
G1 X91.897 Y29.073 E35.0878
G1 X92.233 Y29.154 E35.1050
G1 X92.552 Y29.286 E35.1222
G1 X92.846 Y29.467 E35.1395
G1 X93.109 Y29.691 E35.1567
G1 X93.333 Y29.954 E35.1739
G1 X93.514 Y30.248 E35.1911
G1 X93.646 Y30.567 E35.2084
G1 X93.727 Y30.903 E35.2256
G1 X93.753 Y31.239 E35.2424
G1 X93.753 Y45.255 E35.9417
G1 X93.727 Y45.592 E35.9585
G1 X93.646 Y45.927 E35.9758
G1 X93.537 Y46.191 E35.9900
G0 X93.309 Y46.958 F7200
;segType:Loop
G0 X92.997 Y47.405
G1 X92.734 Y47.566 E36.0054 F3600
G1 X92.357 Y47.722 E36.0258
G1 X91.959 Y47.817 E36.0461
G1 X91.576 Y47.848 E36.0653
G1 X90.529 Y47.848 E36.1176
G1 X90.146 Y47.817 E36.1368
G1 X89.748 Y47.722 E36.1571
G1 X89.371 Y47.566 E36.1775
G1 X89.023 Y47.353 E36.1979
G1 X88.713 Y47.087 E36.2182
G1 X88.447 Y46.777 E36.2386
G1 X88.234 Y46.429 E36.2590
G1 X88.078 Y46.051 E36.2794
G1 X87.982 Y45.654 E36.2997
G1 X87.952 Y45.271 E36.3189
G1 X87.952 Y31.224 E37.0197
G1 X87.982 Y30.840 E37.0389
G1 X88.078 Y30.443 E37.0593
G1 X88.234 Y30.066 E37.0797
G1 X88.447 Y29.718 E37.1000
G1 X88.713 Y29.407 E37.1204
G1 X89.023 Y29.142 E37.1408
G1 X89.371 Y28.929 E37.1611
G1 X89.748 Y28.772 E37.1815
G1 X90.145 Y28.677 E37.2019
G1 X90.529 Y28.647 E37.2211
G1 X91.576 Y28.647 E37.2733
G1 X91.960 Y28.677 E37.2925
G1 X92.357 Y28.772 E37.3129
G1 X92.734 Y28.929 E37.3333
G1 X93.082 Y29.142 E37.3536
G1 X93.393 Y29.407 E37.3740
G1 X93.658 Y29.718 E37.3944
G1 X93.871 Y30.066 E37.4148
G1 X94.027 Y30.443 E37.4351
G1 X94.123 Y30.840 E37.4555
G1 X94.153 Y31.224 E37.4747
G1 X94.153 Y45.271 E38.1755
G1 X94.123 Y45.654 E38.1947
G1 X94.027 Y46.051 E38.2151
G1 X93.871 Y46.429 E38.2354
G1 X93.658 Y46.777 E38.2558
G1 X93.393 Y47.087 E38.2762
;segType:HShell
G0 X99.876 Y46.506 F7200
G1 X94.095 Y52.287 E38.6840 F3600
G0 X93.530 Y52.287 F7200
G1 X99.719 Y46.098 E39.1207 F3600
;segType:Perimeter
G0 X100.353 Y46.332 F7200
G1 X100.374 Y45.532 E39.1606 F2160
G1 X100.352 Y45.255 E39.1745
G1 X100.352 Y31.239 E39.8737
G1 X100.379 Y30.903 E39.8906
G1 X100.459 Y30.567 E39.9078
G1 X100.591 Y30.248 E39.9250
G1 X100.772 Y29.954 E39.9422
G1 X100.996 Y29.691 E39.9595
G1 X101.259 Y29.467 E39.9767
G1 X101.553 Y29.286 E39.9939
G1 X101.872 Y29.154 E40.0112
G1 X102.208 Y29.073 E40.0284
G1 X102.545 Y29.047 E40.0452
G1 X103.560 Y29.047 E40.0959
G1 X103.897 Y29.073 E40.1128
G1 X104.233 Y29.154 E40.1300
G1 X104.552 Y29.286 E40.1472
G1 X104.846 Y29.467 E40.1644
G1 X105.109 Y29.691 E40.1817
G1 X105.333 Y29.954 E40.1989
G1 X105.514 Y30.248 E40.2161
G1 X105.646 Y30.567 E40.2334
G1 X105.726 Y30.903 E40.2506
G1 X105.753 Y31.239 E40.2674
G1 X105.753 Y45.255 E40.9667
G1 X105.726 Y45.592 E40.9835
G1 X105.646 Y45.927 E41.0008
G1 X105.514 Y46.247 E41.0180
G1 X105.333 Y46.541 E41.0352
G1 X105.109 Y46.803 E41.0524
G1 X104.846 Y47.028 E41.0697
G1 X104.552 Y47.208 E41.0869
G1 X104.233 Y47.341 E41.1041
G1 X103.897 Y47.421 E41.1214
G1 X103.560 Y47.448 E41.1382
G1 X102.545 Y47.448 E41.1889
G1 X102.208 Y47.421 E41.2057
G1 X101.872 Y47.341 E41.2230
G1 X101.553 Y47.208 E41.2402
G1 X101.259 Y47.028 E41.2574
G1 X100.996 Y46.804 E41.2747
G1 X100.772 Y46.541 E41.2919
G1 X100.591 Y46.246 E41.3091
G1 X100.459 Y45.927 E41.3264
G1 X100.393 Y45.650 E41.3406
G0 X100.126 Y44.896 F7200
;segType:Loop
G0 X99.952 Y44.493
G1 X99.952 Y31.224 E42.0026 F3600
G1 X99.982 Y30.840 E42.0218
G1 X100.078 Y30.443 E42.0422
G1 X100.234 Y30.066 E42.0625
G1 X100.447 Y29.718 E42.0829
G1 X100.712 Y29.407 E42.1033
G1 X101.023 Y29.142 E42.1236
G1 X101.371 Y28.929 E42.1440
G1 X101.748 Y28.772 E42.1644
G1 X102.145 Y28.677 E42.1847
G1 X102.529 Y28.647 E42.2039
G1 X103.576 Y28.647 E42.2562
G1 X103.960 Y28.677 E42.2754
G1 X104.357 Y28.772 E42.2957
G1 X104.734 Y28.929 E42.3161
G1 X105.082 Y29.142 E42.3365
G1 X105.393 Y29.407 E42.3569
G1 X105.658 Y29.718 E42.3772
G1 X105.871 Y30.066 E42.3976
G1 X106.027 Y30.443 E42.4180
G1 X106.123 Y30.840 E42.4384
G1 X106.153 Y31.224 E42.4575
G1 X106.153 Y45.271 E43.1584
G1 X106.123 Y45.654 E43.1776
G1 X106.027 Y46.051 E43.1979
G1 X105.871 Y46.429 E43.2183
G1 X105.658 Y46.777 E43.2387
G1 X105.393 Y47.087 E43.2590
G1 X105.082 Y47.353 E43.2794
G1 X104.734 Y47.566 E43.2998
G1 X104.357 Y47.722 E43.3202
G1 X103.960 Y47.817 E43.3405
G1 X103.576 Y47.848 E43.3597
G1 X102.529 Y47.848 E43.4120
G1 X102.145 Y47.817 E43.4312
G1 X101.748 Y47.722 E43.4515
G1 X101.371 Y47.566 E43.4719
G1 X101.023 Y47.353 E43.4923
G1 X100.712 Y47.087 E43.5127
G1 X100.447 Y46.777 E43.5330
G1 X100.234 Y46.429 E43.5534
G1 X100.078 Y46.051 E43.5738
G1 X99.982 Y45.654 E43.5941
G1 X99.952 Y45.271 E43.6133
G1 X99.952 Y44.693 E43.6422
G0 X99.952 Y44.693 F7200
G0 X99.952 Y31.224
G0 X99.982 Y30.840
G0 X100.078 Y30.443
G0 X100.234 Y30.066
G0 X100.447 Y29.718
G0 X100.712 Y29.407
G0 X101.023 Y29.142
G0 X101.371 Y28.929
G0 X101.748 Y28.772
G0 X102.145 Y28.677
G0 X102.529 Y28.647
G0 X103.576 Y28.647
G0 X103.960 Y28.677
G0 X104.357 Y28.772
G0 X104.734 Y28.929
G0 X105.082 Y29.142
G0 X105.393 Y29.407
G0 X105.658 Y29.718
G0 X105.871 Y30.066
G0 X106.027 Y30.443
G0 X106.123 Y30.840
G0 X106.153 Y31.224
G0 X106.153 Y35.322
G0 X106.153 Y35.322
G0 X106.520 Y34.767
;segType:HShell
G0 X106.513 Y34.778
G1 X117.083 Y24.208 E44.3879 F3600
G0 X117.649 Y24.208 F7200
G1 X113.280 Y28.577 E44.6962 F3600
;segType:Perimeter
G0 X113.138 Y29.245 F7200
G1 X113.931 Y29.140 E44.7361 F2160
G1 X114.208 Y29.073 E44.7503
G1 X114.545 Y29.047 E44.7672
G1 X115.561 Y29.047 E44.8179
G1 X115.897 Y29.073 E44.8347
G1 X116.233 Y29.154 E44.8519
G1 X116.552 Y29.286 E44.8692
G1 X116.846 Y29.467 E44.8864
G1 X117.109 Y29.691 E44.9036
G1 X117.333 Y29.954 E44.9209
G1 X117.514 Y30.248 E44.9381
G1 X117.646 Y30.567 E44.9553
G1 X117.726 Y30.903 E44.9725
G1 X117.753 Y31.239 E44.9894
G1 X117.753 Y45.255 E45.6886
G1 X117.726 Y45.592 E45.7055
G1 X117.646 Y45.927 E45.7227
G1 X117.514 Y46.246 E45.7399
G1 X117.333 Y46.541 E45.7572
G1 X117.109 Y46.804 E45.7744
G1 X116.846 Y47.028 E45.7916
G1 X116.552 Y47.208 E45.8088
G1 X116.233 Y47.341 E45.8261
G1 X115.897 Y47.421 E45.8433
G1 X115.560 Y47.448 E45.8601
G1 X114.545 Y47.448 E45.9108
G1 X114.208 Y47.421 E45.9277
G1 X113.872 Y47.341 E45.9449
G1 X113.553 Y47.208 E45.9621
G1 X113.259 Y47.028 E45.9794
G1 X112.996 Y46.803 E45.9966
G1 X112.772 Y46.541 E46.0138
G1 X112.591 Y46.247 E46.0310
G1 X112.459 Y45.927 E46.0483
G1 X112.378 Y45.592 E46.0655
G1 X112.352 Y45.255 E46.0824
G1 X112.352 Y31.239 E46.7816
G1 X112.378 Y30.903 E46.7984
G1 X112.459 Y30.567 E46.8157
G1 X112.591 Y30.248 E46.8329
G1 X112.772 Y29.954 E46.8501
G1 X112.996 Y29.691 E46.8674
G1 X113.259 Y29.467 E46.8846
G1 X113.553 Y29.286 E46.9018
G1 X113.817 Y29.177 E46.9161
G0 X114.520 Y28.795 F7200
;segType:Loop
G0 X114.962 Y28.647
G1 X115.576 Y28.647 E46.9467 F3600
G1 X115.960 Y28.677 E46.9659
G1 X116.357 Y28.772 E46.9863
G1 X116.734 Y28.929 E47.0067
G1 X117.082 Y29.142 E47.0270
G1 X117.393 Y29.407 E47.0474
G1 X117.658 Y29.718 E47.0678
G1 X117.871 Y30.066 E47.0881
G1 X118.027 Y30.443 E47.1085
G1 X118.123 Y30.840 E47.1289
G1 X118.153 Y31.224 E47.1481
G1 X118.153 Y45.271 E47.8489
G1 X118.123 Y45.654 E47.8681
G1 X118.027 Y46.051 E47.8885
G1 X117.871 Y46.429 E47.9088
G1 X117.658 Y46.777 E47.9292
G1 X117.392 Y47.087 E47.9496
G1 X117.082 Y47.353 E47.9699
G1 X116.734 Y47.566 E47.9903
G1 X116.357 Y47.722 E48.0107
G1 X115.960 Y47.817 E48.0311
G1 X115.576 Y47.848 E48.0503
G1 X114.529 Y47.848 E48.1025
G1 X114.146 Y47.817 E48.1217
G1 X113.748 Y47.722 E48.1421
G1 X113.371 Y47.566 E48.1624
G1 X113.023 Y47.353 E48.1828
G1 X112.712 Y47.087 E48.2032
G1 X112.447 Y46.777 E48.2235
G1 X112.234 Y46.429 E48.2439
G1 X112.078 Y46.051 E48.2643
G1 X111.982 Y45.654 E48.2847
G1 X111.952 Y45.271 E48.3039
G1 X111.952 Y31.224 E49.0047
G1 X111.982 Y30.840 E49.0239
G1 X112.078 Y30.443 E49.0442
G1 X112.234 Y30.066 E49.0646
G1 X112.447 Y29.718 E49.0850
G1 X112.712 Y29.407 E49.1054
G1 X113.023 Y29.142 E49.1257
G1 X113.371 Y28.929 E49.1461
G1 X113.748 Y28.772 E49.1665
G1 X114.145 Y28.677 E49.1868
G1 X114.529 Y28.647 E49.2060
G1 X114.762 Y28.647 E49.2177
G0 X114.762 Y28.647 F7200
G0 X115.576 Y28.647
G0 X115.960 Y28.677
G0 X116.357 Y28.772
G0 X116.734 Y28.929
G0 X117.082 Y29.142
G0 X117.393 Y29.407
G0 X117.658 Y29.718
G0 X117.871 Y30.066
G0 X118.027 Y30.443
G0 X118.123 Y30.840
G0 X118.153 Y31.224
G0 X118.153 Y32.229
G0 X118.153 Y32.229
G0 X123.952 Y38.354
G0 X123.952 Y38.354
G0 X123.952 Y31.224
G0 X123.982 Y30.840
G0 X124.078 Y30.443
G0 X124.234 Y30.066
G0 X124.447 Y29.718
G0 X124.713 Y29.407
G0 X125.023 Y29.142
G0 X125.371 Y28.929
G0 X125.748 Y28.772
G0 X126.145 Y28.677
G0 X126.529 Y28.647
G0 X127.576 Y28.647
G0 X127.960 Y28.677
G0 X128.357 Y28.772
G0 X128.734 Y28.929
G0 X129.082 Y29.142
G0 X129.393 Y29.407
G0 X129.658 Y29.718
G0 X129.871 Y30.066
G0 X130.027 Y30.443
G0 X130.123 Y30.840
G0 X130.153 Y31.224
G0 X130.153 Y44.904
G0 X130.153 Y44.904
G0 X130.522 Y45.294
;segType:HShell
G0 X130.513 Y45.284
G1 X137.092 Y38.705 E49.6818 F3600
G0 X137.092 Y39.271 F7200
G1 X130.425 Y45.938 E50.1522 F3600
;segType:Perimeter
G0 X129.969 Y45.663 F7200
G1 X129.482 Y46.298 E50.1922 F2160
G1 X129.333 Y46.541 E50.2064
G1 X129.109 Y46.803 E50.2236
G1 X128.846 Y47.028 E50.2409
G1 X128.552 Y47.208 E50.2581
G1 X128.233 Y47.341 E50.2753
G1 X127.897 Y47.421 E50.2926
G1 X127.560 Y47.448 E50.3094
G1 X126.545 Y47.448 E50.3601
G1 X126.208 Y47.421 E50.3769
G1 X125.872 Y47.341 E50.3941
G1 X125.553 Y47.208 E50.4114
G1 X125.259 Y47.028 E50.4286
G1 X124.996 Y46.804 E50.4458
G1 X124.772 Y46.541 E50.4631
G1 X124.591 Y46.247 E50.4803
G1 X124.459 Y45.927 E50.4975
G1 X124.379 Y45.592 E50.5147
G1 X124.352 Y45.255 E50.5316
G1 X124.352 Y31.239 E51.2308
G1 X124.379 Y30.903 E51.2477
G1 X124.459 Y30.567 E51.2649
G1 X124.591 Y30.248 E51.2821
G1 X124.772 Y29.954 E51.2994
G1 X124.996 Y29.691 E51.3166
G1 X125.259 Y29.467 E51.3338
G1 X125.553 Y29.286 E51.3510
G1 X125.872 Y29.154 E51.3683
G1 X126.208 Y29.073 E51.3855
G1 X126.544 Y29.047 E51.4023
G1 X127.561 Y29.047 E51.4530
G1 X127.897 Y29.073 E51.4699
G1 X128.233 Y29.154 E51.4871
G1 X128.552 Y29.286 E51.5043
G1 X128.846 Y29.467 E51.5216
G1 X129.109 Y29.691 E51.5388
G1 X129.333 Y29.954 E51.5560
G1 X129.514 Y30.248 E51.5733
G1 X129.646 Y30.567 E51.5905
G1 X129.727 Y30.903 E51.6077
G1 X129.753 Y31.239 E51.6246
G1 X129.753 Y45.255 E52.3238
G1 X129.727 Y45.592 E52.3406
G1 X129.646 Y45.927 E52.3579
G1 X129.537 Y46.191 E52.3721
G0 X129.309 Y46.958 F7200
;segType:Loop
G0 X128.997 Y47.405
G1 X128.734 Y47.566 E52.3875 F3600
G1 X128.357 Y47.722 E52.4079
G1 X127.959 Y47.817 E52.4282
G1 X127.576 Y47.848 E52.4474
G1 X126.529 Y47.848 E52.4997
G1 X126.146 Y47.817 E52.5189
G1 X125.748 Y47.722 E52.5392
G1 X125.371 Y47.566 E52.5596
G1 X125.023 Y47.353 E52.5800
G1 X124.713 Y47.087 E52.6003
G1 X124.447 Y46.777 E52.6207
G1 X124.234 Y46.429 E52.6411
G1 X124.078 Y46.051 E52.6615
G1 X123.982 Y45.654 E52.6818
G1 X123.952 Y45.271 E52.7010
G1 X123.952 Y31.224 E53.4018
G1 X123.982 Y30.840 E53.4210
G1 X124.078 Y30.443 E53.4414
G1 X124.234 Y30.066 E53.4618
G1 X124.447 Y29.718 E53.4821
G1 X124.713 Y29.407 E53.5025
G1 X125.023 Y29.142 E53.5229
G1 X125.371 Y28.929 E53.5433
G1 X125.748 Y28.772 E53.5637
G1 X126.145 Y28.677 E53.5840
G1 X126.529 Y28.647 E53.6032
G1 X127.576 Y28.647 E53.6555
G1 X127.960 Y28.677 E53.6746
G1 X128.357 Y28.772 E53.6950
G1 X128.734 Y28.929 E53.7154
G1 X129.082 Y29.142 E53.7358
G1 X129.393 Y29.407 E53.7561
G1 X129.658 Y29.718 E53.7765
G1 X129.871 Y30.066 E53.7969
G1 X130.027 Y30.443 E53.8172
G1 X130.123 Y30.840 E53.8376
G1 X130.153 Y31.224 E53.8568
G1 X130.153 Y45.271 E54.5576
G1 X130.123 Y45.654 E54.5768
G1 X130.027 Y46.051 E54.5972
G1 X129.871 Y46.429 E54.6176
G1 X129.658 Y46.777 E54.6379
G1 X129.393 Y47.087 E54.6583
;segType:HShell
G0 X129.268 Y47.661 F7200
G1 X124.642 Y52.287 E54.9846 F3600
G0 X124.077 Y52.287 F7200
G1 X128.244 Y48.120 E55.2786 F3600
G0 X127.590 Y48.208 F7200
G1 X123.511 Y52.287 E55.5664 F3600
G0 X122.945 Y52.287 F7200
G1 X127.024 Y48.208 E55.8542 F3600
G0 X126.463 Y48.204 F7200
G1 X122.380 Y52.287 E56.1423 F3600
G0 X121.814 Y52.287 F7200
G1 X125.958 Y48.143 E56.4347 F3600
G0 X125.518 Y48.017 F7200
G1 X121.248 Y52.287 E56.7360 F3600
G0 X120.682 Y52.287 F7200
G1 X125.129 Y47.840 E57.0497 F3600
G0 X124.783 Y47.621 F7200
G1 X120.117 Y52.287 E57.3789 F3600
G0 X119.551 Y52.287 F7200
G1 X124.478 Y47.360 E57.7265 F3600
G0 X124.214 Y47.058 F7200
G1 X118.985 Y52.287 E58.0954 F3600
G0 X118.420 Y52.287 F7200
G1 X123.989 Y46.718 E58.4883 F3600
G0 X123.805 Y46.335 F7200
G1 X117.854 Y52.287 E58.9082 F3600
G0 X117.288 Y52.287 F7200
G1 X123.672 Y45.903 E59.3586 F3600
G0 X123.602 Y45.408 F7200
G1 X116.723 Y52.287 E59.8440 F3600
G0 X116.157 Y52.287 F7200
G1 X123.592 Y44.852 E60.3685 F3600
G0 X123.592 Y44.286 F7200
G1 X115.591 Y52.287 E60.9330 F3600
G0 X115.026 Y52.287 F7200
G1 X123.592 Y43.720 E61.5375 F3600
G0 X123.592 Y43.155 F7200
G1 X114.460 Y52.287 E62.1818 F3600
G0 X113.894 Y52.287 F7200
G1 X123.592 Y42.589 E62.8660 F3600
G0 X123.592 Y42.023 F7200
G1 X113.329 Y52.287 E63.5902 F3600
G0 X112.763 Y52.287 F7200
G1 X123.592 Y41.457 E64.3542 F3600
G0 X123.952 Y41.769 F7200
G0 X123.952 Y45.271
G0 X123.982 Y45.654
G0 X124.078 Y46.051
G0 X124.234 Y46.429
G0 X124.447 Y46.777
G0 X124.713 Y47.087
G0 X125.023 Y47.353
G0 X125.371 Y47.566
G0 X125.748 Y47.722
G0 X126.146 Y47.817
G0 X126.529 Y47.848
G0 X127.576 Y47.848
G0 X127.959 Y47.817
G0 X128.357 Y47.722
G0 X128.734 Y47.566
G0 X129.082 Y47.353
G0 X129.393 Y47.087
G0 X129.658 Y46.777
G0 X129.690 Y46.724
G0 X129.690 Y46.724
G0 X129.976 Y46.972
G0 X129.966 Y46.963
G1 X137.092 Y39.837 E64.8570 F3600
G0 X137.092 Y40.403 F7200
G1 X125.208 Y52.287 E65.6955 F3600
G0 X125.774 Y52.287 F7200
G1 X137.092 Y40.968 E66.4941 F3600
G0 X137.092 Y41.534 F7200
G1 X126.339 Y52.287 E67.2527 F3600
G0 X126.905 Y52.287 F7200
G1 X137.092 Y42.100 E67.9715 F3600
G0 X137.092 Y42.665 F7200
G1 X127.471 Y52.287 E68.6503 F3600
G0 X128.036 Y52.287 F7200
G1 X137.092 Y43.231 E69.2893 F3600
G0 X137.092 Y43.797 F7200
G1 X128.602 Y52.287 E69.8883 F3600
G0 X129.168 Y52.287 F7200
G1 X137.092 Y44.362 E70.4474 F3600
G0 X137.092 Y44.928 F7200
G1 X129.733 Y52.287 E70.9666 F3600
G0 X130.299 Y52.287 F7200
G1 X137.092 Y45.494 E71.4459 F3600
G0 X137.092 Y46.059 F7200
G1 X130.865 Y52.287 E71.8853 F3600
G0 X131.430 Y52.287 F7200
G1 X137.092 Y46.625 E72.2847 F3600
G0 X137.092 Y47.191 F7200
G1 X131.996 Y52.287 E72.6443 F3600
G0 X132.562 Y52.287 F7200
G1 X137.092 Y47.756 E72.9639 F3600
G0 X137.092 Y48.322 F7200
G1 X133.128 Y52.287 E73.2436 F3600
G0 X133.693 Y52.287 F7200
G1 X137.092 Y48.888 E73.4834 F3600
G0 X137.092 Y49.453 F7200
G1 X134.259 Y52.287 E73.6833 F3600
G0 X134.825 Y52.287 F7200
G1 X137.092 Y50.019 E73.8433 F3600
G0 X137.092 Y50.585 F7200
G1 X135.390 Y52.287 E73.9634 F3600
G0 X135.956 Y52.287 F7200
G1 X137.092 Y51.151 E74.0436 F3600
G0 X137.092 Y51.716 F7200
G1 X136.522 Y52.287 E74.0838 F3600
G0 X136.244 Y52.647 F7200
G0 X110.029 Y52.647
G0 X109.645 Y52.677
G0 X109.248 Y52.772
G0 X108.871 Y52.928
G0 X108.523 Y53.142
G0 X108.212 Y53.407
G0 X107.947 Y53.718
G0 X107.734 Y54.066
G0 X107.578 Y54.443
G0 X107.482 Y54.840
G0 X107.452 Y55.224
G0 X107.452 Y83.442
G0 X108.117 Y84.358
G0 X108.507 Y85.154
G0 X108.757 Y86.004
G0 X108.859 Y86.883
G0 X108.810 Y87.768
G0 X108.670 Y88.377
G0 X108.670 Y88.377
G0 X107.830 Y89.466
G0 X107.838 Y89.456
G1 X106.084 Y91.209 E74.2075 F3600
G0 X105.082 Y91.646 F7200
G1 X108.286 Y88.442 E74.4336 F3600
G0 X108.453 Y87.710 F7200
G1 X104.354 Y91.808 E74.7228 F3600
G0 X103.736 Y91.860 F7200
G1 X108.486 Y87.111 E75.0579 F3600
G0 X108.460 Y86.571 F7200
G1 X103.182 Y91.849 E75.4303 F3600
G0 X102.610 Y91.856 F7200
G1 X108.400 Y86.065 E75.8388 F3600
G0 X108.271 Y85.628 F7200
G1 X102.046 Y91.853 E76.2780 F3600
G0 X101.555 Y91.779 F7200
G1 X108.130 Y85.203 E76.7419 F3600
G0 X107.944 Y84.824 F7200
G1 X101.097 Y91.671 E77.2250 F3600
G0 X100.673 Y91.529 F7200
G1 X107.744 Y84.458 E77.7239 F3600
G0 X107.506 Y84.130 F7200
G1 X100.286 Y91.351 E78.2334 F3600
G0 X99.917 Y91.154 F7200
G1 X107.269 Y83.802 E78.7521 F3600
G0 X107.092 Y83.413 F7200
G1 X99.584 Y90.922 E79.2818 F3600
G0 X99.266 Y90.674 F7200
G1 X107.092 Y82.848 E79.8340 F3600
G0 X107.092 Y82.282 F7200
G1 X98.979 Y90.395 E80.4064 F3600
G0 X98.710 Y90.098 F7200
G1 X107.092 Y81.716 E80.9978 F3600
G0 X107.092 Y81.151 F7200
G1 X98.469 Y89.773 E81.6061 F3600
G0 X98.249 Y89.428 F7200
G1 X107.092 Y80.585 E82.2300 F3600
G0 X107.092 Y80.019 F7200
G1 X98.060 Y89.052 E82.8673 F3600
G0 X97.893 Y88.653 F7200
G1 X107.092 Y79.454 E83.5164 F3600
G0 X107.092 Y78.888 F7200
G1 X97.767 Y88.213 E84.1743 F3600
G0 X97.661 Y87.753 F7200
G1 X107.092 Y78.322 E84.8397 F3600
G0 X107.092 Y77.757 F7200
G1 X97.625 Y87.223 E85.5076 F3600
G0 X97.636 Y86.647 F7200
G1 X107.092 Y77.191 E86.1748 F3600
G0 X107.092 Y76.625 F7200
G1 X97.727 Y85.990 E86.8355 F3600
G0 X98.000 Y85.151 F7200
G1 X107.092 Y76.060 E87.4770 F3600
G0 X107.092 Y75.494 F7200
G1 X98.976 Y83.610 E88.0496 F3600
G0 X99.013 Y83.007 F7200
G1 X107.092 Y74.928 E88.6196 F3600
G0 X107.092 Y74.363 F7200
G1 X99.013 Y82.441 E89.1896 F3600
G0 X99.013 Y81.876 F7200
G1 X107.092 Y73.797 E89.7596 F3600
G0 X107.092 Y73.231 F7200
G1 X99.013 Y81.310 E90.3296 F3600
G0 X99.013 Y80.744 F7200
G1 X107.092 Y72.665 E90.8996 F3600
G0 X107.092 Y72.100 F7200
G1 X99.013 Y80.179 E91.4697 F3600
G0 X99.013 Y79.613 F7200
G1 X107.092 Y71.534 E92.0397 F3600
G0 X107.092 Y70.968 F7200
G1 X99.013 Y79.047 E92.6097 F3600
G0 X99.013 Y78.482 F7200
G1 X107.092 Y70.403 E93.1797 F3600
G0 X107.092 Y69.837 F7200
G1 X99.013 Y77.916 E93.7497 F3600
G0 X99.013 Y77.350 F7200
G1 X107.092 Y69.271 E94.3197 F3600
G0 X107.092 Y68.706 F7200
G1 X99.013 Y76.784 E94.8897 F3600
G0 X99.013 Y76.219 F7200
G1 X107.092 Y68.140 E95.4597 F3600
G0 X107.092 Y67.574 F7200
G1 X99.013 Y75.653 E96.0297 F3600
G0 X99.013 Y75.087 F7200
G1 X107.092 Y67.009 E96.5997 F3600
G0 X107.092 Y66.443 F7200
G1 X99.013 Y74.522 E97.1697 F3600
G0 X99.013 Y73.956 F7200
G1 X107.092 Y65.877 E97.7397 F3600
G0 X107.092 Y65.312 F7200
G1 X99.013 Y73.390 E98.3097 F3600
G0 X99.013 Y72.825 F7200
G1 X107.092 Y64.746 E98.8797 F3600
G0 X107.092 Y64.180 F7200
G1 X99.013 Y72.259 E99.4498 F3600
G0 X99.013 Y71.693 F7200
G1 X107.092 Y63.615 E100.0198 F3600
G0 X107.092 Y63.049 F7200
G1 X99.013 Y71.128 E100.5898 F3600
G0 X99.013 Y70.562 F7200
G1 X107.092 Y62.483 E101.1598 F3600
G0 X107.092 Y61.917 F7200
G1 X99.013 Y69.996 E101.7298 F3600
G0 X99.013 Y69.431 F7200
G1 X107.092 Y61.352 E102.2998 F3600
G0 X107.092 Y60.786 F7200
G1 X99.013 Y68.865 E102.8698 F3600
G0 X99.013 Y68.299 F7200
G1 X107.092 Y60.220 E103.4398 F3600
G0 X107.092 Y59.655 F7200
G1 X99.013 Y67.734 E104.0098 F3600
G0 X99.013 Y67.168 F7200
G1 X107.092 Y59.089 E104.5798 F3600
G0 X107.092 Y58.523 F7200
G1 X99.013 Y66.602 E105.1498 F3600
G0 X99.013 Y66.036 F7200
G1 X107.092 Y57.958 E105.7198 F3600
G0 X107.092 Y57.392 F7200
G1 X99.013 Y65.471 E106.2898 F3600
G0 X99.013 Y64.905 F7200
G1 X107.092 Y56.826 E106.8599 F3600
G0 X107.092 Y56.261 F7200
G1 X99.013 Y64.339 E107.4299 F3600
G0 X99.013 Y63.774 F7200
G1 X107.092 Y55.695 E107.9999 F3600
G0 X107.099 Y55.122 F7200
G1 X99.013 Y63.208 E108.5703 F3600
G0 X99.013 Y62.642 F7200
G1 X107.206 Y54.450 E109.1484 F3600
G0 X106.321 Y46.284 F7200
G1 X111.592 Y41.013 E109.5203 F3600
G0 X111.592 Y40.447 F7200
G1 X106.492 Y45.546 E109.8801 F3600
G0 X106.513 Y44.960 F7200
G1 X111.592 Y39.881 E110.2384 F3600
G0 X111.592 Y39.316 F7200
G1 X106.513 Y44.394 E110.5968 F3600
G0 X106.513 Y43.829 F7200
G1 X111.592 Y38.750 E110.9551 F3600
G0 X111.592 Y38.184 F7200
G1 X106.513 Y43.263 E111.3135 F3600
G0 X106.513 Y42.697 F7200
G1 X111.592 Y37.618 E111.6718 F3600
G0 X111.592 Y37.053 F7200
G1 X106.513 Y42.132 E112.0301 F3600
G0 X106.513 Y41.566 F7200
G1 X111.592 Y36.487 E112.3885 F3600
G0 X111.592 Y35.921 F7200
G1 X106.513 Y41.000 E112.7468 F3600
G0 X106.513 Y40.435 F7200
G1 X111.592 Y35.356 E113.1052 F3600
G0 X111.592 Y34.790 F7200
G1 X106.513 Y39.869 E113.4635 F3600
G0 X106.513 Y39.303 F7200
G1 X111.592 Y34.224 E113.8219 F3600
G0 X111.592 Y33.659 F7200
G1 X106.513 Y38.738 E114.1802 F3600
G0 X106.513 Y38.172 F7200
G1 X111.592 Y33.093 E114.5386 F3600
G0 X111.592 Y32.527 F7200
G1 X106.513 Y37.606 E114.8969 F3600
G0 X106.513 Y37.041 F7200
G1 X111.592 Y31.962 E115.2552 F3600
G0 X111.592 Y31.396 F7200
G1 X106.513 Y36.475 E115.6136 F3600
G0 X106.513 Y35.909 F7200
G1 X111.624 Y30.798 E115.9742 F3600
G0 X111.882 Y29.975 F7200
G1 X106.513 Y35.343 E116.3530 F3600
G0 X106.153 Y35.248 F7200
G0 X106.153 Y31.224
G0 X106.123 Y30.840
G0 X106.027 Y30.443
G0 X105.871 Y30.066
G0 X105.658 Y29.718
G0 X105.393 Y29.407
G0 X105.082 Y29.142
G0 X104.734 Y28.929
G0 X104.357 Y28.772
G0 X103.960 Y28.677
G0 X103.576 Y28.647
G0 X102.529 Y28.647
G0 X102.145 Y28.677
G0 X101.748 Y28.772
G0 X101.371 Y28.929
G0 X101.023 Y29.142
G0 X100.712 Y29.407
G0 X100.447 Y29.718
G0 X100.234 Y30.066
G0 X100.078 Y30.443
G0 X99.982 Y30.840
G0 X99.952 Y31.224
G0 X99.952 Y33.608
G0 X99.952 Y33.608
G0 X94.153 Y32.074
G0 X94.153 Y32.074
G0 X94.153 Y31.224
G0 X94.123 Y30.840
G0 X94.027 Y30.443
G0 X93.871 Y30.066
G0 X93.658 Y29.718
G0 X93.393 Y29.407
G0 X93.082 Y29.142
G0 X92.734 Y28.929
G0 X92.357 Y28.772
G0 X91.960 Y28.677
G0 X91.576 Y28.647
G0 X90.529 Y28.647
G0 X90.145 Y28.677
G0 X89.748 Y28.772
G0 X89.371 Y28.929
G0 X89.023 Y29.142
G0 X88.713 Y29.407
G0 X88.447 Y29.718
G0 X88.234 Y30.066
G0 X88.078 Y30.443
G0 X88.072 Y30.466
G0 X88.072 Y30.466
G0 X87.711 Y30.371
G0 X87.724 Y30.374
G1 X82.513 Y35.585 E116.7207 F3600
G0 X82.513 Y36.150 F7200
G1 X87.604 Y31.059 E117.0799 F3600
G0 X87.592 Y31.637 F7200
G1 X82.513 Y36.716 E117.4382 F3600
G0 X82.513 Y37.282 F7200
G1 X87.592 Y32.203 E117.7966 F3600
G0 X87.592 Y32.768 F7200
G1 X82.513 Y37.847 E118.1549 F3600
G0 X82.513 Y38.413 F7200
G1 X87.592 Y33.334 E118.5133 F3600
G0 X87.592 Y33.900 F7200
G1 X82.513 Y38.979 E118.8717 F3600
G0 X82.513 Y39.545 F7200
G1 X87.592 Y34.465 E119.2300 F3600
G0 X87.592 Y35.031 F7200
G1 X82.513 Y40.110 E119.5884 F3600
G0 X82.513 Y40.676 F7200
G1 X87.592 Y35.597 E119.9467 F3600
G0 X87.592 Y36.162 F7200
G1 X82.513 Y41.242 E120.3051 F3600
G0 X82.513 Y41.807 F7200
G1 X87.592 Y36.728 E120.6635 F3600
G0 X87.592 Y37.294 F7200
G1 X82.513 Y42.373 E121.0218 F3600
G0 X82.513 Y42.939 F7200
G1 X87.592 Y37.859 E121.3802 F3600
G0 X87.592 Y38.425 F7200
G1 X82.513 Y43.504 E121.7385 F3600
G0 X82.513 Y44.070 F7200
G1 X87.592 Y38.991 E122.0969 F3600
G0 X87.592 Y39.557 F7200
G1 X82.513 Y44.636 E122.4553 F3600
G0 X82.513 Y45.201 F7200
G1 X87.592 Y40.122 E122.8136 F3600
G0 X87.592 Y40.688 F7200
G1 X82.451 Y45.829 E123.1763 F3600
G0 X82.098 Y46.748 F7200
G1 X87.592 Y41.254 E123.5640 F3600
G0 X87.952 Y41.716 F7200
G0 X87.952 Y45.271
G0 X87.982 Y45.654
G0 X88.078 Y46.051
G0 X88.234 Y46.429
G0 X88.447 Y46.777
G0 X88.713 Y47.087
G0 X89.023 Y47.353
G0 X89.371 Y47.566
G0 X89.748 Y47.722
G0 X90.146 Y47.817
G0 X90.529 Y47.848
G0 X91.576 Y47.848
G0 X91.959 Y47.817
G0 X92.357 Y47.722
G0 X92.565 Y47.636
G0 X92.565 Y47.636
G0 X92.803 Y47.941
G0 X92.795 Y47.930
G1 X88.438 Y52.287 E123.8713 F3600
G0 X87.873 Y52.287 F7200
G1 X91.983 Y48.177 E124.1613 F3600
G0 X91.386 Y48.208 F7200
G1 X87.307 Y52.287 E124.4491 F3600
G0 X86.741 Y52.287 F7200
G1 X90.820 Y48.208 E124.7369 F3600
G0 X90.274 Y48.189 F7200
G1 X86.176 Y52.287 E125.0260 F3600
G0 X85.610 Y52.287 F7200
G1 X89.793 Y48.103 E125.3212 F3600
G0 X89.374 Y47.957 F7200
G1 X85.044 Y52.287 E125.6267 F3600
G0 X84.479 Y52.287 F7200
G1 X89.003 Y47.763 E125.9459 F3600
G0 X88.673 Y47.527 F7200
G1 X83.913 Y52.287 E126.2817 F3600
G0 X83.347 Y52.287 F7200
G1 X88.381 Y47.253 E126.6369 F3600
G0 X88.126 Y46.942 F7200
G1 X82.782 Y52.287 E127.0140 F3600
G0 X82.216 Y52.287 F7200
G1 X87.911 Y46.591 E127.4158 F3600
G0 X87.746 Y46.191 F7200
G1 X81.650 Y52.287 E127.8459 F3600
G0 X81.084 Y52.287 F7200
G1 X87.632 Y45.739 E128.3079 F3600
G0 X87.592 Y45.213 F7200
G1 X80.519 Y52.287 E128.8069 F3600
G0 X79.953 Y52.287 F7200
G1 X87.592 Y44.648 E129.3459 F3600
G0 X87.592 Y44.082 F7200
G1 X79.387 Y52.287 E129.9248 F3600
G0 X78.822 Y52.287 F7200
G1 X87.592 Y43.516 E130.5436 F3600
G0 X87.592 Y42.951 F7200
G1 X78.256 Y52.287 E131.2023 F3600
G0 X77.690 Y52.287 F7200
G1 X87.592 Y42.385 E131.9009 F3600
G0 X87.592 Y41.819 F7200
G1 X77.125 Y52.287 E132.6394 F3600
G0 X76.559 Y52.287 F7200
G1 X81.053 Y47.793 E132.9565 F3600
G0 X80.134 Y48.146 F7200
G1 X75.993 Y52.287 E133.2486 F3600
G0 X75.428 Y52.287 F7200
G1 X79.507 Y48.208 E133.5364 F3600
G0 X78.941 Y48.208 F7200
G1 X74.862 Y52.287 E133.8242 F3600
G0 X74.296 Y52.287 F7200
G1 X78.385 Y48.198 E134.1128 F3600
G0 X77.891 Y48.127 F7200
G1 X73.731 Y52.287 E134.4063 F3600
G0 X73.165 Y52.287 F7200
G1 X77.459 Y47.992 E134.7093 F3600
G0 X77.078 Y47.808 F7200
G1 X72.599 Y52.287 E135.0252 F3600
G0 X72.034 Y52.287 F7200
G1 X76.738 Y47.583 E135.3571 F3600
G0 X76.436 Y47.318 F7200
G1 X71.468 Y52.287 E135.7077 F3600
G0 X70.902 Y52.287 F7200
G1 X76.176 Y47.013 E136.0797 F3600
G0 X75.957 Y46.666 F7200
G1 X70.336 Y52.287 E136.4763 F3600
G0 X69.771 Y52.287 F7200
G1 X75.781 Y46.276 E136.9004 F3600
G0 X75.656 Y45.836 F7200
G1 X69.205 Y52.287 E137.3555 F3600
G0 X69.013 Y51.913 F7200
G1 X75.596 Y45.331 E137.8199 F3600
G0 X75.592 Y44.768 F7200
G1 X69.013 Y51.347 E138.2841 F3600
G0 X69.013 Y50.782 F7200
G1 X75.592 Y44.203 E138.7483 F3600
G0 X75.592 Y43.637 F7200
G1 X69.013 Y50.216 E139.2125 F3600
G0 X69.013 Y49.650 F7200
G1 X75.592 Y43.071 E139.6767 F3600
G0 X75.592 Y42.506 F7200
G1 X69.013 Y49.085 E140.1408 F3600
G0 X69.013 Y48.519 F7200
G1 X75.592 Y41.940 E140.6050 F3600
G0 X75.592 Y41.374 F7200
G1 X69.013 Y47.953 E141.0692 F3600
G0 X69.013 Y47.388 F7200
G1 X75.592 Y40.809 E141.5334 F3600
G0 X75.592 Y40.243 F7200
G1 X69.013 Y46.822 E141.9976 F3600
G0 X69.013 Y46.256 F7200
G1 X75.592 Y39.677 E142.4618 F3600
G0 X75.592 Y39.112 F7200
G1 X69.013 Y45.691 E142.9260 F3600
G0 X69.013 Y45.125 F7200
G1 X75.592 Y38.546 E143.3902 F3600
G0 X75.592 Y37.980 F7200
G1 X69.013 Y44.559 E143.8543 F3600
G0 X69.013 Y43.994 F7200
G1 X75.592 Y37.415 E144.3185 F3600
G0 X75.592 Y36.849 F7200
G1 X69.013 Y43.428 E144.7827 F3600
G0 X69.013 Y42.862 F7200
G1 X75.592 Y36.283 E145.2469 F3600
G0 X75.592 Y35.718 F7200
G1 X69.013 Y42.297 E145.7111 F3600
G0 X69.013 Y41.731 F7200
G1 X75.592 Y35.152 E146.1753 F3600
G0 X75.592 Y34.586 F7200
G1 X69.013 Y41.165 E146.6395 F3600
G0 X69.013 Y40.599 F7200
G1 X75.592 Y34.020 E147.1037 F3600
G0 X75.592 Y33.455 F7200
G1 X69.013 Y40.034 E147.5678 F3600
G0 X69.013 Y39.468 F7200
G1 X75.592 Y32.889 E148.0320 F3600
G0 X75.592 Y32.323 F7200
G1 X69.013 Y38.902 E148.4962 F3600
G0 X69.013 Y38.337 F7200
G1 X75.592 Y31.758 E148.9604 F3600
G0 X75.593 Y31.191 F7200
G1 X69.013 Y37.771 E149.4247 F3600
G0 X69.013 Y37.205 F7200
G1 X75.686 Y30.533 E149.8955 F3600
G0 X76.201 Y29.451 F7200
G1 X69.013 Y36.640 E150.4027 F3600
G0 X69.013 Y36.074 F7200
G1 X80.879 Y24.208 E151.2399 F3600
G0 X80.313 Y24.208 F7200
G1 X69.013 Y35.508 E152.0372 F3600
G0 X69.013 Y34.943 F7200
G1 X79.748 Y24.208 E152.7946 F3600
G0 X79.182 Y24.208 F7200
G1 X69.013 Y34.377 E153.5121 F3600
G0 X69.013 Y33.811 F7200
G1 X78.616 Y24.208 E154.1896 F3600
G0 X78.051 Y24.208 F7200
G1 X69.013 Y33.246 E154.8273 F3600
G0 X69.013 Y32.680 F7200
G1 X77.485 Y24.208 E155.4251 F3600
G0 X76.919 Y24.208 F7200
G1 X69.013 Y32.114 E155.9829 F3600
G0 X69.013 Y31.549 F7200
G1 X76.354 Y24.208 E156.5008 F3600
G0 X75.788 Y24.208 F7200
G1 X69.013 Y30.983 E156.9788 F3600
G0 X69.013 Y30.417 F7200
G1 X75.222 Y24.208 E157.4169 F3600
G0 X74.657 Y24.208 F7200
G1 X69.013 Y29.851 E157.8151 F3600
G0 X69.013 Y29.286 F7200
G1 X74.091 Y24.208 E158.1734 F3600
G0 X73.525 Y24.208 F7200
G1 X69.013 Y28.720 E158.4918 F3600
G0 X69.013 Y28.154 F7200
G1 X72.959 Y24.208 E158.7702 F3600
G0 X72.394 Y24.208 F7200
G1 X69.013 Y27.589 E159.0087 F3600
G0 X81.445 Y24.208 F7200
G1 X76.758 Y28.894 E159.3394 F3600
G0 X77.838 Y28.381 F7200
G1 X82.010 Y24.208 E159.6338 F3600
G0 X82.576 Y24.208 F7200
G1 X78.496 Y28.288 E159.9217 F3600
G0 X79.063 Y28.287 F7200
G1 X83.142 Y24.208 E160.2095 F3600
G0 X83.708 Y24.208 F7200
G1 X79.626 Y28.289 E160.4975 F3600
G0 X80.133 Y28.348 F7200
G1 X84.273 Y24.208 E160.7896 F3600
G0 X84.839 Y24.208 F7200
G1 X80.574 Y28.473 E161.0905 F3600
G0 X80.965 Y28.648 F7200
G1 X85.405 Y24.208 E161.4038 F3600
G0 X85.970 Y24.208 F7200
G1 X81.313 Y28.865 E161.7324 F3600
G0 X82.110 Y29.766 F7200
G1 X87.667 Y24.208 E162.1245 F3600
G0 X88.233 Y24.208 F7200
G1 X82.294 Y30.146 E162.5435 F3600
G0 X82.430 Y30.577 F7200
G1 X88.799 Y24.208 E162.9929 F3600
G0 X89.364 Y24.208 F7200
G1 X82.502 Y31.070 E163.4770 F3600
G0 X82.513 Y31.625 F7200
G1 X89.930 Y24.208 E164.0004 F3600
G0 X90.496 Y24.208 F7200
G1 X82.513 Y32.191 E164.5636 F3600
G0 X82.513 Y32.756 F7200
G1 X91.061 Y24.208 E165.1667 F3600
G0 X91.627 Y24.208 F7200
G1 X82.513 Y33.322 E165.8098 F3600
G0 X82.513 Y33.888 F7200
G1 X92.193 Y24.208 E166.4927 F3600
G0 X92.758 Y24.208 F7200
G1 X82.513 Y34.453 E167.2156 F3600
G0 X82.513 Y35.019 F7200
G1 X93.324 Y24.208 E167.9784 F3600
G0 X93.890 Y24.208 F7200
G1 X89.679 Y28.419 E168.2755 F3600
G0 X90.365 Y28.298 F7200
G1 X94.456 Y24.208 E168.5641 F3600
G0 X95.021 Y24.208 F7200
G1 X90.942 Y28.287 E168.8519 F3600
G0 X91.508 Y28.287 F7200
G1 X95.587 Y24.208 E169.1397 F3600
G0 X96.153 Y24.208 F7200
G1 X92.035 Y28.325 E169.4302 F3600
G0 X92.489 Y28.437 F7200
G1 X96.718 Y24.208 E169.7286 F3600
G0 X97.284 Y24.208 F7200
G1 X92.889 Y28.603 E170.0387 F3600
G0 X93.241 Y28.817 F7200
G1 X97.850 Y24.208 E170.3639 F3600
G0 X98.415 Y24.208 F7200
G1 X93.553 Y29.070 E170.7069 F3600
G0 X93.827 Y29.362 F7200
G1 X98.981 Y24.208 E171.0705 F3600
G0 X99.547 Y24.208 F7200
G1 X94.064 Y29.691 E171.4574 F3600
G0 X94.259 Y30.061 F7200
G1 X100.112 Y24.208 E171.8704 F3600
G0 X100.678 Y24.208 F7200
G1 X94.407 Y30.479 E172.3129 F3600
G0 X94.493 Y30.958 F7200
G1 X101.244 Y24.208 E172.7891 F3600
G0 X101.809 Y24.208 F7200
G1 X94.513 Y31.504 E173.3039 F3600
G0 X94.513 Y32.070 F7200
G1 X102.375 Y24.208 E173.8586 F3600
G0 X102.941 Y24.208 F7200
G1 X94.513 Y32.636 E174.4533 F3600
G0 X94.513 Y33.201 F7200
G1 X103.506 Y24.208 E175.0878 F3600
G0 X104.072 Y24.208 F7200
G1 X94.513 Y33.767 E175.7622 F3600
G0 X94.513 Y34.333 F7200
G1 X104.638 Y24.208 E176.4766 F3600
G0 X105.204 Y24.208 F7200
G1 X94.513 Y34.898 E177.2309 F3600
G0 X94.513 Y35.464 F7200
G1 X99.797 Y30.180 E177.6036 F3600
G0 X99.614 Y30.929 F7200
G1 X94.513 Y36.030 E177.9635 F3600
G0 X94.513 Y36.595 F7200
G1 X99.592 Y31.516 E178.3219 F3600
G0 X99.592 Y32.082 F7200
G1 X94.513 Y37.161 E178.6802 F3600
G0 X94.513 Y37.727 F7200
G1 X99.592 Y32.648 E179.0385 F3600
G0 X99.592 Y33.213 F7200
G1 X94.513 Y38.292 E179.3969 F3600
G0 X94.513 Y38.858 F7200
G1 X99.592 Y33.779 E179.7552 F3600
G0 X99.592 Y34.345 F7200
G1 X94.513 Y39.424 E180.1136 F3600
G0 X94.513 Y39.989 F7200
G1 X99.592 Y34.911 E180.4719 F3600
G0 X99.592 Y35.476 F7200
G1 X94.513 Y40.555 E180.8302 F3600
G0 X94.513 Y41.121 F7200
G1 X99.592 Y36.042 E181.1886 F3600
G0 X99.592 Y36.608 F7200
G1 X94.513 Y41.687 E181.5469 F3600
G0 X94.513 Y42.252 F7200
G1 X99.592 Y37.173 E181.9052 F3600
G0 X99.592 Y37.739 F7200
G1 X94.513 Y42.818 E182.2636 F3600
G0 X94.513 Y43.384 F7200
G1 X99.592 Y38.305 E182.6219 F3600
G0 X99.592 Y38.870 F7200
G1 X94.513 Y43.949 E182.9803 F3600
G0 X94.513 Y44.515 F7200
G1 X99.592 Y39.436 E183.3386 F3600
G0 X99.592 Y40.002 F7200
G1 X94.513 Y45.081 E183.6969 F3600
G0 X99.592 Y41.699 F7200
G1 X89.004 Y52.287 E184.4440 F3600
G0 X89.570 Y52.287 F7200
G1 X99.592 Y42.264 E185.1511 F3600
G0 X99.592 Y42.830 F7200
G1 X90.135 Y52.287 E185.8183 F3600
G0 X90.701 Y52.287 F7200
G1 X99.592 Y43.396 E186.4456 F3600
G0 X99.592 Y43.962 F7200
G1 X91.267 Y52.287 E187.0330 F3600
G0 X91.833 Y52.287 F7200
G1 X99.592 Y44.527 E187.5805 F3600
G0 X99.592 Y45.093 F7200
G1 X92.398 Y52.287 E188.0880 F3600
G0 X92.964 Y52.287 F7200
G1 X99.619 Y45.631 E188.5576 F3600
G0 X100.080 Y46.867 F7200
G1 X94.661 Y52.287 E188.9400 F3600
G0 X95.227 Y52.287 F7200
G1 X100.325 Y47.188 E189.2997 F3600
G0 X100.608 Y47.471 F7200
G1 X95.792 Y52.287 E189.6395 F3600
G0 X96.339 Y52.306 F7200
G1 X100.928 Y47.717 E189.9633 F3600
G0 X101.289 Y47.922 F7200
G1 X96.818 Y52.393 E190.2787 F3600
G0 X97.236 Y52.540 F7200
G1 X101.696 Y48.080 E190.5934 F3600
G0 X102.162 Y48.180 F7200
G1 X97.607 Y52.735 E190.9148 F3600
G0 X97.936 Y52.971 F7200
G1 X102.700 Y48.208 E191.2508 F3600
G0 X103.265 Y48.208 F7200
G1 X98.228 Y53.245 E191.6063 F3600
G0 X98.482 Y53.557 F7200
G1 X103.852 Y48.187 E191.9851 F3600
G0 X104.589 Y48.016 F7200
G1 X98.696 Y53.908 E192.4009 F3600
G0 X98.861 Y54.309 F7200
G1 X111.592 Y41.578 E193.2991 F3600
G0 X111.592 Y42.144 F7200
G1 X98.974 Y54.762 E194.1893 F3600
G0 X99.013 Y55.288 F7200
G1 X111.592 Y42.710 E195.0768 F3600
G0 X111.592 Y43.275 F7200
G1 X99.013 Y55.854 E195.9643 F3600
G0 X99.013 Y56.420 F7200
G1 X111.592 Y43.841 E196.8518 F3600
G0 X111.592 Y44.407 F7200
G1 X99.013 Y56.986 E197.7393 F3600
G0 X99.013 Y57.551 F7200
G1 X111.592 Y44.972 E198.6268 F3600
G0 X111.610 Y45.520 F7200
G1 X99.013 Y58.117 E199.5156 F3600
G0 X99.013 Y58.683 F7200
G1 X111.695 Y46.001 E200.4104 F3600
G0 X111.841 Y46.421 F7200
G1 X99.013 Y59.248 E201.3155 F3600
G0 X99.013 Y59.814 F7200
G1 X112.034 Y46.793 E202.2342 F3600
G0 X112.270 Y47.123 F7200
G1 X99.013 Y60.380 E203.1695 F3600
G0 X99.013 Y60.945 F7200
G1 X112.543 Y47.416 E204.1241 F3600
G0 X112.853 Y47.671 F7200
G1 X99.013 Y61.511 E205.1006 F3600
G0 X99.013 Y62.077 F7200
G1 X113.204 Y47.886 E206.1018 F3600
G0 X113.603 Y48.052 F7200
G1 X109.255 Y52.400 E206.4086 F3600
G0 X109.928 Y52.294 F7200
G1 X114.055 Y48.166 E206.6999 F3600
G0 X114.579 Y48.208 F7200
G1 X110.500 Y52.287 E206.9876 F3600
G0 X111.066 Y52.287 F7200
G1 X115.145 Y48.208 E207.2754 F3600
G0 X115.721 Y48.197 F7200
G1 X111.632 Y52.287 E207.5640 F3600
G0 X112.197 Y52.287 F7200
G1 X116.402 Y48.082 E207.8606 F3600
G0 X118.387 Y46.097 F7200
G1 X123.592 Y40.892 E208.2279 F3600
G0 X123.592 Y40.326 F7200
G1 X118.503 Y45.416 E208.5870 F3600
G0 X118.513 Y44.840 F7200
G1 X123.592 Y39.760 E208.9454 F3600
G0 X123.592 Y39.195 F7200
G1 X118.513 Y44.274 E209.3037 F3600
G0 X118.513 Y43.708 F7200
G1 X123.592 Y38.629 E209.6621 F3600
G0 X123.592 Y38.063 F7200
G1 X118.513 Y43.143 E210.0205 F3600
G0 X118.513 Y42.577 F7200
G1 X123.592 Y37.498 E210.3788 F3600
G0 X123.592 Y36.932 F7200
G1 X118.513 Y42.011 E210.7372 F3600
G0 X118.513 Y41.445 F7200
G1 X123.592 Y36.366 E211.0956 F3600
G0 X123.592 Y35.801 F7200
G1 X118.513 Y40.880 E211.4539 F3600
G0 X118.513 Y40.314 F7200
G1 X123.592 Y35.235 E211.8123 F3600
G0 X123.592 Y34.669 F7200
G1 X118.513 Y39.748 E212.1707 F3600
G0 X118.513 Y39.183 F7200
G1 X123.592 Y34.104 E212.5290 F3600
G0 X123.592 Y33.538 F7200
G1 X118.513 Y38.617 E212.8874 F3600
G0 X118.513 Y38.051 F7200
G1 X123.592 Y32.972 E213.2458 F3600
G0 X123.592 Y32.407 F7200
G1 X118.513 Y37.486 E213.6042 F3600
G0 X118.513 Y36.920 F7200
G1 X123.592 Y31.841 E213.9625 F3600
G0 X123.592 Y31.275 F7200
G1 X118.513 Y36.354 E214.3209 F3600
G0 X118.513 Y35.789 F7200
G1 X123.660 Y30.642 E214.6840 F3600
G0 X124.036 Y29.700 F7200
G1 X118.513 Y35.223 E215.0737 F3600
G0 X118.513 Y34.657 F7200
G1 X128.962 Y24.208 E215.8109 F3600
G0 X128.397 Y24.208 F7200
G1 X118.513 Y34.092 E216.5083 F3600
G0 X118.513 Y33.526 F7200
G1 X127.831 Y24.208 E217.1657 F3600
G0 X127.265 Y24.208 F7200
G1 X118.513 Y32.960 E217.7832 F3600
G0 X118.513 Y32.394 F7200
G1 X126.700 Y24.208 E218.3608 F3600
G0 X126.134 Y24.208 F7200
G1 X118.513 Y31.829 E218.8985 F3600
G0 X118.513 Y31.263 F7200
G1 X125.568 Y24.208 E219.3963 F3600
G0 X125.003 Y24.208 F7200
G1 X118.469 Y30.741 E219.8573 F3600
G0 X118.354 Y30.291 F7200
G1 X124.437 Y24.208 E220.2864 F3600
G0 X123.871 Y24.208 F7200
G1 X118.187 Y29.892 E220.6875 F3600
G0 X117.972 Y29.541 F7200
G1 X123.305 Y24.208 E221.0638 F3600
G0 X122.740 Y24.208 F7200
G1 X117.716 Y29.231 E221.4182 F3600
G0 X117.423 Y28.959 F7200
G1 X122.174 Y24.208 E221.7535 F3600
G0 X121.608 Y24.208 F7200
G1 X117.091 Y28.725 E222.0722 F3600
G0 X116.718 Y28.532 F7200
G1 X121.043 Y24.208 E222.3773 F3600
G0 X120.477 Y24.208 F7200
G1 X116.297 Y28.388 E222.6722 F3600
G0 X115.815 Y28.304 F7200
G1 X119.911 Y24.208 E222.9612 F3600
G0 X119.346 Y24.208 F7200
G1 X115.267 Y28.287 E223.2490 F3600
G0 X114.701 Y28.287 F7200
G1 X118.780 Y24.208 E223.5368 F3600
G0 X118.214 Y24.208 F7200
G1 X114.103 Y28.319 E223.8269 F3600
G0 X105.769 Y24.208 F7200
G1 X101.486 Y28.491 E224.1291 F3600
G0 X102.234 Y28.309 F7200
G1 X106.335 Y24.208 E224.4185 F3600
G0 X106.901 Y24.208 F7200
G1 X102.822 Y28.287 E224.7063 F3600
G0 X103.388 Y28.287 F7200
G1 X107.466 Y24.208 E224.9940 F3600
G0 X108.032 Y24.208 F7200
G1 X103.927 Y28.313 E225.2837 F3600
G0 X104.394 Y28.411 F7200
G1 X108.598 Y24.208 E225.5802 F3600
G0 X109.163 Y24.208 F7200
G1 X104.804 Y28.568 E225.8878 F3600
G0 X105.166 Y28.771 F7200
G1 X109.729 Y24.208 E226.2098 F3600
G0 X110.295 Y24.208 F7200
G1 X105.488 Y29.015 E226.5489 F3600
G0 X105.772 Y29.297 F7200
G1 X110.860 Y24.208 E226.9080 F3600
G0 X111.426 Y24.208 F7200
G1 X106.018 Y29.616 E227.2896 F3600
G0 X106.224 Y29.976 F7200
G1 X111.992 Y24.208 E227.6965 F3600
G0 X112.557 Y24.208 F7200
G1 X106.383 Y30.382 E228.1322 F3600
G0 X106.485 Y30.846 F7200
G1 X113.123 Y24.208 E228.6006 F3600
G0 X113.689 Y24.208 F7200
G1 X106.513 Y31.384 E229.1068 F3600
G0 X106.513 Y31.949 F7200
G1 X114.254 Y24.208 E229.6530 F3600
G0 X114.820 Y24.208 F7200
G1 X106.513 Y32.515 E230.2392 F3600
G0 X106.513 Y33.081 F7200
G1 X115.386 Y24.208 E230.8652 F3600
G0 X115.952 Y24.208 F7200
G1 X106.513 Y33.646 E231.5311 F3600
G0 X106.513 Y34.212 F7200
G1 X116.517 Y24.208 E232.2370 F3600
G0 X129.528 Y24.208 F7200
G1 X125.006 Y28.730 E232.5561 F3600
G0 X125.947 Y28.354 F7200
G1 X130.094 Y24.208 E232.8486 F3600
G0 X130.659 Y24.208 F7200
G1 X126.581 Y28.287 E233.1364 F3600
G0 X127.146 Y28.287 F7200
G1 X131.225 Y24.208 E233.4242 F3600
G0 X131.791 Y24.208 F7200
G1 X127.703 Y28.296 E233.7126 F3600
G0 X128.200 Y28.364 F7200
G1 X132.356 Y24.208 E234.0058 F3600
G0 X132.922 Y24.208 F7200
G1 X128.633 Y28.497 E234.3085 F3600
G0 X129.016 Y28.679 F7200
G1 X133.488 Y24.208 E234.6240 F3600
G0 X134.053 Y24.208 F7200
G1 X129.358 Y28.904 E234.9553 F3600
G0 X129.661 Y29.166 F7200
G1 X134.619 Y24.208 E235.3051 F3600
G0 X135.185 Y24.208 F7200
G1 X129.921 Y29.472 E235.6765 F3600
G0 X130.141 Y29.817 F7200
G1 X135.751 Y24.208 E236.0723 F3600
G0 X136.316 Y24.208 F7200
G1 X130.319 Y30.205 E236.4954 F3600
G0 X130.446 Y30.644 F7200
G1 X136.882 Y24.208 E236.9495 F3600
G0 X137.092 Y24.563 F7200
G1 X130.508 Y31.147 E237.4140 F3600
G0 X130.513 Y31.708 F7200
G1 X137.092 Y25.129 E237.8782 F3600
G0 X137.092 Y25.695 F7200
G1 X130.513 Y32.274 E238.3424 F3600
G0 X130.513 Y32.839 F7200
G1 X137.092 Y26.260 E238.8066 F3600
G0 X137.092 Y26.826 F7200
G1 X130.513 Y33.405 E239.2708 F3600
G0 X130.513 Y33.971 F7200
G1 X137.092 Y27.392 E239.7350 F3600
G0 X137.092 Y27.957 F7200
G1 X130.513 Y34.536 E240.1992 F3600
G0 X130.513 Y35.102 F7200
G1 X137.092 Y28.523 E240.6633 F3600
G0 X137.092 Y29.089 F7200
G1 X130.513 Y35.668 E241.1275 F3600
G0 X130.513 Y36.234 F7200
G1 X137.092 Y29.655 E241.5917 F3600
G0 X137.092 Y30.220 F7200
G1 X130.513 Y36.799 E242.0559 F3600
G0 X130.513 Y37.365 F7200
G1 X137.092 Y30.786 E242.5201 F3600
G0 X137.092 Y31.352 F7200
G1 X130.513 Y37.931 E242.9843 F3600
G0 X130.513 Y38.496 F7200
G1 X137.092 Y31.917 E243.4485 F3600
G0 X137.092 Y32.483 F7200
G1 X130.513 Y39.062 E243.9127 F3600
G0 X130.513 Y39.628 F7200
G1 X137.092 Y33.049 E244.3768 F3600
G0 X137.092 Y33.614 F7200
G1 X130.513 Y40.193 E244.8410 F3600
G0 X130.513 Y40.759 F7200
G1 X137.092 Y34.180 E245.3052 F3600
G0 X137.092 Y34.746 F7200
G1 X130.513 Y41.325 E245.7694 F3600
G0 X130.513 Y41.890 F7200
G1 X137.092 Y35.311 E246.2336 F3600
G0 X137.092 Y35.877 F7200
G1 X130.513 Y42.456 E246.6978 F3600
G0 X130.513 Y43.022 F7200
G1 X137.092 Y36.443 E247.1620 F3600
G0 X137.092 Y37.008 F7200
G1 X130.513 Y43.587 E247.6262 F3600
G0 X130.513 Y44.153 F7200
G1 X137.092 Y37.574 E248.0903 F3600
G0 X137.092 Y38.140 F7200
G1 X130.513 Y44.719 E248.5545 F3600
; ------------------------------------
; Layer #2
; ------------------------------------
M106 S0 ;turn off fan
G92 E0 ;reset extr
G0 F3000 E-1.0000
G0 F1200 Z0.900
G0 X125.392 Y43.010 F7200
G0 X122.832 Y42.155
G0 X115.151 Y39.591
G0 X112.591 Y38.736
G0 X110.030 Y37.882
G0 X102.349 Y35.318
G0 X99.789 Y34.463
G0 X89.548 Y31.045
G0 X86.987 Y30.190
G0 X69.065 Y24.208
G0 F3000 E0.0000
;segType:HShell
G1 X75.629 Y30.771 E0.4631 F3600
G0 X75.592 Y31.300 F7200
G1 X69.013 Y24.721 E0.9273 F3600
;segType:Perimeter
G0 X68.313 Y23.448 F7200
G1 X137.852 Y23.448 E4.3966 F2160
G1 X137.852 Y53.047 E5.8733
G1 X110.045 Y53.047 E7.2606
G1 X109.708 Y53.073 E7.2775
G1 X109.372 Y53.154 E7.2947
G1 X109.053 Y53.286 E7.3119
G1 X108.759 Y53.467 E7.3292
G1 X108.496 Y53.691 E7.3464
G1 X108.272 Y53.953 E7.3636
G1 X108.092 Y54.248 E7.3809
G1 X107.959 Y54.567 E7.3981
G1 X107.878 Y54.903 E7.4153
G1 X107.852 Y55.239 E7.4322
G1 X107.852 Y83.312 E8.8327
