; GCode generated by CraftWare

G28 X0 Y0
G28 Z0


M104 S215 ;set head temp (no wait)
M190 S60 ;set bed temp (wait)
M109 S215 ;set head temp (wait)
; ------------------------------------
; Layer #0
; ------------------------------------
M106 S0 ;turn off fan
G21 ; mm
G90 ; abs
G92 E0 ;reset extr
G0 F1200 Z0.200
;segType:Skirt
G0 F3000 E-1.0000
G0 X89.075 Y61.700 F5400
G0 F3000 E0.0000
G1 X88.554 Y61.700 E0.0174 F2400
G1 X88.162 Y61.570 E0.0311
G1 X87.640 Y61.570 E0.0484
G1 X87.510 Y61.439 E0.0546
G1 X86.988 Y61.439 E0.0719
G1 X86.597 Y61.309 E0.0856
G1 X85.684 Y61.179 E0.1163
G1 X85.554 Y61.048 E0.1224
G1 X85.293 Y61.048 E0.1311
G1 X85.162 Y60.918 E0.1373
G1 X84.901 Y60.918 E0.1459
G1 X84.771 Y60.787 E0.1521
G1 X84.510 Y60.787 E0.1607
G1 X84.380 Y60.657 E0.1669
G1 X84.119 Y60.657 E0.1756
G1 X83.988 Y60.526 E0.1817
G1 X83.532 Y60.461 E0.1970
G1 X83.206 Y60.265 E0.2097
G1 X82.814 Y60.135 E0.2234
G1 X82.162 Y59.744 E0.2487
G1 X81.771 Y59.613 E0.2624
G1 X81.119 Y59.222 E0.2877
G1 X80.858 Y58.961 E0.3000
G1 X80.206 Y58.570 E0.3253
G1 X79.945 Y58.309 E0.3375
G1 X79.293 Y57.918 E0.3628
G1 X77.988 Y56.613 E0.4242
G1 X77.662 Y56.417 E0.4369
G1 X74.792 Y53.548 E0.5718
G1 X74.597 Y53.222 E0.5845
G1 X74.336 Y52.961 E0.5967
G1 X74.140 Y52.635 E0.6094
G1 X73.879 Y52.374 E0.6217
G1 X73.684 Y52.048 E0.6343
G1 X73.423 Y51.787 E0.6466
G1 X73.227 Y51.461 E0.6592
G1 X72.966 Y51.200 E0.6715
G1 X72.575 Y50.548 E0.6968
G1 X72.445 Y50.157 E0.7105
G1 X71.662 Y48.852 E0.7611
G1 X71.662 Y48.591 E0.7698
G1 X71.467 Y48.265 E0.7824
G1 X71.206 Y47.483 E0.8099
G1 X71.010 Y47.157 E0.8225
G1 X71.010 Y46.896 E0.8312
G1 X70.879 Y46.765 E0.8373
G1 X70.879 Y46.504 E0.8460
G1 X70.749 Y46.374 E0.8521
G1 X70.749 Y45.852 E0.8695
G1 X70.618 Y45.722 E0.8756
G1 X70.618 Y45.200 E0.8930
G1 X70.488 Y45.070 E0.8991
G1 X70.358 Y44.157 E0.9298
G1 X70.358 Y43.635 E0.9472
G1 X70.227 Y43.504 E0.9533
G1 X70.227 Y38.287 E1.1268
G1 X70.358 Y37.896 E1.1405
G1 X70.358 Y37.374 E1.1579
G1 X70.488 Y36.461 E1.1886
G1 X70.618 Y36.330 E1.1947
G1 X70.749 Y35.417 E1.2254
G1 X70.879 Y35.026 E1.2391
G1 X70.879 Y34.765 E1.2478
G1 X71.075 Y34.439 E1.2604
G1 X71.206 Y34.048 E1.2742
G1 X71.401 Y33.722 E1.2868
G1 X71.401 Y33.461 E1.2955
G1 X71.597 Y33.135 E1.3081
G1 X71.858 Y32.352 E1.3356
G1 X73.227 Y30.070 E1.4241
G1 X73.488 Y29.809 E1.4364
G1 X73.684 Y29.482 E1.4490
G1 X73.945 Y29.221 E1.4613
G1 X74.140 Y28.896 E1.4739
G1 X74.401 Y28.635 E1.4862
G1 X74.597 Y28.308 E1.4989
G1 X77.727 Y25.178 E1.6461
G1 X78.053 Y24.983 E1.6587
G1 X79.358 Y23.678 E1.7201
G1 X79.684 Y23.482 E1.7327
G1 X79.945 Y23.221 E1.7450
G1 X80.597 Y22.830 E1.7703
G1 X80.858 Y22.569 E1.7826
G1 X81.510 Y22.178 E1.8079
G1 X81.901 Y22.048 E1.8216
G1 X82.554 Y21.656 E1.8469
G1 X82.945 Y21.526 E1.8606
G1 X83.597 Y21.135 E1.8859
G1 X83.858 Y21.135 E1.8946
G1 X83.988 Y21.004 E1.9007
G1 X84.249 Y21.004 E1.9094
G1 X84.380 Y20.874 E1.9155
G1 X84.640 Y20.874 E1.9242
G1 X84.771 Y20.743 E1.9303
G1 X85.032 Y20.743 E1.9390
G1 X85.162 Y20.613 E1.9452
G1 X85.423 Y20.613 E1.9538
G1 X85.554 Y20.482 E1.9600
G1 X85.814 Y20.482 E1.9686
G1 X85.945 Y20.352 E1.9748
G1 X86.467 Y20.352 E1.9921
G1 X86.858 Y20.221 E2.0059
G1 X87.771 Y20.091 E2.0365
G1 X88.032 Y20.091 E2.0452
G1 X88.162 Y19.961 E2.0513
G1 X93.901 Y19.961 E2.2422
G1 X94.032 Y20.091 E2.2484
G1 X94.554 Y20.091 E2.2657
G1 X95.467 Y20.221 E2.2964
G1 X95.727 Y20.221 E2.3051
G1 X95.858 Y20.352 E2.3112
G1 X96.119 Y20.352 E2.3199
G1 X96.249 Y20.482 E2.3260
G1 X96.706 Y20.548 E2.3414
G1 X97.097 Y20.678 E2.3551
G1 X97.554 Y20.743 E2.3704
G1 X97.684 Y20.874 E2.3765
G1 X97.945 Y20.874 E2.3852
G1 X98.597 Y21.265 E2.4105
G1 X98.858 Y21.265 E2.4192
G1 X99.510 Y21.656 E2.4445
G1 X99.901 Y21.787 E2.4582
G1 X100.032 Y21.917 E2.4643
G1 X100.293 Y21.917 E2.4730
G1 X100.554 Y22.178 E2.4853
G1 X102.184 Y23.157 E2.5485
G1 X102.445 Y23.417 E2.5608
G1 X102.771 Y23.613 E2.5735
G1 X103.814 Y24.656 E2.6225
G1 X104.141 Y24.852 E2.6352
G1 X105.967 Y26.678 E2.7211
G1 X106.293 Y26.874 E2.7337
G1 X122.988 Y26.874 E3.2890
G1 X139.684 Y26.874 E3.8443
G1 X156.380 Y26.874 E4.3996
G1 X168.901 Y26.874 E4.8161
G1 X169.228 Y27.070 E4.8288
G1 X171.967 Y29.809 E4.9576
G1 X171.967 Y35.026 E5.1311
G1 X171.901 Y35.483 E5.1465
G1 X171.771 Y35.874 E5.1602
G1 X168.119 Y39.526 E5.3320
G1 X167.727 Y39.657 E5.3457
G1 X167.467 Y39.657 E5.3544
G1 X167.336 Y39.787 E5.3605
G1 X157.162 Y39.787 E5.6989
G1 X156.510 Y39.396 E5.7242
G1 X156.249 Y39.135 E5.7365
G1 X155.858 Y39.005 E5.7502
G1 X155.206 Y38.613 E5.7755
G1 X154.945 Y38.613 E5.7842
G1 X154.814 Y38.483 E5.7903
G1 X154.293 Y38.483 E5.8076
G1 X153.836 Y38.548 E5.8230
G1 X153.054 Y38.809 E5.8504
G1 X152.793 Y39.070 E5.8627
G1 X152.793 Y39.330 E5.8714
G1 X152.662 Y39.461 E5.8775
G1 X152.662 Y39.722 E5.8862
G1 X152.532 Y39.852 E5.8923
G1 X152.532 Y40.635 E5.9183
G1 X152.402 Y40.765 E5.9245
G1 X152.532 Y41.157 E5.9382
G1 X152.532 Y41.678 E5.9555
G1 X152.662 Y41.809 E5.9617
G1 X152.662 Y42.070 E5.9704
G1 X152.793 Y42.200 E5.9765
G1 X152.793 Y42.461 E5.9852
G1 X152.988 Y42.787 E5.9978
G1 X153.380 Y42.917 E6.0115
G1 X153.510 Y43.048 E6.0177
G1 X153.901 Y43.048 E6.0307
G0 X154.032 Y43.178 F5400
G1 X154.554 Y43.178 E6.0480 F2400
G1 X154.684 Y43.048 E6.0542
G1 X155.140 Y42.983 E6.0695
G1 X155.467 Y42.787 E6.0821
G1 X156.249 Y42.526 E6.1096
G1 X156.510 Y42.265 E6.1219
G1 X157.162 Y41.874 E6.1472
G1 X167.075 Y41.874 E6.4769
G1 X167.532 Y41.939 E6.4922
G1 X167.923 Y42.070 E6.5059
G1 X168.576 Y42.461 E6.5312
G1 X171.445 Y45.330 E6.6662
G1 X171.836 Y45.983 E6.6915
G1 X171.967 Y46.374 E6.7052
G1 X171.967 Y51.852 E6.8874
G1 X169.097 Y54.722 E7.0224
G1 X168.641 Y54.787 E7.0377
G1 X135.249 Y54.787 E8.1483
G1 X106.917 Y54.787 E9.0907
G0 F3000 E8.0907
G0 X132.286 Y51.123 F5400
G0 X134.823 Y50.757
G0 X137.360 Y50.390
G0 X162.729 Y46.726
G0 F3000 E9.0907
;segType:HShell
G1 X165.808 Y49.805 E9.2355 F2400
G0 X166.374 Y49.805 F5400
G1 X163.295 Y46.726 E9.3803 F2400
G0 X163.861 Y46.726 F5400
G1 X166.940 Y49.805 E9.5251 F2400
;segType:Perimeter
G0 X167.902 Y50.565 F5400
G1 X104.817 Y50.565 E11.6234 F1440
G1 X103.144 Y52.540 E11.7094
G1 X101.279 Y54.176 E11.7920
G1 X99.194 Y55.520 E11.8745
G1 X96.933 Y56.542 E11.9570
G1 X94.547 Y57.220 E12.0395
G1 X92.087 Y57.539 E12.1220
G1 X89.607 Y57.492 E12.2045
G1 X87.160 Y57.081 E12.2870
G1 X84.801 Y56.313 E12.3695
G1 X82.581 Y55.207 E12.4520
G1 X80.547 Y53.786 E12.5346
G1 X78.746 Y52.081 E12.6171
G1 X77.215 Y50.129 E12.6996
G1 X75.988 Y47.973 E12.7821
G1 X75.092 Y45.659 E12.8646
G1 X74.546 Y43.239 E12.9471
G1 X74.363 Y40.765 E13.0296
G1 X74.546 Y38.291 E13.1121
G1 X75.092 Y35.871 E13.1946
G1 X75.988 Y33.558 E13.2771
G1 X77.215 Y31.402 E13.3596
G1 X78.746 Y29.450 E13.4422
G1 X80.547 Y27.744 E13.5247
G1 X82.581 Y26.323 E13.6072
G1 X84.801 Y25.217 E13.6897
G1 X87.160 Y24.450 E13.7722
G1 X89.606 Y24.038 E13.8547
G1 X92.087 Y23.992 E13.9372
G1 X94.547 Y24.311 E14.0197
G1 X96.934 Y24.989 E14.1022
G1 X99.194 Y26.010 E14.1848
G1 X101.279 Y27.354 E14.2673
G1 X103.144 Y28.990 E14.3498
G1 X104.817 Y30.966 E14.4359
G1 X167.962 Y30.966 E16.5361
G1 X167.962 Y33.757 E16.6289
G1 X167.939 Y34.047 E16.6386
G1 X167.873 Y34.321 E16.6480
G1 X167.765 Y34.582 E16.6574
G1 X167.618 Y34.823 E16.6668
G1 X167.434 Y35.037 E16.6761
G1 X167.219 Y35.221 E16.6855
G1 X166.979 Y35.368 E16.6949
G1 X166.718 Y35.476 E16.7043
G1 X166.444 Y35.542 E16.7137
G1 X166.154 Y35.565 E16.7233
G1 X158.227 Y35.565 E16.9870
G1 X157.466 Y35.013 E17.0183
G1 X156.548 Y34.562 E17.0523
G1 X155.566 Y34.273 E17.0863
G1 X154.550 Y34.155 E17.1203
G1 X153.529 Y34.212 E17.1544
G1 X152.532 Y34.441 E17.1884
G1 X151.589 Y34.836 E17.2224
G1 X150.726 Y35.386 E17.2564
G1 X149.969 Y36.074 E17.2904
G1 X149.340 Y36.880 E17.3245
G1 X148.857 Y37.782 E17.3585
G1 X148.535 Y38.753 E17.3925
G1 X148.382 Y39.764 E17.4265
G1 X148.402 Y40.765 E17.4598
G1 X148.382 Y41.767 E17.4932
G1 X148.535 Y42.778 E17.5272
G1 X148.857 Y43.748 E17.5612
G1 X149.340 Y44.650 E17.5952
G1 X149.969 Y45.457 E17.6292
G1 X150.726 Y46.145 E17.6633
G1 X151.589 Y46.694 E17.6973
G1 X152.532 Y47.089 E17.7313
G1 X153.529 Y47.318 E17.7653
G1 X154.550 Y47.375 E17.7993
G1 X155.566 Y47.257 E17.8333
G1 X156.548 Y46.969 E17.8674
G1 X157.466 Y46.518 E17.9014
G1 X158.227 Y45.966 E17.9327
G1 X166.154 Y45.966 E18.1963
G1 X166.444 Y45.988 E18.2060
G1 X166.718 Y46.054 E18.2154
G1 X166.979 Y46.162 E18.2248
G1 X167.219 Y46.310 E18.2341
G1 X167.434 Y46.493 E18.2435
G1 X167.618 Y46.708 E18.2529
G1 X167.765 Y46.948 E18.2623
G1 X167.873 Y47.209 E18.2717
G1 X167.939 Y47.484 E18.2811
G1 X167.962 Y47.773 E18.2907
G1 X167.962 Y50.505 E18.3816
G0 X167.189 Y50.298 F5400
;segType:Loop
G0 X166.862 Y50.165
G1 X104.632 Y50.165 E20.4514 F2400
G1 X102.858 Y52.259 E20.5427
G1 X101.038 Y53.856 E20.6232
G1 X99.002 Y55.168 E20.7037
G1 X96.796 Y56.165 E20.7843
G1 X94.466 Y56.827 E20.8648
G1 X92.065 Y57.138 E20.9454
G1 X89.644 Y57.093 E21.0259
G1 X87.256 Y56.691 E21.1064
G1 X84.953 Y55.942 E21.1870
G1 X82.786 Y54.862 E21.2675
G1 X80.801 Y53.475 E21.3481
G1 X79.042 Y51.810 E21.4286
G1 X77.548 Y49.905 E21.5092
G1 X76.350 Y47.801 E21.5897
G1 X75.476 Y45.542 E21.6702
G1 X74.943 Y43.180 E21.7508
G1 X74.764 Y40.765 E21.8313
G1 X74.943 Y38.350 E21.9118
G1 X75.476 Y35.988 E21.9924
G1 X76.350 Y33.730 E22.0729
G1 X77.548 Y31.625 E22.1535
G1 X79.042 Y29.720 E22.2340
G1 X80.801 Y28.055 E22.3146
G1 X82.786 Y26.668 E22.3951
G1 X84.953 Y25.588 E22.4756
G1 X87.256 Y24.839 E22.5562
G1 X89.644 Y24.438 E22.6367
G1 X92.065 Y24.392 E22.7173
G1 X94.467 Y24.704 E22.7978
G1 X96.796 Y25.365 E22.8783
G1 X99.002 Y26.363 E22.9589
G1 X101.038 Y27.674 E23.0394
G1 X102.858 Y29.271 E23.1199
G1 X104.632 Y31.366 E23.2112
G1 X167.562 Y31.366 E25.3043
G1 X167.562 Y33.742 E25.3833
G1 X167.543 Y33.984 E25.3914
G1 X167.491 Y34.197 E25.3987
G1 X167.408 Y34.400 E25.4060
G1 X167.293 Y34.587 E25.4133
G1 X167.150 Y34.754 E25.4206
G1 X166.984 Y34.896 E25.4279
G1 X166.797 Y35.011 E25.4352
G1 X166.594 Y35.095 E25.4425
G1 X166.381 Y35.146 E25.4498
G1 X166.139 Y35.165 E25.4578
G1 X158.357 Y35.165 E25.7167
G1 X157.673 Y34.669 E25.7448
G1 X156.693 Y34.188 E25.7811
G1 X155.646 Y33.880 E25.8174
G1 X154.562 Y33.754 E25.8537
G1 X153.473 Y33.814 E25.8900
G1 X152.409 Y34.059 E25.9263
G1 X151.403 Y34.480 E25.9626
G1 X150.482 Y35.067 E25.9988
G1 X149.675 Y35.801 E26.0351
G1 X149.004 Y36.661 E26.0714
G1 X148.489 Y37.623 E26.1077
G1 X148.144 Y38.659 E26.1440
G1 X147.981 Y39.738 E26.1803
G1 X148.002 Y40.765 E26.2145
G1 X147.981 Y41.793 E26.2487
G1 X148.144 Y42.872 E26.2850
G1 X148.489 Y43.907 E26.3213
G1 X149.004 Y44.869 E26.3576
G1 X149.675 Y45.730 E26.3939
G1 X150.483 Y46.464 E26.4302
G1 X151.403 Y47.050 E26.4664
G1 X152.409 Y47.472 E26.5027
G1 X153.473 Y47.716 E26.5390
G1 X154.562 Y47.776 E26.5753
G1 X155.646 Y47.651 E26.6116
G1 X156.693 Y47.343 E26.6479
G1 X157.673 Y46.862 E26.6842
G1 X158.357 Y46.366 E26.7123
G1 X166.139 Y46.366 E26.9712
G1 X166.381 Y46.385 E26.9792
G1 X166.594 Y46.436 E26.9865
G1 X166.797 Y46.520 E26.9938
G1 X166.984 Y46.634 E27.0011
G1 X167.151 Y46.777 E27.0084
G1 X167.293 Y46.944 E27.0157
G1 X167.408 Y47.131 E27.0230
G1 X167.491 Y47.333 E27.0303
G1 X167.543 Y47.547 E27.0376
G1 X167.562 Y47.789 E27.0457
G1 X167.562 Y50.165 E27.1247
G1 X167.062 Y50.165 E27.1413
G0 X167.062 Y50.165 F5400
G0 X158.650 Y46.366
G0 X158.650 Y46.366
G0 X158.357 Y46.366
G0 X157.673 Y46.862
G0 X156.693 Y47.343
G0 X155.646 Y47.651
G0 X154.562 Y47.776
G0 X153.473 Y47.716
G0 X152.409 Y47.472
G0 X151.403 Y47.050
G0 X150.483 Y46.464
G0 X149.675 Y45.730
G0 X149.004 Y44.869
G0 X148.489 Y43.907
G0 X148.144 Y42.872
G0 X147.981 Y41.793
G0 X147.986 Y41.550
G0 X147.986 Y41.550
G0 X144.881 Y40.147
G0 X144.881 Y40.147
G0 X144.712 Y39.165
G0 X144.353 Y38.149
G0 X143.828 Y37.208
G0 X143.151 Y36.370
G0 X142.342 Y35.658
G0 X141.424 Y35.093
G0 X140.425 Y34.691
G0 X139.371 Y34.464
G0 X138.295 Y34.418
G0 X137.226 Y34.555
G0 X136.196 Y34.871
G0 X135.234 Y35.356
G0 X134.869 Y35.626
G0 X134.869 Y35.626
G0 X126.221 Y31.720
;segType:HShell
G0 X126.233 Y31.726
G1 X132.484 Y37.976 E27.4353 F2400
G0 X131.355 Y37.413 F5400
G1 X132.308 Y38.366 E27.4801 F2400
;segType:Perimeter
G0 X132.896 Y38.432 F5400
G1 X133.403 Y37.813 E27.5067 F1440
G1 X133.934 Y37.027 E27.5383
G1 X134.633 Y36.298 E27.5719
G1 X135.444 Y35.698 E27.6055
G1 X136.346 Y35.243 E27.6390
G1 X137.311 Y34.948 E27.6726
G1 X138.312 Y34.820 E27.7062
G1 X139.321 Y34.862 E27.7398
G1 X140.307 Y35.075 E27.7733
G1 X141.244 Y35.451 E27.8069
G1 X142.103 Y35.981 E27.8405
G1 X142.861 Y36.648 E27.8740
G1 X143.495 Y37.433 E27.9076
G1 X143.987 Y38.314 E27.9412
G1 X144.324 Y39.266 E27.9748
G1 X144.493 Y40.256 E28.0082
G1 X144.515 Y40.765 E28.0251
G1 X144.493 Y41.274 E28.0421
G1 X144.324 Y42.265 E28.0755
G1 X143.987 Y43.216 E28.1091
G1 X143.495 Y44.098 E28.1426
G1 X142.861 Y44.883 E28.1762
G1 X142.103 Y45.550 E28.2098
G1 X141.244 Y46.079 E28.2434
G1 X140.307 Y46.455 E28.2769
G1 X139.321 Y46.668 E28.3105
G1 X138.312 Y46.711 E28.3441
G1 X137.311 Y46.583 E28.3776
G1 X136.346 Y46.287 E28.4112
G1 X135.444 Y45.833 E28.4448
G1 X134.633 Y45.233 E28.4784
G1 X133.934 Y44.504 E28.5119
G1 X133.369 Y43.668 E28.5455
G1 X132.953 Y42.748 E28.5791
G1 X132.699 Y41.771 E28.6127
G1 X132.613 Y40.765 E28.6462
G1 X132.699 Y39.759 E28.6798
G1 X132.953 Y38.783 E28.7134
G1 X133.344 Y37.918 E28.7449
G0 X133.606 Y37.161 F5400
;segType:Loop
G0 X133.691 Y36.702
G1 X134.368 Y35.997 E28.7775 F2400
G1 X135.234 Y35.356 E28.8133
G1 X136.196 Y34.871 E28.8491
G1 X137.226 Y34.555 E28.8850
G1 X138.295 Y34.418 E28.9208
G1 X139.371 Y34.464 E28.9566
G1 X140.425 Y34.691 E28.9925
G1 X141.424 Y35.093 E29.0283
G1 X142.342 Y35.658 E29.0642
G1 X143.151 Y36.370 E29.1000
G1 X143.828 Y37.208 E29.1358
G1 X144.353 Y38.149 E29.1717
G1 X144.712 Y39.165 E29.2075
G1 X144.892 Y40.214 E29.2429
G1 X144.916 Y40.765 E29.2613
G1 X144.892 Y41.317 E29.2796
G1 X144.712 Y42.366 E29.3150
G1 X144.353 Y43.382 E29.3509
G1 X143.828 Y44.322 E29.3867
G1 X143.151 Y45.161 E29.4225
G1 X142.342 Y45.873 E29.4584
G1 X141.424 Y46.438 E29.4942
G1 X140.425 Y46.839 E29.5301
G1 X139.371 Y47.066 E29.5659
G1 X138.295 Y47.112 E29.6017
G1 X137.226 Y46.975 E29.6376
G1 X136.196 Y46.660 E29.6734
G1 X135.234 Y46.175 E29.7092
G1 X134.367 Y45.534 E29.7451
G1 X133.622 Y44.756 E29.7809
G1 X133.019 Y43.863 E29.8167
G1 X132.575 Y42.881 E29.8526
G1 X132.303 Y41.839 E29.8884
G1 X132.212 Y40.765 E29.9243
G1 X132.303 Y39.692 E29.9601
G1 X132.575 Y38.649 E29.9959
G1 X133.019 Y37.667 E30.0318
G1 X133.566 Y36.857 E30.0643
;segType:HShell
G0 X124.536 Y31.726 F5400
G1 X127.053 Y34.243 E30.1827 F2400
G0 X126.347 Y34.103 F5400
G1 X123.971 Y31.726 E30.2944 F2400
G0 X123.405 Y31.726 F5400
G1 X125.757 Y34.078 E30.4051 F2400
;segType:Perimeter
G0 X125.616 Y34.635 F5400
G1 X126.379 Y34.875 E30.4317 F1440
G1 X127.307 Y35.075 E30.4633
G1 X128.244 Y35.451 E30.4968
G1 X129.103 Y35.980 E30.5304
G1 X129.861 Y36.647 E30.5640
G1 X130.495 Y37.433 E30.5975
G1 X130.988 Y38.314 E30.6311
G1 X131.324 Y39.266 E30.6647
G1 X131.494 Y40.256 E30.6981
G1 X131.515 Y40.765 E30.7151
G1 X131.494 Y41.274 E30.7320
G1 X131.324 Y42.265 E30.7654
G1 X130.988 Y43.216 E30.7990
G1 X130.495 Y44.098 E30.8326
G1 X129.861 Y44.883 E30.8661
G1 X129.103 Y45.550 E30.8997
G1 X128.244 Y46.079 E30.9333
G1 X127.307 Y46.455 E30.9669
G1 X126.321 Y46.668 E31.0004
G1 X125.312 Y46.711 E31.0340
G1 X124.311 Y46.583 E31.0676
G1 X123.346 Y46.287 E31.1012
G1 X122.445 Y45.833 E31.1347
G1 X121.633 Y45.232 E31.1683
G1 X120.934 Y44.504 E31.2019
G1 X120.369 Y43.668 E31.2354
G1 X119.953 Y42.748 E31.2690
G1 X119.699 Y41.771 E31.3026
G1 X119.613 Y40.765 E31.3362
G1 X119.699 Y39.760 E31.3697
G1 X119.953 Y38.783 E31.4033
G1 X120.369 Y37.863 E31.4369
G1 X120.934 Y37.027 E31.4704
G1 X121.633 Y36.298 E31.5040
G1 X122.444 Y35.698 E31.5376
G1 X123.346 Y35.243 E31.5712
G1 X124.311 Y34.948 E31.6047
G1 X125.312 Y34.820 E31.6383
G1 X126.261 Y34.860 E31.6699
G0 X127.060 Y34.820 F5400
;segType:Loop
G0 X127.518 Y34.728
G1 X128.424 Y35.093 E31.7024 F2400
G1 X129.342 Y35.658 E31.7382
G1 X130.151 Y36.370 E31.7741
G1 X130.828 Y37.208 E31.8099
G1 X131.353 Y38.149 E31.8457
G1 X131.712 Y39.165 E31.8816
G1 X131.892 Y40.214 E31.9170
G1 X131.915 Y40.765 E31.9353
G1 X131.892 Y41.316 E31.9537
G1 X131.712 Y42.366 E31.9891
G1 X131.353 Y43.382 E32.0249
G1 X130.828 Y44.322 E32.0608
G1 X130.151 Y45.161 E32.0966
G1 X129.342 Y45.873 E32.1325
G1 X128.424 Y46.438 E32.1683
G1 X127.425 Y46.839 E32.2041
G1 X126.372 Y47.066 E32.2400
G1 X125.295 Y47.112 E32.2758
G1 X124.226 Y46.975 E32.3116
G1 X123.196 Y46.660 E32.3475
G1 X122.234 Y46.175 E32.3833
G1 X121.368 Y45.534 E32.4192
G1 X120.622 Y44.756 E32.4550
G1 X120.019 Y43.863 E32.4908
G1 X119.575 Y42.881 E32.5267
G1 X119.303 Y41.839 E32.5625
G1 X119.212 Y40.765 E32.5983
G1 X119.304 Y39.692 E32.6342
G1 X119.575 Y38.649 E32.6700
G1 X120.019 Y37.667 E32.7059
G1 X120.622 Y36.774 E32.7417
G1 X121.368 Y35.997 E32.7775
G1 X122.234 Y35.356 E32.8134
G1 X123.196 Y34.871 E32.8492
G1 X124.226 Y34.555 E32.8850
G1 X125.295 Y34.418 E32.9209
G1 X126.372 Y34.464 E32.9567
G1 X127.327 Y34.670 E32.9892
G0 X127.327 Y34.670 F5400
G0 X123.473 Y34.786
G0 X123.473 Y34.786
G0 X115.273 Y35.032
G0 X115.273 Y35.032
G0 X114.425 Y34.691
G0 X113.371 Y34.464
G0 X112.295 Y34.418
G0 X111.226 Y34.555
G0 X110.196 Y34.871
G0 X109.534 Y35.204
G0 X109.534 Y35.204
G0 X108.790 Y35.227
;segType:HShell
G0 X108.803 Y35.226
G1 X105.303 Y31.726 E33.1539 F2400
G0 X104.737 Y31.726 F5400
G1 X108.478 Y35.467 E33.3298 F2400
;segType:Perimeter
G0 X108.753 Y35.964 F5400
G1 X109.498 Y35.671 E33.3564 F1440
G1 X110.346 Y35.243 E33.3880
G1 X111.311 Y34.948 E33.4216
G1 X112.312 Y34.820 E33.4552
G1 X113.320 Y34.862 E33.4887
G1 X114.307 Y35.075 E33.5223
G1 X115.244 Y35.451 E33.5559
G1 X116.103 Y35.981 E33.5895
G1 X116.861 Y36.647 E33.6230
G1 X117.495 Y37.433 E33.6566
G1 X117.987 Y38.314 E33.6902
G1 X118.324 Y39.266 E33.7237
G1 X118.494 Y40.256 E33.7572
G1 X118.515 Y40.765 E33.7741
G1 X118.494 Y41.274 E33.7910
G1 X118.324 Y42.265 E33.8245
G1 X117.987 Y43.216 E33.8581
G1 X117.495 Y44.098 E33.8916
G1 X116.861 Y44.883 E33.9252
G1 X116.103 Y45.550 E33.9588
G1 X115.244 Y46.079 E33.9923
G1 X114.307 Y46.455 E34.0259
G1 X113.320 Y46.668 E34.0595
G1 X112.312 Y46.711 E34.0931
G1 X111.311 Y46.583 E34.1266
G1 X110.346 Y46.287 E34.1602
G1 X109.444 Y45.833 E34.1938
G1 X108.633 Y45.232 E34.2274
G1 X107.934 Y44.504 E34.2609
G1 X107.369 Y43.668 E34.2945
G1 X106.953 Y42.748 E34.3281
G1 X106.699 Y41.771 E34.3616
G1 X106.614 Y40.765 E34.3952
G1 X106.699 Y39.760 E34.4288
G1 X106.953 Y38.783 E34.4624
G1 X107.369 Y37.863 E34.4959
G1 X107.935 Y37.027 E34.5295
G1 X108.633 Y36.298 E34.5631
G1 X109.396 Y35.733 E34.5947
G0 X109.993 Y35.201 F5400
;segType:Loop
G0 X110.292 Y34.841
G1 X111.226 Y34.555 E34.6272 F2400
G1 X112.295 Y34.418 E34.6630
G1 X113.371 Y34.464 E34.6988
G1 X114.425 Y34.691 E34.7347
G1 X115.424 Y35.093 E34.7705
G1 X116.342 Y35.658 E34.8064
G1 X117.151 Y36.370 E34.8422
G1 X117.828 Y37.208 E34.8780
G1 X118.353 Y38.149 E34.9139
G1 X118.712 Y39.165 E34.9497
G1 X118.892 Y40.214 E34.9851
G1 X118.916 Y40.765 E35.0035
G1 X118.892 Y41.316 E35.0218
G1 X118.712 Y42.366 E35.0572
G1 X118.353 Y43.382 E35.0931
G1 X117.828 Y44.322 E35.1289
G1 X117.151 Y45.161 E35.1647
G1 X116.342 Y45.873 E35.2006
G1 X115.425 Y46.438 E35.2364
G1 X114.425 Y46.839 E35.2722
G1 X113.371 Y47.066 E35.3081
G1 X112.295 Y47.112 E35.3439
G1 X111.226 Y46.975 E35.3798
G1 X110.196 Y46.660 E35.4156
G1 X109.234 Y46.175 E35.4514
G1 X108.367 Y45.534 E35.4873
G1 X107.622 Y44.756 E35.5231
G1 X107.019 Y43.864 E35.5589
G1 X106.575 Y42.881 E35.5948
G1 X106.303 Y41.839 E35.6306
G1 X106.212 Y40.765 E35.6664
G1 X106.303 Y39.692 E35.7023
G1 X106.575 Y38.649 E35.7381
G1 X107.019 Y37.667 E35.7740
G1 X107.622 Y36.775 E35.8098
G1 X108.367 Y35.997 E35.8456
G1 X109.234 Y35.356 E35.8815
G1 X110.107 Y34.916 E35.9140
;segType:HShell
G0 X87.437 Y25.174 F5400
G1 X91.094 Y28.831 E36.0860 F2400
G0 X90.526 Y28.828 F5400
G1 X86.999 Y25.301 E36.2519 F2400
G0 X86.572 Y25.440 F5400
G1 X90.025 Y28.893 E36.4143 F2400
;segType:Perimeter
G0 X89.954 Y29.470 F5400
G1 X90.747 Y29.577 E36.4409 F1440
G1 X92.585 Y29.655 E36.5021
G1 X94.442 Y30.055 E36.5653
G1 X96.205 Y30.764 E36.6285
G1 X97.823 Y31.759 E36.6916
G1 X99.249 Y33.015 E36.7548
G1 X100.442 Y34.493 E36.8180
G1 X101.369 Y36.152 E36.8812
G1 X102.002 Y37.943 E36.9444
G1 X102.322 Y39.811 E37.0074
G1 X102.363 Y40.765 E37.0392
G1 X102.322 Y41.719 E37.0710
G1 X102.002 Y43.588 E37.1340
G1 X101.369 Y45.379 E37.1972
G1 X100.443 Y47.038 E37.2604
G1 X99.249 Y48.516 E37.3236
G1 X97.823 Y49.771 E37.3868
G1 X96.205 Y50.767 E37.4500
G1 X94.442 Y51.475 E37.5132
G1 X92.585 Y51.876 E37.5763
G1 X90.687 Y51.956 E37.6395
G1 X88.802 Y51.715 E37.7027
G1 X86.986 Y51.159 E37.7659
G1 X85.289 Y50.303 E37.8291
G1 X83.762 Y49.174 E37.8923
G1 X82.447 Y47.802 E37.9555
G1 X81.383 Y46.228 E38.0187
G1 X80.601 Y44.497 E38.0819
G1 X80.122 Y42.658 E38.1450
G1 X79.961 Y40.765 E38.2082
G1 X80.122 Y38.872 E38.2714
G1 X80.601 Y37.034 E38.3346
G1 X81.383 Y35.303 E38.3978
G1 X82.447 Y33.728 E38.4610
G1 X83.762 Y32.357 E38.5242
G1 X85.289 Y31.227 E38.5874
G1 X86.986 Y30.372 E38.6506
G1 X88.802 Y29.816 E38.7137
G1 X90.627 Y29.582 E38.7749
G0 X91.408 Y29.408 F5400
;segType:Loop
G0 X91.803 Y29.221
G1 X92.636 Y29.257 E38.8027 F2400
G1 X94.560 Y29.671 E38.8681
G1 X96.386 Y30.405 E38.9336
G1 X98.061 Y31.437 E38.9990
G1 X99.539 Y32.737 E39.0645
G1 X100.775 Y34.268 E39.1299
G1 X101.735 Y35.986 E39.1954
G1 X102.390 Y37.842 E39.2609
G1 X102.721 Y39.769 E39.3259
G1 X102.763 Y40.765 E39.3591
G1 X102.721 Y41.762 E39.3922
G1 X102.390 Y43.689 E39.4573
G1 X101.735 Y45.544 E39.5227
G1 X100.775 Y47.262 E39.5882
G1 X99.539 Y48.793 E39.6536
G1 X98.061 Y50.094 E39.7191
G1 X96.386 Y51.125 E39.7845
G1 X94.560 Y51.859 E39.8500
G1 X92.636 Y52.274 E39.9154
G1 X90.670 Y52.357 E39.9809
G1 X88.718 Y52.107 E40.0464
G1 X86.836 Y51.531 E40.1118
G1 X85.079 Y50.645 E40.1773
G1 X83.497 Y49.475 E40.2427
G1 X82.135 Y48.054 E40.3082
G1 X81.033 Y46.424 E40.3736
G1 X80.222 Y44.631 E40.4391
G1 X79.726 Y42.726 E40.5045
G1 X79.560 Y40.765 E40.5700
G1 X79.726 Y38.804 E40.6354
G1 X80.222 Y36.900 E40.7009
G1 X81.033 Y35.107 E40.7663
G1 X82.135 Y33.476 E40.8318
G1 X83.497 Y32.056 E40.8973
G1 X85.079 Y30.885 E40.9627
G1 X86.836 Y29.999 E41.0282
G1 X88.718 Y29.423 E41.0936
G1 X90.670 Y29.173 E41.1591
G1 X91.603 Y29.213 E41.1901
;segType:HShell
G0 X89.523 Y28.957 F5400
G1 X86.145 Y25.579 E41.3490 F2400
G0 X85.719 Y25.718 F5400
G1 X89.022 Y29.021 E41.5044 F2400
G0 X88.537 Y29.102 F5400
G1 X85.292 Y25.857 E41.6570 F2400
G0 X84.891 Y26.022 F5400
G1 X88.104 Y29.235 E41.8082 F2400
G0 X87.671 Y29.367 F5400
G1 X84.513 Y26.210 E41.9567 F2400
G0 X84.136 Y26.398 F5400
G1 X87.238 Y29.500 E42.1026 F2400
G0 X86.805 Y29.632 F5400
G1 X83.758 Y26.586 E42.2459 F2400
G0 X83.381 Y26.774 F5400
G1 X86.415 Y29.808 E42.3886 F2400
G0 X86.039 Y29.998 F5400
G1 X83.003 Y26.962 E42.5314 F2400
G0 X82.666 Y27.191 F5400
G1 X85.663 Y30.188 E42.6723 F2400
G0 X85.287 Y30.377 F5400
G1 X82.333 Y27.424 E42.8113 F2400
G0 X82.000 Y27.657 F5400
G1 X84.911 Y30.567 E42.9481 F2400
G0 X84.583 Y30.804 F5400
G1 X81.667 Y27.889 E43.0853 F2400
G0 X81.334 Y28.122 F5400
G1 X84.257 Y31.045 E43.2228 F2400
G0 X83.932 Y31.285 F5400
G1 X81.005 Y28.358 E43.3604 F2400
G0 X80.714 Y28.633 F5400
G1 X83.607 Y31.526 E43.4965 F2400
G0 X83.282 Y31.767 F5400
G1 X80.424 Y28.908 E43.6310 F2400
G0 X80.133 Y29.183 F5400
G1 X83.001 Y32.052 E43.7659 F2400
G0 X82.725 Y32.341 F5400
G1 X79.842 Y29.458 E43.9014 F2400
G0 X79.552 Y29.734 F5400
G1 X82.448 Y32.629 E44.0377 F2400
G0 X82.171 Y32.918 F5400
G1 X79.268 Y30.016 E44.1742 F2400
G0 X79.019 Y30.333 F5400
G1 X81.894 Y33.207 E44.3094 F2400
G0 X81.659 Y33.538 F5400
G1 X78.771 Y30.650 E44.4452 F2400
G0 X78.522 Y30.967 F5400
G1 X81.431 Y33.875 E44.5821 F2400
G0 X81.202 Y34.213 F5400
G1 X78.273 Y31.284 E44.7198 F2400
G0 X78.025 Y31.601 F5400
G1 X80.974 Y34.550 E44.8586 F2400
G0 X80.746 Y34.888 F5400
G1 X77.789 Y31.930 E44.9977 F2400
G0 X77.583 Y32.291 F5400
G1 X80.564 Y35.271 E45.1379 F2400
G0 X80.387 Y35.660 F5400
G1 X77.378 Y32.651 E45.2794 F2400
G0 X77.173 Y33.012 F5400
G1 X80.211 Y36.050 E45.4223 F2400
G0 X80.035 Y36.440 F5400
G1 X76.968 Y33.372 E45.5666 F2400
G0 X76.763 Y33.733 F5400
G1 X79.867 Y36.837 E45.7126 F2400
G0 X79.750 Y37.286 F5400
G1 X76.585 Y34.121 E45.8615 F2400
G0 X76.427 Y34.528 F5400
G1 X79.633 Y37.734 E46.0123 F2400
G0 X79.516 Y38.183 F5400
G1 X76.269 Y34.936 E46.1650 F2400
G0 X76.111 Y35.344 F5400
G1 X79.399 Y38.632 E46.3196 F2400
G0 X79.337 Y39.135 F5400
G1 X75.953 Y35.752 E46.4788 F2400
G0 X75.804 Y36.168 F5400
G1 X79.292 Y39.657 E46.6429 F2400
G0 X79.248 Y40.178 F5400
G1 X75.700 Y36.630 E46.8098 F2400
G0 X75.596 Y37.091 F5400
G1 X79.204 Y40.699 E46.9795 F2400
G0 X79.244 Y41.305 F5400
G1 X75.492 Y37.553 E47.1559 F2400
G0 X75.388 Y38.015 F5400
G1 X79.297 Y41.924 E47.3398 F2400
G0 X79.349 Y42.542 F5400
G1 X75.294 Y38.487 E47.5305 F2400
G0 X75.255 Y39.013 F5400
G1 X79.490 Y43.249 E47.7298 F2400
G0 X79.690 Y44.013 F5400
G1 X75.216 Y39.540 E47.9402 F2400
G0 X75.177 Y40.067 F5400
G1 X79.898 Y44.788 E48.1623 F2400
G0 X80.365 Y45.820 F5400
G1 X75.138 Y40.593 E48.4081 F2400
G0 X75.156 Y41.177 F5400
G1 X81.006 Y47.027 E48.6833 F2400
G0 X82.651 Y54.329 F5400
G1 X77.612 Y49.290 E48.9203 F2400
G0 X79.256 Y51.499 F5400
G1 X79.583 Y51.827 E48.9357 F2400
G0 X76.865 Y47.977 F5400
G1 X83.906 Y55.018 E49.2669 F2400
G0 X85.034 Y55.580 F5400
G1 X76.409 Y46.955 E49.6726 F2400
G0 X76.052 Y46.032 F5400
G1 X85.886 Y55.867 E50.1352 F2400
G0 X86.725 Y56.140 F5400
G1 X75.763 Y45.178 E50.6508 F2400
G0 X75.598 Y44.447 F5400
G1 X87.521 Y56.371 E51.2116 F2400
G0 X88.201 Y56.485 F5400
G1 X75.433 Y43.717 E51.8122 F2400
G0 X75.292 Y43.010 F5400
G1 X88.881 Y56.599 E52.4514 F2400
G0 X89.561 Y56.714 F5400
G1 X75.246 Y42.399 E53.1248 F2400
G0 X75.201 Y41.788 F5400
G1 X90.156 Y56.742 E53.8282 F2400
G0 X90.732 Y56.753 F5400
G1 X84.975 Y50.996 E54.0990 F2400
G0 X86.116 Y51.571 F5400
G1 X91.309 Y56.764 E54.3432 F2400
G0 X91.885 Y56.775 F5400
G1 X87.099 Y51.988 E54.5683 F2400
G0 X87.914 Y52.238 F5400
G1 X92.407 Y56.731 E54.7797 F2400
G0 X92.908 Y56.666 F5400
G1 X88.712 Y52.470 E54.9770 F2400
G0 X89.360 Y52.553 F5400
G1 X93.408 Y56.601 E55.1674 F2400
G0 X93.909 Y56.536 F5400
G1 X90.009 Y52.636 E55.3509 F2400
G0 X90.657 Y52.718 F5400
G1 X94.408 Y56.469 E55.5273 F2400
G0 X94.848 Y56.344 F5400
G1 X91.200 Y52.695 E55.6989 F2400
G0 X91.742 Y52.672 F5400
G1 X95.289 Y56.219 E55.8658 F2400
G0 X95.730 Y56.094 F5400
G1 X92.285 Y52.649 E56.0278 F2400
G0 X92.807 Y52.605 F5400
G1 X96.170 Y55.968 E56.1860 F2400
G0 X96.611 Y55.843 F5400
G1 X93.272 Y52.505 E56.3430 F2400
G0 X93.738 Y52.405 F5400
G1 X97.007 Y55.674 E56.4968 F2400
G0 X97.397 Y55.498 F5400
G1 X94.203 Y52.304 E56.6470 F2400
G0 X94.668 Y52.204 F5400
G1 X97.786 Y55.322 E56.7937 F2400
G0 X98.176 Y55.146 F5400
G1 X95.072 Y52.042 E56.9397 F2400
G0 X95.475 Y51.879 F5400
G1 X98.566 Y54.970 E57.0850 F2400
G0 X98.940 Y54.779 F5400
G1 X95.879 Y51.717 E57.2291 F2400
G0 X96.282 Y51.555 F5400
G1 X99.284 Y54.557 E57.3703 F2400
G0 X99.628 Y54.336 F5400
G1 X96.668 Y51.375 E57.5096 F2400
G0 X97.018 Y51.159 F5400
G1 X99.972 Y54.114 E57.6485 F2400
G0 X100.316 Y53.892 F5400
G1 X97.368 Y50.944 E57.7872 F2400
G0 X97.718 Y50.728 F5400
G1 X100.660 Y53.671 E57.9256 F2400
G0 X100.982 Y53.426 F5400
G1 X98.068 Y50.513 E58.0627 F2400
G0 X98.398 Y50.277 F5400
G1 X101.283 Y53.162 E58.1984 F2400
G0 X101.584 Y52.897 F5400
G1 X98.699 Y50.012 E58.3341 F2400
G0 X99.000 Y49.747 F5400
G1 X101.886 Y52.633 E58.4698 F2400
G0 X102.187 Y52.369 F5400
G1 X99.301 Y49.483 E58.6056 F2400
G0 X99.602 Y49.218 F5400
G1 X102.488 Y52.104 E58.7413 F2400
G0 X102.763 Y51.814 F5400
G1 X99.886 Y48.937 E58.8767 F2400
G0 X100.139 Y48.624 F5400
G1 X103.023 Y51.507 E59.0123 F2400
G0 X103.282 Y51.201 F5400
G1 X100.392 Y48.311 E59.1482 F2400
G0 X100.644 Y47.998 F5400
G1 X103.541 Y50.895 E59.2845 F2400
G0 X103.801 Y50.588 F5400
G1 X100.897 Y47.685 E59.4211 F2400
G0 X101.135 Y47.357 F5400
G1 X104.060 Y50.282 E59.5587 F2400
G0 X104.320 Y49.976 F5400
G1 X101.338 Y46.994 E59.6990 F2400
G0 X101.540 Y46.631 F5400
G1 X104.714 Y49.805 E59.8483 F2400
G0 X105.280 Y49.805 F5400
G1 X101.743 Y46.268 E60.0146 F2400
G0 X101.946 Y45.905 F5400
G1 X105.845 Y49.805 E60.1980 F2400
G0 X106.411 Y49.805 F5400
G1 X102.126 Y45.519 E60.3996 F2400
G0 X102.273 Y45.101 F5400
G1 X106.977 Y49.805 E60.6208 F2400
G0 X107.542 Y49.805 F5400
G1 X102.421 Y44.683 E60.8617 F2400
G0 X102.569 Y44.265 F5400
G1 X108.108 Y49.805 E61.1223 F2400
G0 X108.674 Y49.805 F5400
G1 X102.716 Y43.847 E61.4025 F2400
G0 X102.810 Y43.375 F5400
G1 X109.240 Y49.805 E61.7050 F2400
G0 X109.805 Y49.805 F5400
G1 X102.892 Y42.892 E62.0301 F2400
G0 X102.975 Y42.409 F5400
G1 X110.371 Y49.805 E62.3780 F2400
G0 X110.937 Y49.805 F5400
G1 X103.058 Y41.926 E62.7486 F2400
G0 X103.097 Y41.399 F5400
G1 X111.502 Y49.805 E63.1439 F2400
G0 X112.068 Y49.805 F5400
G1 X103.120 Y40.856 E63.5648 F2400
G0 X103.103 Y40.274 F5400
G1 X106.567 Y43.738 E63.7278 F2400
G0 X106.177 Y42.782 F5400
G1 X103.070 Y39.676 E63.8739 F2400
G0 X102.953 Y38.993 F5400
G1 X105.978 Y42.017 E64.0161 F2400
G0 X105.903 Y41.377 F5400
G1 X102.836 Y38.310 E64.1604 F2400
G0 X102.684 Y37.592 F5400
G1 X105.851 Y40.759 E64.3094 F2400
G0 X105.895 Y40.238 F5400
G1 X102.375 Y36.718 E64.4749 F2400
G0 X102.066 Y35.843 F5400
G1 X105.940 Y39.717 E64.6571 F2400
G0 X106.045 Y39.256 F5400
G1 X101.353 Y34.564 E64.8778 F2400
G0 X106.328 Y41.932 F5400
G0 X106.575 Y42.881
G0 X107.019 Y43.864
G0 X107.622 Y44.756
G0 X108.367 Y45.534
G0 X109.150 Y46.113
G0 X109.150 Y46.113
G0 X109.590 Y46.765
G0 X109.583 Y46.754
G1 X112.634 Y49.805 E65.0213 F2400
G0 X113.199 Y49.805 F5400
G1 X110.535 Y47.140 E65.1466 F2400
G0 X111.309 Y47.349 F5400
G1 X113.765 Y49.805 E65.2621 F2400
G0 X114.331 Y49.805 F5400
G1 X111.958 Y47.432 E65.3737 F2400
G0 X112.553 Y47.461 F5400
G1 X114.896 Y49.805 E65.4840 F2400
G0 X115.462 Y49.805 F5400
G1 X113.096 Y47.439 E65.5952 F2400
G0 X113.607 Y47.384 F5400
G1 X116.028 Y49.805 E65.7091 F2400
G0 X116.593 Y49.805 F5400
G1 X114.072 Y47.284 E65.8277 F2400
G0 X114.537 Y47.182 F5400
G1 X117.159 Y49.805 E65.9510 F2400
G0 X117.725 Y49.805 F5400
G1 X114.940 Y47.020 E66.0820 F2400
G0 X115.344 Y46.858 F5400
G1 X118.290 Y49.805 E66.2206 F2400
G0 X118.856 Y49.805 F5400
G1 X115.726 Y46.675 E66.3678 F2400
G0 X116.076 Y46.459 F5400
G1 X119.422 Y49.805 E66.5252 F2400
G0 X119.988 Y49.805 F5400
G1 X116.427 Y46.244 E66.6927 F2400
G0 X116.746 Y45.997 F5400
G1 X120.553 Y49.805 E66.8718 F2400
G0 X121.119 Y49.805 F5400
G1 X117.047 Y45.732 E67.0633 F2400
G0 X117.348 Y45.468 F5400
G1 X121.685 Y49.805 E67.2673 F2400
G0 X122.250 Y49.805 F5400
G1 X117.610 Y45.165 E67.4855 F2400
G0 X117.863 Y44.852 F5400
G1 X122.816 Y49.805 E67.7185 F2400
G0 X123.382 Y49.805 F5400
G1 X118.116 Y44.539 E67.9662 F2400
G0 X118.321 Y44.178 F5400
G1 X123.947 Y49.805 E68.2308 F2400
G0 X124.513 Y49.805 F5400
G1 X118.524 Y43.815 E68.5126 F2400
G0 X118.714 Y43.440 F5400
G1 X125.079 Y49.805 E68.8119 F2400
G0 X125.644 Y49.805 F5400
G1 X122.605 Y46.765 E68.9549 F2400
G0 X123.550 Y47.145 F5400
G1 X126.210 Y49.805 E69.0800 F2400
G0 X126.776 Y49.805 F5400
G1 X124.322 Y47.350 E69.1954 F2400
G0 X124.970 Y47.434 F5400
G1 X127.341 Y49.805 E69.3070 F2400
G0 X127.907 Y49.805 F5400
G1 X125.564 Y47.461 E69.4172 F2400
G0 X126.106 Y47.438 F5400
G1 X128.473 Y49.805 E69.5285 F2400
G0 X129.039 Y49.805 F5400
G1 X126.616 Y47.382 E69.6425 F2400
G0 X127.081 Y47.282 F5400
G1 X129.604 Y49.805 E69.7611 F2400
G0 X130.170 Y49.805 F5400
G1 X127.545 Y47.179 E69.8846 F2400
G0 X127.948 Y47.017 F5400
G1 X130.736 Y49.805 E70.0157 F2400
G0 X131.301 Y49.805 F5400
G1 X128.352 Y46.855 E70.1545 F2400
G0 X128.733 Y46.671 F5400
G1 X131.867 Y49.805 E70.3019 F2400
G0 X132.433 Y49.805 F5400
G1 X129.083 Y46.455 E70.4594 F2400
G0 X129.433 Y46.240 F5400
G1 X132.998 Y49.805 E70.6271 F2400
G0 X133.564 Y49.805 F5400
G1 X129.751 Y45.992 E70.8065 F2400
G0 X130.052 Y45.727 F5400
G1 X134.130 Y49.805 E70.9982 F2400
G0 X134.695 Y49.805 F5400
G1 X130.353 Y45.463 E71.2025 F2400
G0 X130.615 Y45.159 F5400
G1 X135.261 Y49.805 E71.4210 F2400
G0 X135.827 Y49.805 F5400
G1 X130.868 Y44.846 E71.6542 F2400
G0 X131.121 Y44.533 F5400
G1 X136.392 Y49.805 E71.9022 F2400
G0 X136.958 Y49.805 F5400
G1 X131.325 Y44.171 E72.1672 F2400
G0 X131.528 Y43.808 F5400
G1 X137.524 Y49.805 E72.4492 F2400
G0 X138.090 Y49.805 F5400
G1 X131.717 Y43.432 E72.7490 F2400
G0 X131.865 Y43.014 F5400
G1 X132.549 Y43.698 E72.7811 F2400
;segType:InnerHair
G0 X132.070 Y42.634 F5400
G1 X132.075 Y42.519 E72.7848 F2400
G1 X132.075 Y42.405 E72.7879
G1 X132.070 Y42.291 E72.7906
G1 X132.065 Y42.176 E72.7928
G1 X132.060 Y42.062 E72.7945
;segType:HShell
G0 X135.627 Y46.776 F5400
G1 X138.655 Y49.805 E72.9370 F2400
G0 X139.221 Y49.805 F5400
G1 X136.566 Y47.150 E73.0618 F2400
G0 X137.334 Y47.352 F5400
G1 X139.787 Y49.805 E73.1772 F2400
G0 X140.352 Y49.805 F5400
G1 X137.983 Y47.435 E73.2887 F2400
G0 X138.574 Y47.461 F5400
G1 X140.918 Y49.805 E73.3989 F2400
G0 X141.484 Y49.805 F5400
G1 X139.117 Y47.438 E73.5103 F2400
G0 X139.625 Y47.380 F5400
G1 X142.049 Y49.805 E73.6243 F2400
G0 X142.615 Y49.805 F5400
G1 X140.090 Y47.280 E73.7431 F2400
G0 X140.552 Y47.176 F5400
G1 X143.181 Y49.805 E73.8667 F2400
G0 X143.746 Y49.805 F5400
G1 X140.956 Y47.014 E73.9980 F2400
G0 X141.359 Y46.852 F5400
G1 X144.312 Y49.805 E74.1368 F2400
G0 X144.878 Y49.805 F5400
G1 X141.740 Y46.666 E74.2844 F2400
G0 X142.090 Y46.451 F5400
G1 X145.443 Y49.805 E74.4422 F2400
G0 X146.009 Y49.805 F5400
G1 X142.440 Y46.235 E74.6101 F2400
G0 X142.757 Y45.987 F5400
G1 X146.575 Y49.805 E74.7896 F2400
G0 X147.140 Y49.805 F5400
G1 X143.058 Y45.722 E74.9817 F2400
G0 X143.359 Y45.457 F5400
G1 X147.706 Y49.805 E75.1861 F2400
G0 X148.272 Y49.805 F5400
G1 X143.620 Y45.153 E75.4049 F2400
G0 X143.873 Y44.840 F5400
G1 X148.838 Y49.805 E75.6385 F2400
G0 X149.403 Y49.805 F5400
G1 X144.126 Y44.527 E75.8867 F2400
G0 X144.329 Y44.164 F5400
G1 X149.969 Y49.805 E76.1520 F2400
G0 X150.535 Y49.805 F5400
G1 X144.531 Y43.801 E76.4344 F2400
G0 X144.720 Y43.424 F5400
G1 X151.100 Y49.805 E76.7345 F2400
G0 X151.666 Y49.805 F5400
G1 X144.868 Y43.006 E77.0543 F2400
G0 X145.015 Y42.588 F5400
G1 X152.232 Y49.805 E77.3937 F2400
G0 X152.797 Y49.805 F5400
G1 X145.119 Y42.126 E77.7549 F2400
G0 X145.201 Y41.643 F5400
G1 X148.971 Y45.412 E77.9322 F2400
G0 X150.391 Y46.833 F5400
G1 X153.363 Y49.805 E78.0720 F2400
G0 X153.929 Y49.805 F5400
G1 X151.681 Y47.557 E78.1777 F2400
G0 X152.567 Y47.877 F5400
G1 X154.494 Y49.805 E78.2683 F2400
G0 X155.060 Y49.805 F5400
G1 X153.302 Y48.046 E78.3510 F2400
G0 X153.923 Y48.102 F5400
G1 X155.626 Y49.805 E78.4312 F2400
G0 X156.191 Y49.805 F5400
G1 X154.522 Y48.135 E78.5097 F2400
G0 X155.036 Y48.084 F5400
G1 X156.757 Y49.805 E78.5906 F2400
G0 X157.323 Y49.805 F5400
G1 X155.543 Y48.025 E78.6743 F2400
G0 X156.005 Y47.921 F5400
G1 X157.889 Y49.805 E78.7630 F2400
G0 X158.454 Y49.805 F5400
G1 X156.442 Y47.792 E78.8576 F2400
G0 X156.872 Y47.656 F5400
G1 X159.020 Y49.805 E78.9587 F2400
G0 X159.586 Y49.805 F5400
G1 X157.251 Y47.470 E79.0685 F2400
G0 X157.630 Y47.284 F5400
G1 X160.151 Y49.805 E79.1870 F2400
G0 X160.717 Y49.805 F5400
G1 X157.989 Y47.077 E79.3153 F2400
G0 X158.317 Y46.839 F5400
G1 X161.283 Y49.805 E79.4548 F2400
G0 X161.848 Y49.805 F5400
G1 X158.770 Y46.726 E79.5997 F2400
G0 X159.335 Y46.726 F5400
G1 X162.414 Y49.805 E79.7445 F2400
G0 X162.980 Y49.805 F5400
G1 X159.901 Y46.726 E79.8893 F2400
G0 X160.467 Y46.726 F5400
G1 X163.545 Y49.805 E80.0341 F2400
G0 X164.111 Y49.805 F5400
G1 X161.032 Y46.726 E80.1789 F2400
G0 X161.598 Y46.726 F5400
G1 X164.677 Y49.805 E80.3238 F2400
G0 X165.242 Y49.805 F5400
G1 X162.164 Y46.726 E80.4686 F2400
G0 X167.202 Y49.501 F5400
G1 X164.426 Y46.726 E80.5991 F2400
G0 X164.992 Y46.726 F5400
G1 X167.202 Y48.936 E80.7031 F2400
G0 X167.202 Y48.370 F5400
G1 X165.558 Y46.726 E80.7804 F2400
G0 X166.123 Y46.726 F5400
G1 X167.202 Y47.804 E80.8311 F2400
G0 X167.202 Y46.837 F5400
G0 X167.151 Y46.777
G0 X166.984 Y46.634
G0 X166.797 Y46.520
G0 X166.594 Y46.436
G0 X166.381 Y46.385
G0 X166.139 Y46.366
G0 X158.357 Y46.366
G0 X157.673 Y46.862
G0 X156.693 Y47.343
G0 X155.646 Y47.651
G0 X154.562 Y47.776
G0 X153.473 Y47.716
G0 X152.409 Y47.472
G0 X151.403 Y47.050
G0 X150.483 Y46.464
G0 X149.675 Y45.730
G0 X149.004 Y44.869
G0 X148.489 Y43.907
G0 X148.144 Y42.872
G0 X147.981 Y41.793
G0 X148.002 Y40.765
G0 X147.981 Y39.738
G0 X148.144 Y38.659
G0 X148.489 Y37.623
G0 X149.004 Y36.661
G0 X149.675 Y35.801
G0 X150.482 Y35.067
G0 X151.403 Y34.480
G0 X152.409 Y34.059
G0 X153.473 Y33.814
G0 X154.562 Y33.754
G0 X155.646 Y33.880
G0 X156.693 Y34.188
G0 X157.673 Y34.669
G0 X158.357 Y35.165
G0 X166.139 Y35.165
G0 X166.381 Y35.146
G0 X166.594 Y35.095
G0 X166.797 Y35.011
G0 X166.984 Y34.896
G0 X167.150 Y34.754
G0 X167.202 Y34.694
G0 X167.202 Y34.694
G0 X167.202 Y32.518
G0 X167.202 Y32.531
G1 X166.397 Y31.726 E80.8690 F2400
G0 X165.831 Y31.726 F5400
G1 X167.202 Y33.096 E80.9335 F2400
G0 X167.202 Y33.662 F5400
G1 X165.266 Y31.726 E81.0245 F2400
G0 X164.700 Y31.726 F5400
G1 X167.114 Y34.140 E81.1381 F2400
G0 X166.897 Y34.489 F5400
G1 X164.134 Y31.726 E81.2680 F2400
G0 X163.569 Y31.726 F5400
G1 X166.554 Y34.711 E81.4085 F2400
G0 X166.082 Y34.805 F5400
G1 X163.003 Y31.726 E81.5533 F2400
G0 X162.437 Y31.726 F5400
G1 X165.516 Y34.805 E81.6981 F2400
G0 X164.950 Y34.805 F5400
G1 X161.871 Y31.726 E81.8429 F2400
G0 X161.306 Y31.726 F5400
G1 X164.384 Y34.805 E81.9877 F2400
G0 X163.819 Y34.805 F5400
G1 X160.740 Y31.726 E82.1325 F2400
G0 X160.174 Y31.726 F5400
G1 X163.253 Y34.805 E82.2773 F2400
G0 X162.687 Y34.805 F5400
G1 X159.609 Y31.726 E82.4221 F2400
G0 X159.043 Y31.726 F5400
G1 X162.122 Y34.805 E82.5670 F2400
G0 X161.556 Y34.805 F5400
G1 X158.477 Y31.726 E82.7118 F2400
G0 X157.912 Y31.726 F5400
G1 X160.990 Y34.805 E82.8566 F2400
G0 X160.425 Y34.805 F5400
G1 X157.346 Y31.726 E83.0014 F2400
G0 X156.780 Y31.726 F5400
G1 X159.859 Y34.805 E83.1462 F2400
G0 X159.293 Y34.805 F5400
G1 X156.215 Y31.726 E83.2910 F2400
G0 X155.649 Y31.726 F5400
G1 X158.728 Y34.805 E83.4358 F2400
G0 X157.579 Y34.221 F5400
G1 X155.083 Y31.726 E83.5532 F2400
G0 X154.518 Y31.726 F5400
G1 X156.567 Y33.775 E83.6496 F2400
G0 X155.765 Y33.539 F5400
G1 X153.952 Y31.726 E83.7349 F2400
G0 X153.386 Y31.726 F5400
G1 X155.116 Y33.456 E83.8163 F2400
G0 X154.492 Y33.397 F5400
G1 X152.820 Y31.726 E83.8949 F2400
G0 X152.255 Y31.726 F5400
G1 X153.956 Y33.427 E83.9749 F2400
G0 X153.420 Y33.457 F5400
G1 X151.689 Y31.726 E84.0563 F2400
G0 X151.123 Y31.726 F5400
G1 X152.960 Y33.563 E84.1427 F2400
G0 X152.500 Y33.668 F5400
G1 X150.558 Y31.726 E84.2341 F2400
G0 X149.992 Y31.726 F5400
G1 X152.075 Y33.808 E84.3321 F2400
G0 X151.676 Y33.975 F5400
G1 X149.426 Y31.726 E84.4379 F2400
G0 X148.861 Y31.726 F5400
G1 X151.277 Y34.142 E84.5516 F2400
G0 X150.926 Y34.357 F5400
G1 X148.295 Y31.726 E84.6753 F2400
G0 X147.729 Y31.726 F5400
G1 X150.581 Y34.577 E84.8094 F2400
G0 X150.239 Y34.801 F5400
G1 X147.164 Y31.726 E84.9541 F2400
G0 X146.598 Y31.726 F5400
G1 X149.943 Y35.071 E85.1114 F2400
G0 X149.646 Y35.340 F5400
G1 X146.032 Y31.726 E85.2814 F2400
G0 X145.467 Y31.726 F5400
G1 X149.360 Y35.619 E85.4646 F2400
G0 X149.112 Y35.937 F5400
G1 X144.901 Y31.726 E85.6626 F2400
G0 X144.335 Y31.726 F5400
G1 X148.864 Y36.255 E85.8757 F2400
G0 X148.634 Y36.590 F5400
G1 X143.770 Y31.726 E86.1044 F2400
G0 X143.204 Y31.726 F5400
G1 X148.436 Y36.958 E86.3506 F2400
G0 X148.239 Y37.327 F5400
G1 X142.638 Y31.726 E86.6140 F2400
G0 X142.072 Y31.726 F5400
G1 X148.074 Y37.728 E86.8963 F2400
G0 X147.933 Y38.152 F5400
G1 X141.507 Y31.726 E87.1986 F2400
G0 X140.941 Y31.726 F5400
G1 X147.792 Y38.577 E87.5209 F2400
G0 X147.718 Y39.069 F5400
G1 X140.375 Y31.726 E87.8663 F2400
G0 X139.810 Y31.726 F5400
G1 X147.644 Y39.560 E88.2347 F2400
G0 X147.628 Y40.110 F5400
G1 X139.244 Y31.726 E88.6291 F2400
G0 X141.387 Y35.078 F5400
G0 X141.424 Y35.093
G0 X142.342 Y35.658
G0 X143.151 Y36.370
G0 X143.828 Y37.208
G0 X144.353 Y38.149
G0 X144.712 Y39.165
G0 X144.892 Y40.214
G0 X144.908 Y40.585
G0 X144.908 Y40.585
G0 X145.267 Y41.147
G0 X145.260 Y41.136
G1 X148.148 Y44.024 E88.7649 F2400
G0 X147.866 Y43.177 F5400
G1 X145.268 Y40.578 E88.8872 F2400
G0 X145.214 Y39.958 F5400
G1 X147.718 Y42.463 E89.0050 F2400
G0 X147.621 Y41.800 F5400
G1 X145.096 Y39.275 E89.1237 F2400
G0 X144.844 Y38.457 F5400
G1 X147.632 Y41.245 E89.2548 F2400
G0 X147.640 Y40.688 F5400
G1 X144.341 Y37.389 E89.4100 F2400
G0 X141.940 Y34.987 F5400
G1 X138.678 Y31.726 E89.5634 F2400
G0 X138.113 Y31.726 F5400
G1 X140.868 Y34.481 E89.6930 F2400
G0 X140.067 Y34.246 F5400
G1 X137.547 Y31.726 E89.8115 F2400
G0 X136.981 Y31.726 F5400
G1 X139.358 Y34.103 E89.9233 F2400
G0 X138.768 Y34.078 F5400
G1 X136.416 Y31.726 E90.0340 F2400
G0 X135.850 Y31.726 F5400
G1 X138.193 Y34.068 E90.1442 F2400
G0 X137.691 Y34.133 F5400
G1 X135.284 Y31.726 E90.2574 F2400
G0 X134.719 Y31.726 F5400
G1 X137.190 Y34.197 E90.3736 F2400
G0 X136.751 Y34.324 F5400
G1 X134.153 Y31.726 E90.4958 F2400
G0 X133.587 Y31.726 F5400
G1 X136.318 Y34.457 E90.6243 F2400
G0 X135.908 Y34.613 F5400
G1 X133.021 Y31.726 E90.7601 F2400
G0 X132.456 Y31.726 F5400
G1 X135.532 Y34.802 E90.9048 F2400
G0 X135.156 Y34.992 F5400
G1 X131.890 Y31.726 E91.0584 F2400
G0 X131.324 Y31.726 F5400
G1 X134.816 Y35.217 E91.2226 F2400
G0 X134.491 Y35.458 F5400
G1 X130.759 Y31.726 E91.3981 F2400
G0 X130.193 Y31.726 F5400
G1 X134.165 Y35.698 E91.5850 F2400
G0 X133.883 Y35.982 F5400
G1 X129.627 Y31.726 E91.7851 F2400
G0 X129.062 Y31.726 F5400
G1 X133.606 Y36.270 E91.9989 F2400
G0 X133.331 Y36.561 F5400
G1 X128.496 Y31.726 E92.2264 F2400
G0 X127.930 Y31.726 F5400
G1 X133.103 Y36.899 E92.4697 F2400
G0 X132.875 Y37.236 F5400
G1 X127.365 Y31.726 E92.7289 F2400
G0 X126.799 Y31.726 F5400
G1 X132.660 Y37.587 E93.0045 F2400
;segType:InnerHair
G0 X132.068 Y38.862 F5400
G1 X132.073 Y38.976 E93.0084 F2400
G1 X132.078 Y39.091 E93.0116
G1 X132.071 Y39.205 E93.0144
G1 X132.067 Y39.319 E93.0168
G1 X132.062 Y39.434 E93.0186
G0 X131.618 Y38.899 F5400
G0 X131.353 Y38.149
G0 X130.828 Y37.208
G0 X130.151 Y36.370
G0 X129.342 Y35.658
G0 X128.499 Y35.138
G0 X128.499 Y35.138
G0 X125.659 Y31.716
;segType:HShell
G0 X125.668 Y31.726
G1 X128.911 Y34.970 E93.1712 F2400
G0 X127.850 Y34.474 F5400
G1 X125.102 Y31.726 E93.3005 F2400
G0 X125.183 Y34.070 F5400
G1 X122.839 Y31.726 E93.4107 F2400
G0 X122.273 Y31.726 F5400
G1 X124.682 Y34.134 E93.5240 F2400
G0 X124.180 Y34.198 F5400
G1 X121.708 Y31.726 E93.6403 F2400
G0 X121.142 Y31.726 F5400
G1 X123.743 Y34.327 E93.7626 F2400
G0 X123.310 Y34.459 F5400
G1 X120.576 Y31.726 E93.8912 F2400
G0 X120.011 Y31.726 F5400
G1 X122.901 Y34.616 E94.0271 F2400
G0 X122.525 Y34.806 F5400
G1 X119.445 Y31.726 E94.1720 F2400
G0 X118.879 Y31.726 F5400
G1 X122.149 Y34.995 E94.3258 F2400
G0 X121.810 Y35.222 F5400
G1 X118.314 Y31.726 E94.4902 F2400
G0 X117.748 Y31.726 F5400
G1 X121.484 Y35.462 E94.6660 F2400
G0 X121.159 Y35.703 F5400
G1 X117.182 Y31.726 E94.8530 F2400
G0 X116.617 Y31.726 F5400
G1 X120.878 Y35.987 E95.0535 F2400
G0 X120.601 Y36.276 F5400
G1 X116.051 Y31.726 E95.2675 F2400
G0 X115.485 Y31.726 F5400
G1 X120.327 Y36.568 E95.4953 F2400
G0 X120.099 Y36.905 F5400
G1 X114.920 Y31.726 E95.7389 F2400
G0 X114.354 Y31.726 F5400
G1 X119.871 Y37.243 E95.9984 F2400
G0 X119.656 Y37.594 F5400
G1 X113.788 Y31.726 E96.2744 F2400
G0 X113.222 Y31.726 F5400
G1 X119.480 Y37.984 E96.5688 F2400
G0 X119.304 Y38.373 F5400
G1 X118.368 Y37.437 E96.6128 F2400
;segType:InnerHair
G0 X119.068 Y38.862 F5400
G1 X119.073 Y38.976 E96.6166 F2400
G1 X119.078 Y39.091 E96.6199
G1 X119.071 Y39.205 E96.6227
G1 X119.067 Y39.319 E96.6250
G1 X119.062 Y39.434 E96.6269
;segType:HShell
G0 X119.558 Y43.718 F5400
G1 X118.862 Y43.022 E96.6596 F2400
;segType:InnerHair
G0 X119.070 Y42.634 F5400
G1 X119.075 Y42.519 E96.6633 F2400
G1 X119.075 Y42.405 E96.6664
G1 X119.070 Y42.291 E96.6690
G1 X119.065 Y42.176 E96.6713
G1 X119.060 Y42.062 E96.6730
G0 X118.846 Y41.584 F5400
G0 X118.892 Y41.316
G0 X118.916 Y40.765
G0 X118.892 Y40.214
G0 X118.712 Y39.165
G0 X118.353 Y38.149
G0 X117.828 Y37.208
G0 X117.151 Y36.370
G0 X116.342 Y35.658
G0 X116.144 Y35.536
G0 X116.144 Y35.536
G0 X115.878 Y34.940
;segType:HShell
G0 X115.883 Y34.952
G1 X112.657 Y31.726 E96.8248 F2400
G0 X112.091 Y31.726 F5400
G1 X114.832 Y34.467 E96.9537 F2400
G0 X114.039 Y34.240 F5400
G1 X111.525 Y31.726 E97.0719 F2400
G0 X110.960 Y31.726 F5400
G1 X113.336 Y34.102 E97.1837 F2400
G0 X112.745 Y34.077 F5400
G1 X110.394 Y31.726 E97.2943 F2400
G0 X109.828 Y31.726 F5400
G1 X112.173 Y34.071 E97.4046 F2400
G0 X111.672 Y34.135 F5400
G1 X109.263 Y31.726 E97.5179 F2400
G0 X108.697 Y31.726 F5400
G1 X111.170 Y34.199 E97.6343 F2400
G0 X110.735 Y34.329 F5400
G1 X108.131 Y31.726 E97.7567 F2400
G0 X107.566 Y31.726 F5400
G1 X110.302 Y34.462 E97.8854 F2400
G0 X109.894 Y34.620 F5400
G1 X107.000 Y31.726 E98.0215 F2400
G0 X106.434 Y31.726 F5400
G1 X109.518 Y34.809 E98.1666 F2400
G0 X109.142 Y34.999 F5400
G1 X105.869 Y31.726 E98.3205 F2400
G0 X102.956 Y29.945 F5400
G1 X102.075 Y29.064 E98.3620 F2400
G0 X99.662 Y27.216 F5400
G1 X108.153 Y35.707 E98.7614 F2400
G0 X107.873 Y35.993 F5400
G1 X98.337 Y26.457 E99.2099 F2400
G0 X97.305 Y25.991 F5400
G1 X107.596 Y36.281 E99.6939 F2400
G0 X107.323 Y36.574 F5400
G1 X96.366 Y25.618 E100.2093 F2400
G0 X95.576 Y25.393 F5400
G1 X107.095 Y36.912 E100.7511 F2400
G0 X106.866 Y37.249 F5400
G1 X94.786 Y25.169 E101.3193 F2400
G0 X94.066 Y25.015 F5400
G1 X106.653 Y37.602 E101.9113 F2400
G0 X106.477 Y37.991 F5400
G1 X93.417 Y24.931 E102.5256 F2400
G0 X92.767 Y24.846 F5400
G1 X106.301 Y38.381 E103.1622 F2400
G0 X106.162 Y38.807 F5400
G1 X92.117 Y24.762 E103.8229 F2400
G0 X97.388 Y30.599 F5400
G1 X91.551 Y24.762 E104.0974 F2400
G0 X87.922 Y25.092 F5400
G1 X91.685 Y28.856 E104.2745 F2400
G0 X92.276 Y28.881 F5400
G1 X88.406 Y25.011 E104.4565 F2400
G0 X88.890 Y24.930 F5400
G1 X92.907 Y28.947 E104.6454 F2400
G0 X93.628 Y29.102 F5400
G1 X89.374 Y24.848 E104.8455 F2400
G0 X89.885 Y24.793 F5400
G1 X94.349 Y29.257 E105.0555 F2400
G0 X95.196 Y29.539 F5400
G1 X90.440 Y24.783 E105.2792 F2400
G0 X90.996 Y24.773 F5400
G1 X96.142 Y29.919 E105.5213 F2400
; ------------------------------------
; Layer #1
; ------------------------------------
M106 S0 ;turn off fan
G92 E0 ;reset extr
G0 F3000 E-1.0000
G0 F1200 Z0.400
G0 X121.447 Y36.082 F7200
G0 X123.977 Y36.698
G0 X131.568 Y38.547
G0 X134.099 Y39.163
G0 X144.220 Y41.628
G0 X146.751 Y42.244
G0 X149.281 Y42.861
G0 X164.464 Y46.558
G0 X166.994 Y47.174
G0 F3000 E0.0000
;segType:HShell
G1 X164.364 Y49.805 E0.1237 F3600
G0 X164.930 Y49.805 F7200
G1 X167.170 Y47.565 E0.2291 F3600
G0 X167.202 Y48.098 F7200
G1 X165.496 Y49.805 E0.3093 F3600
G0 X166.061 Y49.805 F7200
G1 X167.202 Y48.664 E0.3630 F3600
G0 X167.202 Y49.230 F7200
G1 X166.627 Y49.805 E0.3900 F3600
;segType:Perimeter
G0 X167.902 Y50.565 F7200
G1 X104.817 Y50.565 E2.4882 F2160
G1 X103.144 Y52.540 E2.5743
G1 X101.279 Y54.176 E2.6568
G1 X99.194 Y55.520 E2.7393
G1 X96.933 Y56.542 E2.8218
G1 X94.547 Y57.220 E2.9044
G1 X92.087 Y57.539 E2.9869
G1 X89.607 Y57.492 E3.0694
G1 X87.160 Y57.081 E3.1519
G1 X84.801 Y56.313 E3.2344
G1 X82.581 Y55.207 E3.3169
G1 X80.547 Y53.786 E3.3994
G1 X78.746 Y52.081 E3.4819
G1 X77.215 Y50.129 E3.5644
G1 X75.988 Y47.973 E3.6469
G1 X75.092 Y45.659 E3.7295
G1 X74.546 Y43.239 E3.8120
G1 X74.363 Y40.765 E3.8945
G1 X74.546 Y38.291 E3.9770
G1 X75.092 Y35.871 E4.0595
G1 X75.988 Y33.558 E4.1420
G1 X77.215 Y31.402 E4.2245
G1 X78.746 Y29.450 E4.3070
G1 X80.547 Y27.744 E4.3895
G1 X82.581 Y26.323 E4.4721
G1 X84.801 Y25.217 E4.5546
G1 X87.160 Y24.450 E4.6371
G1 X89.606 Y24.038 E4.7196
G1 X92.087 Y23.992 E4.8021
G1 X94.547 Y24.311 E4.8846
G1 X96.934 Y24.989 E4.9671
G1 X99.194 Y26.010 E5.0496
G1 X101.279 Y27.354 E5.1321
G1 X103.144 Y28.990 E5.2146
G1 X104.817 Y30.966 E5.3007
G1 X167.962 Y30.966 E7.4010
G1 X167.962 Y33.757 E7.4938
G1 X167.939 Y34.047 E7.5035
G1 X167.873 Y34.321 E7.5129
G1 X167.765 Y34.582 E7.5222
G1 X167.618 Y34.823 E7.5316
G1 X167.434 Y35.037 E7.5410
G1 X167.220 Y35.221 E7.5504
G1 X166.979 Y35.368 E7.5598
G1 X166.718 Y35.476 E7.5692
G1 X166.444 Y35.542 E7.5786
G1 X166.154 Y35.565 E7.5882
G1 X158.227 Y35.565 E7.8519
G1 X157.466 Y35.013 E7.8832
G1 X156.548 Y34.562 E7.9172
G1 X155.566 Y34.273 E7.9512
G1 X154.550 Y34.155 E7.9852
G1 X153.529 Y34.212 E8.0192
G1 X152.532 Y34.441 E8.0533
G1 X151.589 Y34.836 E8.0873
G1 X150.726 Y35.386 E8.1213
G1 X149.969 Y36.074 E8.1553
G1 X149.340 Y36.880 E8.1893
G1 X148.857 Y37.782 E8.2234
G1 X148.535 Y38.753 E8.2574
G1 X148.382 Y39.764 E8.2914
G1 X148.402 Y40.765 E8.3247
G1 X148.382 Y41.767 E8.3580
G1 X148.535 Y42.778 E8.3920
G1 X148.857 Y43.748 E8.4261
G1 X149.340 Y44.650 E8.4601
G1 X149.969 Y45.457 E8.4941
G1 X150.726 Y46.145 E8.5281
G1 X151.589 Y46.694 E8.5621
G1 X152.532 Y47.089 E8.5962
G1 X153.529 Y47.318 E8.6302
G1 X154.550 Y47.375 E8.6642
G1 X155.566 Y47.257 E8.6982
G1 X156.548 Y46.969 E8.7322
G1 X157.466 Y46.518 E8.7663
G1 X158.227 Y45.966 E8.7975
G1 X166.154 Y45.966 E9.0612
G1 X166.444 Y45.988 E9.0709
G1 X166.718 Y46.054 E9.0802
G1 X166.979 Y46.162 E9.0896
G1 X167.220 Y46.310 E9.0990
G1 X167.434 Y46.493 E9.1084
G1 X167.618 Y46.708 E9.1178
G1 X167.765 Y46.948 E9.1272
G1 X167.873 Y47.209 E9.1366
G1 X167.939 Y47.484 E9.1460
G1 X167.962 Y47.773 E9.1556
G1 X167.962 Y50.505 E9.2465
G0 X167.189 Y50.298 F7200
;segType:Loop
G0 X166.862 Y50.165
G1 X104.632 Y50.165 E11.3163 F3600
G1 X102.858 Y52.259 E11.4075
G1 X101.038 Y53.856 E11.4881
G1 X99.002 Y55.168 E11.5686
G1 X96.796 Y56.165 E11.6492
G1 X94.466 Y56.827 E11.7297
G1 X92.065 Y57.138 E11.8102
G1 X89.644 Y57.093 E11.8908
G1 X87.256 Y56.691 E11.9713
G1 X84.953 Y55.942 E12.0519
G1 X82.786 Y54.862 E12.1324
G1 X80.801 Y53.475 E12.2129
G1 X79.042 Y51.810 E12.2935
G1 X77.548 Y49.905 E12.3740
G1 X76.350 Y47.801 E12.4546
G1 X75.476 Y45.542 E12.5351
G1 X74.943 Y43.180 E12.6156
G1 X74.764 Y40.765 E12.6962
G1 X74.943 Y38.350 E12.7767
G1 X75.476 Y35.988 E12.8573
G1 X76.350 Y33.730 E12.9378
G1 X77.548 Y31.625 E13.0183
G1 X79.042 Y29.720 E13.0989
G1 X80.801 Y28.055 E13.1794
G1 X82.786 Y26.668 E13.2600
G1 X84.953 Y25.588 E13.3405
G1 X87.256 Y24.839 E13.4210
G1 X89.644 Y24.438 E13.5016
G1 X92.065 Y24.392 E13.5821
G1 X94.467 Y24.704 E13.6627
G1 X96.796 Y25.365 E13.7432
G1 X99.002 Y26.363 E13.8237
G1 X101.038 Y27.674 E13.9043
G1 X102.858 Y29.271 E13.9848
G1 X104.632 Y31.366 E14.0761
G1 X167.562 Y31.366 E16.1692
G1 X167.562 Y33.742 E16.2482
G1 X167.543 Y33.984 E16.2563
G1 X167.491 Y34.197 E16.2636
G1 X167.408 Y34.400 E16.2709
G1 X167.293 Y34.587 E16.2782
G1 X167.150 Y34.754 E16.2855
G1 X166.984 Y34.896 E16.2928
G1 X166.797 Y35.011 E16.3000
G1 X166.594 Y35.095 E16.3073
G1 X166.381 Y35.146 E16.3146
G1 X166.139 Y35.165 E16.3227
G1 X158.357 Y35.165 E16.5815
G1 X157.673 Y34.669 E16.6097
G1 X156.693 Y34.188 E16.6459
G1 X155.646 Y33.880 E16.6822
G1 X154.562 Y33.754 E16.7185
G1 X153.473 Y33.814 E16.7548
G1 X152.409 Y34.059 E16.7911
G1 X151.403 Y34.480 E16.8274
G1 X150.482 Y35.067 E16.8637
G1 X149.675 Y35.801 E16.9000
G1 X149.004 Y36.661 E16.9363
G1 X148.489 Y37.623 E16.9726
G1 X148.144 Y38.659 E17.0089
G1 X147.981 Y39.738 E17.0452
G1 X148.002 Y40.765 E17.0794
G1 X147.981 Y41.793 E17.1136
G1 X148.144 Y42.872 E17.1498
G1 X148.489 Y43.907 E17.1861
G1 X149.004 Y44.869 E17.2224
G1 X149.675 Y45.730 E17.2587
G1 X150.483 Y46.464 E17.2950
G1 X151.403 Y47.050 E17.3313
G1 X152.409 Y47.472 E17.3676
G1 X153.473 Y47.716 E17.4039
G1 X154.562 Y47.776 E17.4402
G1 X155.646 Y47.651 E17.4765
G1 X156.693 Y47.343 E17.5128
G1 X157.673 Y46.862 E17.5491
G1 X158.357 Y46.366 E17.5772
G1 X166.139 Y46.366 E17.8360
G1 X166.381 Y46.385 E17.8441
G1 X166.594 Y46.436 E17.8514
G1 X166.797 Y46.520 E17.8587
G1 X166.984 Y46.634 E17.8660
G1 X167.150 Y46.777 E17.8733
G1 X167.293 Y46.944 E17.8806
G1 X167.408 Y47.131 E17.8879
G1 X167.491 Y47.333 E17.8952
G1 X167.543 Y47.547 E17.9025
G1 X167.562 Y47.789 E17.9105
G1 X167.562 Y50.165 E17.9896
G1 X167.062 Y50.165 E18.0062
G0 X167.062 Y50.165 F7200
G0 X161.024 Y46.366
G0 X161.024 Y46.366
G0 X158.357 Y46.366
G0 X157.673 Y46.862
G0 X156.693 Y47.343
G0 X155.646 Y47.651
G0 X154.562 Y47.776
G0 X153.473 Y47.716
G0 X152.409 Y47.472
G0 X151.403 Y47.050
G0 X150.483 Y46.464
G0 X149.675 Y45.730
G0 X149.004 Y44.869
G0 X148.489 Y43.907
G0 X148.144 Y42.872
G0 X147.981 Y41.793
G0 X148.002 Y40.765
G0 X147.981 Y39.738
G0 X148.144 Y38.659
G0 X148.253 Y38.331
G0 X148.253 Y38.331
G0 X137.743 Y31.719
;segType:HShell
G0 X137.754 Y31.726
G1 X131.610 Y37.870 E18.2952 F3600
G0 X133.013 Y37.032 F7200
G1 X131.777 Y38.268 E18.3533 F3600
G0 X131.925 Y38.686 F7200
G1 X132.359 Y38.252 E18.3737 F3600
;segType:Perimeter
G0 X132.896 Y38.432 F7200
G1 X133.403 Y37.813 E18.4003 F2160
G1 X133.934 Y37.027 E18.4319
G1 X134.633 Y36.298 E18.4655
G1 X135.444 Y35.698 E18.4991
G1 X136.346 Y35.243 E18.5326
G1 X137.311 Y34.948 E18.5662
G1 X138.312 Y34.820 E18.5998
G1 X139.321 Y34.862 E18.6333
G1 X140.307 Y35.075 E18.6669
G1 X141.244 Y35.451 E18.7005
G1 X142.103 Y35.981 E18.7341
G1 X142.861 Y36.648 E18.7676
G1 X143.495 Y37.433 E18.8012
G1 X143.987 Y38.314 E18.8348
G1 X144.324 Y39.266 E18.8683
G1 X144.493 Y40.256 E18.9018
G1 X144.515 Y40.765 E18.9187
G1 X144.493 Y41.274 E18.9357
G1 X144.324 Y42.265 E18.9691
G1 X143.987 Y43.216 E19.0027
G1 X143.495 Y44.098 E19.0362
G1 X142.861 Y44.883 E19.0698
G1 X142.103 Y45.550 E19.1034
G1 X141.244 Y46.079 E19.1370
G1 X140.307 Y46.455 E19.1705
G1 X139.321 Y46.668 E19.2041
G1 X138.312 Y46.711 E19.2377
G1 X137.311 Y46.583 E19.2712
G1 X136.346 Y46.287 E19.3048
G1 X135.444 Y45.833 E19.3384
G1 X134.633 Y45.233 E19.3720
G1 X133.934 Y44.504 E19.4055
G1 X133.369 Y43.668 E19.4391
G1 X132.953 Y42.748 E19.4727
G1 X132.699 Y41.771 E19.5063
G1 X132.613 Y40.765 E19.5398
G1 X132.699 Y39.759 E19.5734
G1 X132.953 Y38.783 E19.6070
G1 X133.344 Y37.918 E19.6385
G0 X133.606 Y37.161 F7200
;segType:Loop
G0 X133.691 Y36.702
G1 X134.368 Y35.997 E19.6711 F3600
G1 X135.234 Y35.356 E19.7069
G1 X136.196 Y34.871 E19.7427
G1 X137.226 Y34.555 E19.7786
G1 X138.295 Y34.418 E19.8144
G1 X139.371 Y34.464 E19.8502
G1 X140.425 Y34.691 E19.8861
G1 X141.424 Y35.093 E19.9219
G1 X142.342 Y35.658 E19.9577
G1 X143.151 Y36.370 E19.9936
G1 X143.828 Y37.208 E20.0294
G1 X144.353 Y38.149 E20.0653
G1 X144.712 Y39.165 E20.1011
G1 X144.892 Y40.214 E20.1365
G1 X144.916 Y40.765 E20.1549
G1 X144.892 Y41.317 E20.1732
G1 X144.712 Y42.366 E20.2086
G1 X144.353 Y43.382 E20.2445
G1 X143.828 Y44.322 E20.2803
G1 X143.151 Y45.161 E20.3161
G1 X142.342 Y45.873 E20.3520
G1 X141.424 Y46.438 E20.3878
G1 X140.425 Y46.839 E20.4236
G1 X139.371 Y47.066 E20.4595
G1 X138.295 Y47.112 E20.4953
G1 X137.226 Y46.975 E20.5312
G1 X136.196 Y46.660 E20.5670
G1 X135.234 Y46.175 E20.6028
G1 X134.367 Y45.534 E20.6387
G1 X133.622 Y44.756 E20.6745
G1 X133.019 Y43.863 E20.7103
G1 X132.575 Y42.881 E20.7462
G1 X132.303 Y41.839 E20.7820
G1 X132.212 Y40.765 E20.8178
G1 X132.303 Y39.692 E20.8537
G1 X132.575 Y38.649 E20.8895
G1 X133.019 Y37.667 E20.9254
G1 X133.566 Y36.857 E20.9579
;segType:HShell
G0 X127.006 Y31.726 F7200
G1 X124.585 Y34.146 E21.0717 F3600
G0 X125.234 Y34.063 F7200
G1 X127.571 Y31.726 E21.1817 F3600
G0 X128.137 Y31.726 F7200
G1 X125.784 Y34.079 E21.2923 F3600
;segType:Perimeter
G0 X125.616 Y34.635 F7200
G1 X126.379 Y34.875 E21.3189 F2160
G1 X127.307 Y35.075 E21.3505
G1 X128.244 Y35.451 E21.3841
G1 X129.103 Y35.980 E21.4177
G1 X129.861 Y36.647 E21.4512
G1 X130.495 Y37.433 E21.4848
G1 X130.988 Y38.314 E21.5184
G1 X131.324 Y39.266 E21.5520
G1 X131.494 Y40.256 E21.5854
G1 X131.515 Y40.765 E21.6023
G1 X131.494 Y41.274 E21.6193
G1 X131.324 Y42.265 E21.6527
G1 X130.988 Y43.216 E21.6863
G1 X130.495 Y44.098 E21.7198
G1 X129.861 Y44.883 E21.7534
G1 X129.103 Y45.550 E21.7870
G1 X128.244 Y46.079 E21.8206
G1 X127.307 Y46.455 E21.8541
G1 X126.321 Y46.668 E21.8877
G1 X125.312 Y46.711 E21.9213
G1 X124.311 Y46.583 E21.9548
G1 X123.346 Y46.287 E21.9884
G1 X122.445 Y45.833 E22.0220
G1 X121.633 Y45.232 E22.0556
G1 X120.934 Y44.504 E22.0891
G1 X120.369 Y43.668 E22.1227
G1 X119.953 Y42.748 E22.1563
G1 X119.699 Y41.771 E22.1899
G1 X119.613 Y40.765 E22.2234
G1 X119.699 Y39.760 E22.2570
G1 X119.953 Y38.783 E22.2906
G1 X120.369 Y37.863 E22.3241
G1 X120.934 Y37.027 E22.3577
G1 X121.633 Y36.298 E22.3913
G1 X122.444 Y35.698 E22.4249
G1 X123.346 Y35.243 E22.4584
G1 X124.311 Y34.948 E22.4920
G1 X125.312 Y34.820 E22.5256
G1 X126.261 Y34.860 E22.5572
G0 X127.060 Y34.820 F7200
;segType:Loop
G0 X127.518 Y34.728
G1 X128.424 Y35.093 E22.5897 F3600
G1 X129.342 Y35.658 E22.6255
G1 X130.151 Y36.370 E22.6613
G1 X130.828 Y37.208 E22.6972
G1 X131.353 Y38.149 E22.7330
G1 X131.712 Y39.165 E22.7689
G1 X131.892 Y40.214 E22.8043
G1 X131.915 Y40.765 E22.8226
G1 X131.892 Y41.316 E22.8410
G1 X131.712 Y42.366 E22.8764
G1 X131.353 Y43.382 E22.9122
G1 X130.828 Y44.322 E22.9481
G1 X130.151 Y45.161 E22.9839
G1 X129.342 Y45.873 E23.0197
G1 X128.424 Y46.438 E23.0556
G1 X127.425 Y46.839 E23.0914
G1 X126.372 Y47.066 E23.1272
G1 X125.295 Y47.112 E23.1631
G1 X124.226 Y46.975 E23.1989
G1 X123.196 Y46.660 E23.2347
G1 X122.234 Y46.175 E23.2706
G1 X121.368 Y45.534 E23.3064
G1 X120.622 Y44.756 E23.3423
G1 X120.019 Y43.863 E23.3781
G1 X119.575 Y42.881 E23.4139
G1 X119.303 Y41.839 E23.4498
G1 X119.212 Y40.765 E23.4856
G1 X119.304 Y39.692 E23.5214
G1 X119.575 Y38.649 E23.5573
G1 X120.019 Y37.667 E23.5931
G1 X120.622 Y36.774 E23.6290
G1 X121.368 Y35.997 E23.6648
G1 X122.234 Y35.356 E23.7006
G1 X123.196 Y34.871 E23.7365
G1 X124.226 Y34.555 E23.7723
G1 X125.295 Y34.418 E23.8081
G1 X126.372 Y34.464 E23.8440
G1 X127.327 Y34.670 E23.8765
G0 X127.327 Y34.670 F7200
G0 X126.372 Y34.464
G0 X125.295 Y34.418
G0 X124.226 Y34.555
G0 X123.196 Y34.871
G0 X122.234 Y35.356
G0 X121.368 Y35.997
G0 X121.279 Y36.089
G0 X121.279 Y36.089
G0 X117.618 Y36.948
G0 X117.618 Y36.948
G0 X117.151 Y36.370
G0 X116.342 Y35.658
G0 X115.424 Y35.093
G0 X114.425 Y34.691
G0 X113.371 Y34.464
G0 X112.295 Y34.418
G0 X111.226 Y34.555
G0 X110.196 Y34.871
G0 X109.234 Y35.356
G0 X108.367 Y35.997
G0 X107.622 Y36.775
G0 X107.019 Y37.667
G0 X106.575 Y38.649
G0 X106.328 Y39.596
G0 X106.328 Y39.596
G0 X103.093 Y40.355
;segType:HShell
G0 X103.106 Y40.352
G1 X111.732 Y31.726 E24.2822 F3600
G0 X112.298 Y31.726 F7200
G1 X108.781 Y35.242 E24.4476 F3600
;segType:Perimeter
G0 X108.753 Y35.964 F7200
G1 X109.498 Y35.671 E24.4743 F2160
G1 X110.346 Y35.243 E24.5058
G1 X111.311 Y34.948 E24.5394
G1 X112.312 Y34.820 E24.5730
G1 X113.320 Y34.862 E24.6065
G1 X114.307 Y35.075 E24.6401
G1 X115.244 Y35.451 E24.6737
G1 X116.103 Y35.981 E24.7073
G1 X116.861 Y36.647 E24.7408
G1 X117.495 Y37.433 E24.7744
G1 X117.987 Y38.314 E24.8080
G1 X118.324 Y39.266 E24.8416
G1 X118.494 Y40.256 E24.8750
G1 X118.515 Y40.765 E24.8919
G1 X118.494 Y41.274 E24.9089
G1 X118.324 Y42.265 E24.9423
G1 X117.987 Y43.216 E24.9759
G1 X117.495 Y44.098 E25.0094
G1 X116.861 Y44.883 E25.0430
G1 X116.103 Y45.550 E25.0766
G1 X115.244 Y46.079 E25.1102
G1 X114.307 Y46.455 E25.1437
G1 X113.320 Y46.668 E25.1773
G1 X112.312 Y46.711 E25.2109
G1 X111.311 Y46.583 E25.2444
G1 X110.346 Y46.287 E25.2780
G1 X109.444 Y45.833 E25.3116
G1 X108.633 Y45.232 E25.3452
G1 X107.934 Y44.504 E25.3787
G1 X107.369 Y43.668 E25.4123
G1 X106.953 Y42.748 E25.4459
G1 X106.699 Y41.771 E25.4795
G1 X106.614 Y40.765 E25.5130
G1 X106.699 Y39.760 E25.5466
G1 X106.953 Y38.783 E25.5802
G1 X107.369 Y37.863 E25.6137
G1 X107.935 Y37.027 E25.6473
G1 X108.633 Y36.298 E25.6809
G1 X109.396 Y35.733 E25.7125
G0 X109.993 Y35.201 F7200
;segType:Loop
G0 X110.292 Y34.841
G1 X111.226 Y34.555 E25.7450 F3600
G1 X112.295 Y34.418 E25.7808
G1 X113.371 Y34.464 E25.8166
G1 X114.425 Y34.691 E25.8525
G1 X115.424 Y35.093 E25.8883
G1 X116.342 Y35.658 E25.9242
G1 X117.151 Y36.370 E25.9600
G1 X117.828 Y37.208 E25.9958
G1 X118.353 Y38.149 E26.0317
G1 X118.712 Y39.165 E26.0675
G1 X118.892 Y40.214 E26.1029
G1 X118.916 Y40.765 E26.1213
G1 X118.892 Y41.316 E26.1396
G1 X118.712 Y42.366 E26.1750
G1 X118.353 Y43.382 E26.2109
G1 X117.828 Y44.322 E26.2467
G1 X117.151 Y45.161 E26.2825
G1 X116.342 Y45.873 E26.3184
G1 X115.425 Y46.438 E26.3542
G1 X114.425 Y46.839 E26.3901
G1 X113.371 Y47.066 E26.4259
G1 X112.295 Y47.112 E26.4617
G1 X111.226 Y46.975 E26.4976
G1 X110.196 Y46.660 E26.5334
G1 X109.234 Y46.175 E26.5692
G1 X108.367 Y45.534 E26.6051
G1 X107.622 Y44.756 E26.6409
G1 X107.019 Y43.864 E26.6767
G1 X106.575 Y42.881 E26.7126
G1 X106.303 Y41.839 E26.7484
G1 X106.212 Y40.765 E26.7843
G1 X106.303 Y39.692 E26.8201
G1 X106.575 Y38.649 E26.8559
G1 X107.019 Y37.667 E26.8918
G1 X107.622 Y36.775 E26.9276
G1 X108.367 Y35.997 E26.9634
G1 X109.234 Y35.356 E26.9993
G1 X110.107 Y34.916 E27.0318
G0 X110.107 Y34.916 F7200
G0 X97.423 Y31.044
G0 X97.423 Y31.044
G0 X96.386 Y30.405
G0 X94.560 Y29.671
G0 X92.636 Y29.257
G0 X91.397 Y29.204
G0 X91.397 Y29.204
G0 X90.260 Y28.857
;segType:HShell
G0 X90.273 Y28.861
G1 X94.113 Y25.021 E27.2124 F3600
G0 X93.612 Y24.956 F7200
G1 X89.624 Y28.944 E27.4000 F3600
;segType:Perimeter
G0 X89.954 Y29.469 F7200
G1 X90.747 Y29.577 E27.4266 F2160
G1 X92.585 Y29.655 E27.4878
G1 X94.442 Y30.055 E27.5510
G1 X96.205 Y30.764 E27.6142
G1 X97.823 Y31.759 E27.6774
G1 X99.249 Y33.015 E27.7406
G1 X100.442 Y34.493 E27.8037
G1 X101.369 Y36.152 E27.8669
G1 X102.002 Y37.943 E27.9301
G1 X102.322 Y39.811 E27.9932
G1 X102.363 Y40.765 E28.0249
G1 X102.322 Y41.719 E28.0567
G1 X102.002 Y43.588 E28.1197
G1 X101.369 Y45.379 E28.1829
G1 X100.443 Y47.038 E28.2461
G1 X99.249 Y48.516 E28.3093
G1 X97.823 Y49.771 E28.3725
G1 X96.205 Y50.767 E28.4357
G1 X94.442 Y51.475 E28.4989
G1 X92.585 Y51.876 E28.5621
G1 X90.687 Y51.956 E28.6253
G1 X88.802 Y51.715 E28.6884
G1 X86.986 Y51.159 E28.7516
G1 X85.289 Y50.303 E28.8148
G1 X83.762 Y49.174 E28.8780
G1 X82.447 Y47.802 E28.9412
G1 X81.383 Y46.228 E29.0044
G1 X80.601 Y44.497 E29.0676
G1 X80.122 Y42.658 E29.1308
G1 X79.961 Y40.765 E29.1940
G1 X80.122 Y38.872 E29.2571
G1 X80.601 Y37.034 E29.3203
G1 X81.383 Y35.303 E29.3835
G1 X82.447 Y33.728 E29.4467
G1 X83.762 Y32.357 E29.5099
G1 X85.289 Y31.227 E29.5731
G1 X86.986 Y30.372 E29.6363
G1 X88.802 Y29.815 E29.6995
G1 X90.627 Y29.582 E29.7607
G0 X91.408 Y29.408 F7200
;segType:Loop
G0 X91.803 Y29.221
G1 X92.636 Y29.257 E29.7884 F3600
G1 X94.560 Y29.671 E29.8539
G1 X96.386 Y30.405 E29.9193
G1 X98.061 Y31.437 E29.9847
G1 X99.539 Y32.737 E30.0502
G1 X100.775 Y34.268 E30.1157
G1 X101.735 Y35.986 E30.1811
G1 X102.390 Y37.842 E30.2466
G1 X102.721 Y39.769 E30.3116
G1 X102.763 Y40.765 E30.3448
G1 X102.721 Y41.762 E30.3780
G1 X102.390 Y43.689 E30.4430
G1 X101.735 Y45.544 E30.5084
G1 X100.775 Y47.262 E30.5739
G1 X99.539 Y48.793 E30.6393
G1 X98.061 Y50.094 E30.7048
G1 X96.386 Y51.125 E30.7702
G1 X94.560 Y51.859 E30.8357
G1 X92.636 Y52.274 E30.9012
G1 X90.670 Y52.357 E30.9666
G1 X88.718 Y52.107 E31.0321
G1 X86.836 Y51.531 E31.0975
G1 X85.079 Y50.645 E31.1630
G1 X83.497 Y49.475 E31.2284
G1 X82.135 Y48.054 E31.2939
G1 X81.033 Y46.424 E31.3593
G1 X80.222 Y44.631 E31.4248
G1 X79.726 Y42.726 E31.4902
G1 X79.560 Y40.765 E31.5557
G1 X79.726 Y38.804 E31.6211
G1 X80.222 Y36.900 E31.6866
G1 X81.033 Y35.107 E31.7521
G1 X82.135 Y33.476 E31.8175
G1 X83.497 Y32.056 E31.8830
G1 X85.079 Y30.885 E31.9484
G1 X86.836 Y29.999 E32.0139
G1 X88.718 Y29.423 E32.0793
G1 X90.670 Y29.173 E32.1448
G1 X91.603 Y29.213 E32.1758
;segType:HShell
G0 X90.878 Y28.821 F7200
G1 X94.587 Y25.112 E32.3503 F3600
G0 X95.028 Y25.237 F7200
G1 X91.420 Y28.845 E32.5200 F3600
G0 X91.963 Y28.868 F7200
G1 X95.468 Y25.363 E32.6848 F3600
G0 X95.909 Y25.488 F7200
G1 X92.506 Y28.891 E32.8449 F3600
G0 X92.996 Y28.966 F7200
G1 X96.349 Y25.613 E33.0026 F3600
G0 X96.776 Y25.752 F7200
G1 X93.462 Y29.066 E33.1585 F3600
G0 X93.927 Y29.166 F7200
G1 X97.166 Y25.928 E33.3109 F3600
G0 X97.555 Y26.104 F7200
G1 X94.392 Y29.267 E33.4596 F3600
G0 X94.832 Y29.393 F7200
G1 X97.945 Y26.280 E33.6060 F3600
G0 X98.334 Y26.456 F7200
G1 X95.236 Y29.555 E33.7518 F3600
G0 X95.639 Y29.717 F7200
G1 X98.724 Y26.632 E33.8969 F3600
G0 X99.080 Y26.841 F7200
G1 X96.043 Y29.879 E34.0398 F3600
G0 X96.446 Y30.041 F7200
G1 X99.424 Y27.063 E34.1798 F3600
G0 X99.768 Y27.285 F7200
G1 X96.810 Y30.243 E34.3190 F3600
G0 X97.160 Y30.459 F7200
G1 X100.112 Y27.507 E34.4579 F3600
G0 X100.456 Y27.728 F7200
G1 X97.510 Y30.674 E34.5965 F3600
G0 X97.860 Y30.890 F7200
G1 X100.800 Y27.950 E34.7347 F3600
G0 X101.104 Y28.212 F7200
G1 X98.210 Y31.106 E34.8709 F3600
G0 X98.521 Y31.361 F7200
G1 X101.405 Y28.476 E35.0066 F3600
G0 X101.707 Y28.741 F7200
G1 X98.821 Y31.626 E35.1423 F3600
G0 X99.122 Y31.891 F7200
G1 X102.008 Y29.005 E35.2780 F3600
G0 X102.309 Y29.269 F7200
G1 X99.423 Y32.156 E35.4138 F3600
G0 X99.724 Y32.420 F7200
G1 X102.609 Y29.535 E35.5495 F3600
G0 X102.869 Y29.841 F7200
G1 X99.989 Y32.721 E35.6849 F3600
G0 X100.242 Y33.034 F7200
G1 X103.128 Y30.148 E35.8207 F3600
G0 X103.387 Y30.454 F7200
G1 X100.494 Y33.347 E35.9568 F3600
G0 X100.747 Y33.660 F7200
G1 X103.647 Y30.760 E36.0932 F3600
G0 X103.906 Y31.067 F7200
G1 X101.000 Y33.973 E36.2299 F3600
G0 X101.217 Y34.321 F7200
G1 X104.166 Y31.373 E36.3686 F3600
G0 X104.425 Y31.679 F7200
G1 X101.420 Y34.684 E36.5099 F3600
G0 X101.623 Y35.047 F7200
G1 X104.944 Y31.726 E36.6661 F3600
G0 X105.510 Y31.726 F7200
G1 X101.826 Y35.410 E36.8394 F3600
G0 X102.028 Y35.773 F7200
G1 X106.075 Y31.726 E37.0298 F3600
G0 X106.641 Y31.726 F7200
G1 X102.186 Y36.181 E37.2394 F3600
G0 X102.333 Y36.599 F7200
G1 X107.207 Y31.726 E37.4686 F3600
G0 X107.772 Y31.726 F7200
G1 X102.481 Y37.017 E37.7175 F3600
G0 X102.629 Y37.435 F7200
G1 X108.338 Y31.726 E37.9860 F3600
G0 X108.904 Y31.726 F7200
G1 X102.760 Y37.869 E38.2750 F3600
G0 X102.843 Y38.352 F7200
G1 X109.470 Y31.726 E38.5867 F3600
G0 X110.035 Y31.726 F7200
G1 X102.926 Y38.835 E38.9211 F3600
G0 X103.009 Y39.318 F7200
G1 X110.601 Y31.726 E39.2782 F3600
G0 X111.167 Y31.726 F7200
G1 X103.083 Y39.809 E39.6584 F3600
G0 X106.209 Y42.906 F7200
G1 X92.381 Y56.734 E40.3088 F3600
G0 X93.031 Y56.650 F7200
G1 X106.373 Y43.308 E40.9364 F3600
G0 X106.549 Y43.698 F7200
G1 X93.681 Y56.566 E41.5417 F3600
G0 X94.331 Y56.481 F7200
G1 X106.731 Y44.081 E42.1249 F3600
G0 X106.959 Y44.418 F7200
G1 X95.107 Y56.270 E42.6824 F3600
G0 X95.897 Y56.046 F7200
G1 X107.187 Y44.756 E43.2135 F3600
G0 X107.432 Y45.078 F7200
G1 X96.693 Y55.816 E43.7186 F3600
G0 X97.725 Y55.350 F7200
G1 X107.708 Y45.366 E44.1882 F3600
G0 X107.985 Y45.655 F7200
G1 X98.757 Y54.883 E44.6222 F3600
G0 X100.309 Y53.897 F7200
G1 X108.285 Y45.921 E44.9974 F3600
G0 X108.610 Y46.161 F7200
G1 X104.967 Y49.805 E45.1688 F3600
G0 X105.533 Y49.805 F7200
G1 X108.935 Y46.402 E45.3288 F3600
G0 X109.295 Y46.609 F7200
G1 X106.099 Y49.805 E45.4792 F3600
G0 X106.664 Y49.805 F7200
G1 X109.671 Y46.798 E45.6206 F3600
G0 X110.047 Y46.988 F7200
G1 X107.230 Y49.805 E45.7531 F3600
G0 X107.796 Y49.805 F7200
G1 X110.478 Y47.123 E45.8792 F3600
G0 X110.911 Y47.255 F7200
G1 X108.361 Y49.805 E45.9991 F3600
G0 X108.927 Y49.805 F7200
G1 X111.374 Y47.357 E46.1143 F3600
G0 X111.876 Y47.421 F7200
G1 X109.493 Y49.805 E46.2264 F3600
G0 X110.058 Y49.805 F7200
G1 X112.395 Y47.468 E46.3363 F3600
G0 X112.985 Y47.443 F7200
G1 X110.624 Y49.805 E46.4473 F3600
G0 X111.190 Y49.805 F7200
G1 X113.611 Y47.383 E46.5612 F3600
G0 X114.332 Y47.228 F7200
G1 X111.755 Y49.805 E46.6825 F3600
G0 X112.321 Y49.805 F7200
G1 X115.216 Y46.909 E46.8186 F3600
G0 X118.730 Y43.395 F7200
G1 X119.211 Y42.914 E46.8413 F3600
;segType:InnerHair
G0 X119.070 Y42.634 F7200
G1 X119.075 Y42.519 E46.8449 F3600
G1 X119.075 Y42.405 E46.8480
G1 X119.070 Y42.291 E46.8507
G1 X119.065 Y42.176 E46.8529
G1 X119.060 Y42.062 E46.8546
;segType:HShell
G0 X120.036 Y36.999 F7200
G1 X118.774 Y38.260 E46.9140 F3600
G0 X118.922 Y38.678 F7200
G1 X119.368 Y38.232 E46.9349 F3600
;segType:InnerHair
G0 X119.062 Y39.434 F7200
G1 X119.067 Y39.319 E46.9373 F3600
G1 X119.071 Y39.205 E46.9401
G1 X119.078 Y39.091 E46.9433
G1 X119.073 Y38.976 E46.9472
G1 X119.068 Y38.862 E46.9517
;segType:HShell
G0 X119.376 Y43.316 F7200
G1 X117.962 Y44.729 E47.0182 F3600
G0 X116.482 Y46.210 F7200
G1 X112.887 Y49.805 E47.1872 F3600
G0 X113.452 Y49.805 F7200
G1 X119.552 Y43.705 E47.4741 F3600
G0 X119.735 Y44.087 F7200
G1 X114.018 Y49.805 E47.7431 F3600
G0 X114.584 Y49.805 F7200
G1 X119.964 Y44.425 E47.9961 F3600
G0 X120.192 Y44.762 F7200
G1 X115.150 Y49.805 E48.2333 F3600
G0 X115.715 Y49.805 F7200
G1 X120.437 Y45.083 E48.4554 F3600
G0 X120.714 Y45.372 F7200
G1 X116.281 Y49.805 E48.6639 F3600
G0 X116.847 Y49.805 F7200
G1 X120.990 Y45.661 E48.8588 F3600
G0 X121.291 Y45.925 F7200
G1 X117.412 Y49.805 E49.0412 F3600
G0 X117.978 Y49.805 F7200
G1 X121.617 Y46.166 E49.2124 F3600
G0 X121.942 Y46.407 F7200
G1 X118.544 Y49.805 E49.3722 F3600
G0 X119.109 Y49.805 F7200
G1 X122.302 Y46.612 E49.5224 F3600
G0 X122.678 Y46.802 F7200
G1 X119.675 Y49.805 E49.6636 F3600
G0 X120.241 Y49.805 F7200
G1 X123.054 Y46.991 E49.7960 F3600
G0 X123.486 Y47.125 F7200
G1 X120.806 Y49.805 E49.9220 F3600
G0 X121.372 Y49.805 F7200
G1 X123.919 Y47.258 E50.0418 F3600
G0 X124.384 Y47.358 F7200
G1 X121.938 Y49.805 E50.1569 F3600
G0 X122.503 Y49.805 F7200
G1 X124.885 Y47.423 E50.2689 F3600
G0 X125.406 Y47.468 F7200
G1 X123.069 Y49.805 E50.3788 F3600
G0 X123.635 Y49.805 F7200
G1 X125.997 Y47.443 E50.4899 F3600
G0 X126.625 Y47.380 F7200
G1 X124.201 Y49.805 E50.6039 F3600
G0 X124.766 Y49.805 F7200
G1 X127.346 Y47.225 E50.7253 F3600
G0 X128.234 Y46.902 F7200
G1 X125.332 Y49.805 E50.8618 F3600
G0 X125.898 Y49.805 F7200
G1 X129.510 Y46.192 E51.0317 F3600
G0 X129.745 Y45.518 F7200
G0 X130.151 Y45.161
G0 X130.828 Y44.322
G0 X131.353 Y43.382
G0 X131.712 Y42.366
G0 X131.892 Y41.316
G0 X131.915 Y40.765
G0 X131.892 Y40.214
G0 X131.795 Y39.646
G0 X131.795 Y39.646
G0 X132.073 Y38.850
;segType:InnerHair
G0 X132.068 Y38.862
G1 X132.073 Y38.976 E51.0356 F3600
G1 X132.078 Y39.091 E51.0388
G1 X132.071 Y39.205 E51.0416
G1 X132.067 Y39.319 E51.0440
G1 X132.062 Y39.434 E51.0459
G0 X132.060 Y42.062 F7200
G1 X132.065 Y42.176 E51.0481 F3600
G1 X132.070 Y42.291 E51.0507
G1 X132.075 Y42.405 E51.0538
G1 X132.075 Y42.519 E51.0575
G1 X132.070 Y42.634 E51.0618
;segType:HShell
G0 X132.214 Y42.923 F7200
G1 X131.725 Y43.412 E51.0848 F3600
G0 X130.918 Y44.784 F7200
G1 X132.379 Y43.323 E51.1535 F3600
G0 X132.555 Y43.713 F7200
G1 X126.463 Y49.805 E51.4401 F3600
G0 X127.029 Y49.805 F7200
G1 X132.740 Y44.094 E51.7087 F3600
G0 X132.968 Y44.431 F7200
G1 X127.595 Y49.805 E51.9614 F3600
G0 X128.160 Y49.805 F7200
G1 X133.196 Y44.769 E52.1983 F3600
G0 X133.442 Y45.089 F7200
G1 X128.726 Y49.805 E52.4201 F3600
G0 X129.292 Y49.805 F7200
G1 X133.719 Y45.377 E52.6284 F3600
G0 X133.996 Y45.666 F7200
G1 X129.857 Y49.805 E52.8230 F3600
G0 X130.423 Y49.805 F7200
G1 X134.298 Y45.930 E53.0053 F3600
G0 X134.623 Y46.171 F7200
G1 X130.989 Y49.805 E53.1762 F3600
G0 X131.554 Y49.805 F7200
G1 X134.948 Y46.411 E53.3358 F3600
G0 X135.309 Y46.616 F7200
G1 X132.120 Y49.805 E53.4858 F3600
G0 X132.686 Y49.805 F7200
G1 X135.685 Y46.805 E53.6269 F3600
G0 X136.061 Y46.995 F7200
G1 X133.252 Y49.805 E53.7590 F3600
G0 X133.817 Y49.805 F7200
G1 X136.494 Y47.128 E53.8849 F3600
G0 X136.927 Y47.260 F7200
G1 X134.383 Y49.805 E54.0046 F3600
G0 X134.949 Y49.805 F7200
G1 X137.393 Y47.360 E54.1196 F3600
G0 X137.895 Y47.424 F7200
G1 X135.514 Y49.805 E54.2316 F3600
G0 X136.080 Y49.805 F7200
G1 X138.417 Y47.467 E54.3415 F3600
G0 X139.008 Y47.442 F7200
G1 X136.646 Y49.805 E54.4527 F3600
G0 X137.211 Y49.805 F7200
G1 X139.639 Y47.377 E54.5668 F3600
G0 X140.360 Y47.222 F7200
G1 X137.777 Y49.805 E54.6883 F3600
G0 X138.343 Y49.805 F7200
G1 X141.252 Y46.895 E54.8252 F3600
G0 X141.707 Y46.264 F7200
G0 X142.342 Y45.873
G0 X143.151 Y45.161
G0 X143.828 Y44.322
G0 X144.353 Y43.382
G0 X144.712 Y42.366
G0 X144.774 Y42.003
G0 X144.774 Y42.003
G0 X148.531 Y36.785
G0 X148.524 Y36.795
G1 X145.235 Y40.084 E54.9799 F3600
G0 X145.270 Y40.615 F7200
G1 X148.033 Y37.851 E55.1099 F3600
G0 X147.778 Y38.672 F7200
G1 X145.258 Y41.192 E55.2284 F3600
G0 X145.166 Y41.850 F7200
G1 X147.677 Y39.339 E55.3465 F3600
G0 X147.625 Y39.956 F7200
G1 X145.028 Y42.554 E55.4687 F3600
G0 X144.719 Y43.429 F7200
G1 X147.637 Y40.511 E55.6060 F3600
G0 X147.635 Y41.078 F7200
G1 X143.872 Y44.841 E55.7830 F3600
G0 X142.538 Y46.175 F7200
G1 X138.908 Y49.805 E55.9537 F3600
G0 X139.474 Y49.805 F7200
G1 X147.624 Y41.655 E56.3370 F3600
G0 X147.674 Y42.170 F7200
G1 X140.040 Y49.805 E56.6961 F3600
G0 X140.605 Y49.805 F7200
G1 X147.748 Y42.662 E57.0321 F3600
G0 X147.850 Y43.126 F7200
G1 X141.171 Y49.805 E57.3462 F3600
G0 X141.737 Y49.805 F7200
G1 X147.991 Y43.551 E57.6404 F3600
G0 X148.132 Y43.975 F7200
G1 X142.302 Y49.805 E57.9146 F3600
G0 X142.868 Y49.805 F7200
G1 X148.319 Y44.354 E58.1710 F3600
G0 X148.516 Y44.722 F7200
G1 X143.434 Y49.805 E58.4101 F3600
G0 X144.000 Y49.805 F7200
G1 X148.717 Y45.087 E58.6320 F3600
G0 X148.965 Y45.405 F7200
G1 X144.565 Y49.805 E58.8389 F3600
G0 X145.131 Y49.805 F7200
G1 X149.213 Y45.723 E59.0309 F3600
G0 X149.470 Y46.031 F7200
G1 X145.697 Y49.805 E59.2084 F3600
G0 X146.262 Y49.805 F7200
G1 X149.767 Y46.300 E59.3733 F3600
G0 X150.063 Y46.569 F7200
G1 X146.828 Y49.805 E59.5254 F3600
G0 X147.394 Y49.805 F7200
G1 X150.375 Y46.823 E59.6657 F3600
G0 X150.721 Y47.043 F7200
G1 X147.959 Y49.805 E59.7956 F3600
G0 X148.525 Y49.805 F7200
G1 X151.067 Y47.263 E59.9151 F3600
G0 X151.439 Y47.456 F7200
G1 X149.091 Y49.805 E60.0256 F3600
G0 X149.656 Y49.805 F7200
G1 X151.838 Y47.623 E60.1282 F3600
G0 X152.237 Y47.790 F7200
G1 X150.222 Y49.805 E60.2230 F3600
G0 X150.788 Y49.805 F7200
G1 X152.687 Y47.905 E60.3123 F3600
G0 X153.147 Y48.011 F7200
G1 X151.353 Y49.805 E60.3967 F3600
G0 X151.919 Y49.805 F7200
G1 X153.638 Y48.086 E60.4775 F3600
G0 X154.174 Y48.116 F7200
G1 X152.485 Y49.805 E60.5570 F3600
G0 X153.051 Y49.805 F7200
G1 X154.736 Y48.119 E60.6363 F3600
G0 X155.376 Y48.045 F7200
G1 X153.616 Y49.805 E60.7191 F3600
G0 X154.182 Y49.805 F7200
G1 X156.091 Y47.895 E60.8089 F3600
G0 X156.919 Y47.633 F7200
G1 X154.748 Y49.804 E60.9110 F3600
G0 X155.313 Y49.805 F7200
G1 X158.177 Y46.941 E61.0457 F3600
G0 X158.958 Y46.726 F7200
G1 X155.879 Y49.804 E61.1905 F3600
G0 X156.445 Y49.804 F7200
G1 X159.523 Y46.726 E61.3353 F3600
G0 X160.089 Y46.726 F7200
G1 X157.010 Y49.804 E61.4801 F3600
G0 X157.576 Y49.804 F7200
G1 X160.655 Y46.726 E61.6249 F3600
G0 X161.220 Y46.726 F7200
G1 X158.142 Y49.804 E61.7697 F3600
G0 X158.707 Y49.804 F7200
G1 X161.786 Y46.726 E61.9145 F3600
G0 X162.352 Y46.726 F7200
G1 X159.273 Y49.805 E62.0593 F3600
G0 X159.839 Y49.805 F7200
G1 X162.917 Y46.726 E62.2041 F3600
G0 X163.483 Y46.726 F7200
G1 X160.404 Y49.805 E62.3490 F3600
G0 X160.970 Y49.805 F7200
G1 X164.049 Y46.726 E62.4938 F3600
G0 X164.614 Y46.726 F7200
G1 X161.536 Y49.805 E62.6386 F3600
G0 X162.102 Y49.805 F7200
G1 X165.180 Y46.726 E62.7834 F3600
G0 X165.746 Y46.726 F7200
G1 X162.667 Y49.805 E62.9282 F3600
G0 X163.233 Y49.805 F7200
G1 X166.298 Y46.739 E63.0724 F3600
G0 X166.705 Y46.898 F7200
G1 X163.799 Y49.805 E63.2091 F3600
G0 X164.392 Y46.366 F7200
G0 X158.357 Y46.366
G0 X157.673 Y46.862
G0 X156.693 Y47.343
G0 X155.646 Y47.651
G0 X154.562 Y47.776
G0 X153.473 Y47.716
G0 X152.409 Y47.472
G0 X151.403 Y47.050
G0 X150.483 Y46.464
G0 X149.675 Y45.730
G0 X149.004 Y44.869
G0 X148.489 Y43.907
G0 X148.144 Y42.872
G0 X147.981 Y41.793
G0 X148.002 Y40.765
G0 X147.981 Y39.738
G0 X148.144 Y38.659
G0 X148.489 Y37.623
G0 X149.004 Y36.661
G0 X149.675 Y35.801
G0 X150.482 Y35.067
G0 X151.403 Y34.480
G0 X152.409 Y34.059
G0 X153.473 Y33.814
G0 X154.562 Y33.754
G0 X155.646 Y33.880
G0 X156.693 Y34.188
G0 X157.673 Y34.669
G0 X158.357 Y35.165
G0 X166.139 Y35.165
G0 X166.329 Y35.150
G0 X166.329 Y35.150
G0 X166.398 Y34.750
G0 X166.396 Y34.762
G1 X167.159 Y33.999 E63.2450 F3600
G0 X167.202 Y33.391 F7200
G1 X165.788 Y34.805 E63.3115 F3600
G0 X165.222 Y34.805 F7200
G1 X167.202 Y32.825 E63.4046 F3600
G0 X167.202 Y32.259 F7200
G1 X164.656 Y34.805 E63.5244 F3600
G0 X164.091 Y34.805 F7200
G1 X167.169 Y31.726 E63.6692 F3600
G0 X166.604 Y31.726 F7200
G1 X163.525 Y34.805 E63.8140 F3600
G0 X162.959 Y34.805 F7200
G1 X166.038 Y31.726 E63.9588 F3600
G0 X165.472 Y31.726 F7200
G1 X162.394 Y34.805 E64.1036 F3600
G0 X161.828 Y34.805 F7200
G1 X164.907 Y31.726 E64.2485 F3600
G0 X164.341 Y31.726 F7200
G1 X161.262 Y34.805 E64.3933 F3600
G0 X160.697 Y34.805 F7200
G1 X163.775 Y31.726 E64.5381 F3600
G0 X163.210 Y31.726 F7200
G1 X160.131 Y34.805 E64.6829 F3600
G0 X159.565 Y34.805 F7200
G1 X162.644 Y31.726 E64.8277 F3600
G0 X162.078 Y31.726 F7200
G1 X158.999 Y34.805 E64.9725 F3600
G0 X158.451 Y34.788 F7200
G1 X161.513 Y31.726 E65.1165 F3600
G0 X160.947 Y31.726 F7200
G1 X158.123 Y34.550 E65.2494 F3600
G0 X157.785 Y34.322 F7200
G1 X160.381 Y31.726 E65.3715 F3600
G0 X159.816 Y31.726 F7200
G1 X157.405 Y34.136 E65.4849 F3600
G0 X157.026 Y33.950 F7200
G1 X159.250 Y31.726 E65.5895 F3600
G0 X158.684 Y31.726 F7200
G1 X156.619 Y33.791 E65.6866 F3600
G0 X156.182 Y33.662 F7200
G1 X158.118 Y31.726 E65.7777 F3600
G0 X157.553 Y31.726 F7200
G1 X155.745 Y33.533 E65.8627 F3600
G0 X155.243 Y33.470 F7200
G1 X156.987 Y31.726 E65.9448 F3600
G0 X156.421 Y31.726 F7200
G1 X154.736 Y33.412 E66.0241 F3600
G0 X154.166 Y33.415 F7200
G1 X155.856 Y31.726 E66.1035 F3600
G0 X155.290 Y31.726 F7200
G1 X153.567 Y33.449 E66.1846 F3600
G0 X152.866 Y33.584 F7200
G1 X154.724 Y31.726 E66.2720 F3600
G0 X154.159 Y31.726 F7200
G1 X152.077 Y33.808 E66.3699 F3600
G0 X151.024 Y34.294 F7200
G1 X153.593 Y31.726 E66.4907 F3600
G0 X153.027 Y31.726 F7200
G1 X145.152 Y39.601 E66.8612 F3600
G0 X145.069 Y39.118 F7200
G1 X152.462 Y31.726 E67.2089 F3600
G0 X151.896 Y31.726 F7200
G1 X144.928 Y38.694 E67.5366 F3600
G0 X144.780 Y38.276 F7200
G1 X151.330 Y31.726 E67.8447 F3600
G0 X150.765 Y31.726 F7200
G1 X144.614 Y37.877 E68.1340 F3600
G0 X144.411 Y37.514 F7200
G1 X150.199 Y31.726 E68.4063 F3600
G0 X149.633 Y31.726 F7200
G1 X144.208 Y37.151 E68.6614 F3600
G0 X143.976 Y36.818 F7200
G1 X149.068 Y31.726 E68.9010 F3600
G0 X148.502 Y31.726 F7200
G1 X143.723 Y36.505 E69.1258 F3600
G0 X143.470 Y36.192 F7200
G1 X147.936 Y31.726 E69.3358 F3600
G0 X147.370 Y31.726 F7200
G1 X143.180 Y35.916 E69.5329 F3600
G0 X142.879 Y35.651 F7200
G1 X146.805 Y31.726 E69.7175 F3600
G0 X146.239 Y31.726 F7200
G1 X142.579 Y35.386 E69.8897 F3600
G0 X142.232 Y35.167 F7200
G1 X145.673 Y31.726 E70.0516 F3600
G0 X145.108 Y31.726 F7200
G1 X141.882 Y34.952 E70.2033 F3600
G0 X141.523 Y34.744 F7200
G1 X144.542 Y31.726 E70.3453 F3600
G0 X143.976 Y31.726 F7200
G1 X141.120 Y34.582 E70.4797 F3600
G0 X140.716 Y34.420 F7200
G1 X143.411 Y31.726 E70.6064 F3600
G0 X142.845 Y31.726 F7200
G1 X140.279 Y34.291 E70.7271 F3600
G0 X139.814 Y34.191 F7200
G1 X142.279 Y31.726 E70.8431 F3600
G0 X141.714 Y31.726 F7200
G1 X139.337 Y34.102 E70.9548 F3600
G0 X138.795 Y34.079 F7200
G1 X141.148 Y31.726 E71.0655 F3600
G0 X140.582 Y31.726 F7200
G1 X138.246 Y34.062 E71.1754 F3600
G0 X137.598 Y34.145 F7200
G1 X140.017 Y31.726 E71.2892 F3600
G0 X139.451 Y31.726 F7200
G1 X136.897 Y34.279 E71.4093 F3600
G0 X136.082 Y34.529 F7200
G1 X138.885 Y31.726 E71.5411 F3600
G0 X138.320 Y31.726 F7200
G1 X134.864 Y35.182 E71.7037 F3600
G0 X131.407 Y37.507 F7200
G1 X137.188 Y31.726 E71.9756 F3600
G0 X136.622 Y31.726 F7200
G1 X131.204 Y37.144 E72.2305 F3600
G0 X130.971 Y36.812 F7200
G1 X136.057 Y31.726 E72.4697 F3600
G0 X135.491 Y31.726 F7200
G1 X130.718 Y36.499 E72.6942 F3600
G0 X130.465 Y36.186 F7200
G1 X134.925 Y31.726 E72.9040 F3600
G0 X134.360 Y31.726 F7200
G1 X130.175 Y35.911 E73.1008 F3600
G0 X129.874 Y35.646 F7200
G1 X133.794 Y31.726 E73.2852 F3600
G0 X133.228 Y31.726 F7200
G1 X129.573 Y35.381 E73.4572 F3600
G0 X129.225 Y35.163 F7200
G1 X132.663 Y31.726 E73.6188 F3600
G0 X132.097 Y31.726 F7200
G1 X128.875 Y34.947 E73.7704 F3600
G0 X128.516 Y34.741 F7200
G1 X131.531 Y31.726 E73.9122 F3600
G0 X130.966 Y31.726 F7200
G1 X128.112 Y34.579 E74.0464 F3600
G0 X127.709 Y34.417 F7200
G1 X130.400 Y31.726 E74.1730 F3600
G0 X129.834 Y31.726 F7200
G1 X127.270 Y34.290 E74.2936 F3600
G0 X126.805 Y34.189 F7200
G1 X129.269 Y31.726 E74.4095 F3600
G0 X128.703 Y31.726 F7200
G1 X126.327 Y34.102 E74.5212 F3600
G0 X126.440 Y31.726 F7200
G1 X123.882 Y34.284 E74.6416 F3600
G0 X123.066 Y34.534 F7200
G1 X125.874 Y31.726 E74.7737 F3600
G0 X121.822 Y35.212 F7200
G1 X125.309 Y31.726 E74.9377 F3600
G0 X124.743 Y31.726 F7200
G1 X118.606 Y37.863 E75.2263 F3600
G0 X118.403 Y37.500 F7200
G1 X124.177 Y31.726 E75.4979 F3600
G0 X123.612 Y31.726 F7200
G1 X118.201 Y37.137 E75.7525 F3600
G0 X117.966 Y36.806 F7200
G1 X123.046 Y31.726 E75.9914 F3600
G0 X122.480 Y31.726 F7200
G1 X117.713 Y36.493 E76.2156 F3600
G0 X117.461 Y36.180 F7200
G1 X121.915 Y31.726 E76.4251 F3600
G0 X121.349 Y31.726 F7200
G1 X117.169 Y35.906 E76.6217 F3600
G0 X116.868 Y35.641 F7200
G1 X120.783 Y31.726 E76.8059 F3600
G0 X120.218 Y31.726 F7200
G1 X116.567 Y35.376 E76.9776 F3600
G0 X116.219 Y35.159 F7200
G1 X119.652 Y31.726 E77.1391 F3600
G0 X119.086 Y31.726 F7200
G1 X115.869 Y34.943 E77.2904 F3600
G0 X115.508 Y34.738 F7200
G1 X118.520 Y31.726 E77.4321 F3600
G0 X117.955 Y31.726 F7200
G1 X115.104 Y34.576 E77.5662 F3600
G0 X114.701 Y34.414 F7200
G1 X117.389 Y31.726 E77.6926 F3600
G0 X116.823 Y31.726 F7200
G1 X114.262 Y34.288 E77.8131 F3600
G0 X113.796 Y34.187 F7200
G1 X116.258 Y31.726 E77.9289 F3600
G0 X115.692 Y31.726 F7200
G1 X113.317 Y34.101 E78.0406 F3600
G0 X112.774 Y34.078 F7200
G1 X115.126 Y31.726 E78.1513 F3600
G0 X114.561 Y31.726 F7200
G1 X112.222 Y34.065 E78.2613 F3600
G0 X111.573 Y34.148 F7200
G1 X113.995 Y31.726 E78.3752 F3600
G0 X113.429 Y31.726 F7200
G1 X110.866 Y34.289 E78.4958 F3600
G0 X110.047 Y34.543 F7200
G1 X112.864 Y31.726 E78.6283 F3600
G0 X107.058 Y36.965 F7200
G1 X103.118 Y40.906 E78.8137 F3600
G0 X103.093 Y41.497 F7200
G1 X106.377 Y38.212 E78.9681 F3600
G0 X106.096 Y39.059 F7200
G1 X103.023 Y42.133 E79.1127 F3600
G0 X102.906 Y42.815 F7200
G1 X105.934 Y39.787 E79.2551 F3600
G0 X105.881 Y40.405 F7200
G1 X102.788 Y43.498 E79.4006 F3600
G0 X102.559 Y44.294 F7200
G1 X105.869 Y40.983 E79.5563 F3600
G0 X105.913 Y41.504 F7200
G1 X102.250 Y45.168 E79.7287 F3600
G0 X101.778 Y46.206 F7200
G1 X105.975 Y42.008 E79.9261 F3600
G0 X106.092 Y42.457 F7200
G1 X101.033 Y47.516 E80.1641 F3600
G0 X97.986 Y50.563 F7200
G1 X91.777 Y56.773 E80.4562 F3600
G0 X91.221 Y56.762 F7200
G1 X96.527 Y51.457 E80.7057 F3600
G0 X95.581 Y51.837 F7200
G1 X90.666 Y56.752 E80.9369 F3600
G0 X90.111 Y56.741 F7200
G1 X94.642 Y52.210 E81.1500 F3600
G0 X93.921 Y52.365 F7200
G1 X89.571 Y56.715 E81.3547 F3600
G0 X89.087 Y56.634 F7200
G1 X93.200 Y52.521 E81.5481 F3600
G0 X92.516 Y52.639 F7200
G1 X88.603 Y56.552 E81.7322 F3600
G0 X88.118 Y56.471 F7200
G1 X91.925 Y52.664 E81.9112 F3600
G0 X91.334 Y52.690 F7200
G1 X87.634 Y56.390 E82.0853 F3600
G0 X87.173 Y56.285 F7200
G1 X90.743 Y52.715 E82.2532 F3600
G0 X90.228 Y52.664 F7200
G1 X86.746 Y56.147 E82.4170 F3600
G0 X86.319 Y56.008 F7200
G1 X89.727 Y52.600 E82.5773 F3600
G0 X89.225 Y52.536 F7200
G1 X85.892 Y55.869 E82.7341 F3600
G0 X85.465 Y55.730 F7200
G1 X88.724 Y52.471 E82.8874 F3600
G0 X88.280 Y52.350 F7200
G1 X85.044 Y55.585 E83.0396 F3600
G0 X84.667 Y55.397 F7200
G1 X87.847 Y52.217 E83.1892 F3600
G0 X87.414 Y52.085 F7200
G1 X84.289 Y55.209 E83.3361 F3600
G0 X83.912 Y55.021 F7200
G1 X86.981 Y51.952 E83.4805 F3600
G0 X86.568 Y51.799 F7200
G1 X83.534 Y54.833 E83.6232 F3600
G0 X83.157 Y54.645 F7200
G1 X86.192 Y51.610 E83.7659 F3600
G0 X85.816 Y51.420 F7200
G1 X82.802 Y54.434 E83.9077 F3600
G0 X82.469 Y54.201 F7200
G1 X85.440 Y51.230 E84.0475 F3600
G0 X85.063 Y51.041 F7200
G1 X82.136 Y53.969 E84.1852 F3600
G0 X81.803 Y53.736 F7200
G1 X84.715 Y50.824 E84.3222 F3600
G0 X84.390 Y50.583 F7200
G1 X81.470 Y53.503 E84.4595 F3600
G0 X81.137 Y53.270 F7200
G1 X84.064 Y50.343 E84.5972 F3600
G0 X83.739 Y50.102 F7200
G1 X80.832 Y53.009 E84.7339 F3600
G0 X80.542 Y52.734 F7200
G1 X83.414 Y49.862 E84.8690 F3600
G0 X83.114 Y49.596 F7200
G1 X80.251 Y52.459 E85.0037 F3600
G0 X79.961 Y52.184 F7200
G1 X82.837 Y49.307 E85.1390 F3600
G0 X82.560 Y49.018 F7200
G1 X79.670 Y51.909 E85.2750 F3600
G0 X79.379 Y51.634 F7200
G1 X82.283 Y48.730 E85.4116 F3600
G0 X82.007 Y48.441 F7200
G1 X79.121 Y51.327 E85.5473 F3600
G0 X78.872 Y51.010 F7200
G1 X81.752 Y48.130 E85.6828 F3600
G0 X81.523 Y47.793 F7200
G1 X78.623 Y50.693 E85.8192 F3600
G0 X78.375 Y50.376 F7200
G1 X81.295 Y47.455 E85.9566 F3600
G0 X81.067 Y47.117 F7200
G1 X78.126 Y50.059 E86.0949 F3600
G0 X77.877 Y49.742 F7200
G1 X80.839 Y46.780 E86.2342 F3600
G0 X80.635 Y46.418 F7200
G1 X77.667 Y49.386 E86.3738 F3600
G0 X77.462 Y49.026 F7200
G1 X80.459 Y46.028 E86.5148 F3600
G0 X80.283 Y45.639 F7200
G1 X77.257 Y48.665 E86.6572 F3600
G0 X77.051 Y48.305 F7200
G1 X80.107 Y45.249 E86.8009 F3600
G0 X79.931 Y44.860 F7200
G1 X76.846 Y47.944 E86.9460 F3600
G0 X76.649 Y47.576 F7200
G1 X79.797 Y44.427 E87.0941 F3600
G0 X79.681 Y43.979 F7200
G1 X76.491 Y47.168 E87.2441 F3600
G0 X76.333 Y46.760 F7200
G1 X79.564 Y43.530 E87.3960 F3600
G0 X79.447 Y43.081 F7200
G1 X76.175 Y46.352 E87.5499 F3600
G0 X76.018 Y45.944 F7200
G1 X79.355 Y42.607 E87.7069 F3600
G0 X79.311 Y42.086 F7200
G1 X75.860 Y45.537 E87.8692 F3600
G0 X75.742 Y45.088 F7200
G1 X79.266 Y41.565 E88.0349 F3600
G0 X79.222 Y41.043 F7200
G1 X75.638 Y44.627 E88.2035 F3600
G0 X75.534 Y44.165 F7200
G1 X79.223 Y40.477 E88.3770 F3600
G0 X79.275 Y39.858 F7200
G1 X75.430 Y43.703 E88.5578 F3600
G0 X75.326 Y43.242 F7200
G1 X79.328 Y39.240 E88.7461 F3600
G0 X79.409 Y38.593 F7200
G1 X75.271 Y42.731 E88.9407 F3600
G0 X75.232 Y42.205 F7200
G1 X79.609 Y37.828 E89.1466 F3600
G0 X79.808 Y37.063 F7200
G1 X75.193 Y41.678 E89.3637 F3600
G0 X75.154 Y41.151 F7200
G1 X80.175 Y36.130 E89.5999 F3600
G0 X80.642 Y35.098 F7200
G1 X75.137 Y40.602 E89.8588 F3600
G0 X75.183 Y39.991 F7200
G1 X81.706 Y33.468 E90.1656 F3600
G0 X83.764 Y31.410 F7200
G1 X90.390 Y24.784 E90.4773 F3600
G0 X89.813 Y24.795 F7200
G1 X75.228 Y39.380 E91.1633 F3600
G0 X75.273 Y38.769 F7200
G1 X89.158 Y24.885 E91.8164 F3600
G0 X88.478 Y24.999 F7200
G1 X75.366 Y38.110 E92.4331 F3600
G0 X75.531 Y37.380 F7200
G1 X87.798 Y25.113 E93.0101 F3600
G0 X87.066 Y25.280 F7200
G1 X75.696 Y36.650 E93.5449 F3600
G0 X75.906 Y35.874 F7200
G1 X86.227 Y25.553 E94.0304 F3600
G0 X85.389 Y25.825 F7200
G1 X76.264 Y34.950 E94.4596 F3600
G0 X76.621 Y34.027 F7200
G1 X84.364 Y26.284 E94.8238 F3600
G0 X83.237 Y26.846 F7200
G1 X77.308 Y32.775 E95.1027 F3600
G0 X78.419 Y31.098 F7200
G1 X81.536 Y27.981 E95.2493 F3600
G0 X88.975 Y29.027 F7200
G1 X93.111 Y24.891 E95.4438 F3600
G0 X92.610 Y24.826 F7200
G1 X88.246 Y29.191 E95.6492 F3600
G0 X87.430 Y29.441 F7200
G1 X92.110 Y24.761 E95.8693 F3600
G0 X91.543 Y24.762 F7200
G1 X86.580 Y29.725 E96.1027 F3600
G0 X85.439 Y30.300 F7200
G1 X90.966 Y24.773 E96.3627 F3600
; ------------------------------------
; Layer #2
; ------------------------------------
M106 S0 ;turn off fan
G92 E0 ;reset extr
G0 F3000 E-1.0000
G0 F1200 Z0.600
G0 X100.865 Y27.801 F7200
G0 X103.339 Y28.558
G0 X105.814 Y29.315
G0 X123.136 Y34.614
G0 X125.611 Y35.371
G0 X128.085 Y36.128
G0 X130.560 Y36.885
G0 X133.034 Y37.642
G0 X135.509 Y38.399
G0 X145.407 Y41.427
G0 X147.882 Y42.184
G0 X150.356 Y42.941
G0 X162.729 Y46.726
G0 F3000 E0.0000
;segType:HShell
G1 X165.808 Y49.805 E0.1448 F3600
G0 X166.374 Y49.805 F7200
G1 X163.295 Y46.726 E0.2896 F3600
G0 X163.861 Y46.726 F7200
G1 X166.939 Y49.805 E0.4344 F3600
;segType:Perimeter
G0 X167.902 Y50.565 F7200
G1 X104.817 Y50.565 E2.5327 F2160
G1 X103.144 Y52.540 E2.6188
G1 X101.279 Y54.176 E2.7013
G1 X99.194 Y55.520 E2.7838
G1 X96.933 Y56.542 E2.8663
G1 X94.547 Y57.220 E2.9488
G1 X92.087 Y57.539 E3.0313
G1 X89.607 Y57.492 E3.1138
G1 X87.160 Y57.081 E3.1963
G1 X84.801 Y56.313 E3.2788
G1 X82.581 Y55.207 E3.3614
G1 X80.547 Y53.786 E3.4439
G1 X78.746 Y52.081 E3.5264
G1 X77.215 Y50.129 E3.6089
G1 X75.988 Y47.973 E3.6914
G1 X75.092 Y45.659 E3.7739
G1 X74.546 Y43.239 E3.8564
G1 X74.363 Y40.765 E3.9389
G1 X74.546 Y38.291 E4.0214
G1 X75.092 Y35.871 E4.1039
G1 X75.988 Y33.558 E4.1865
G1 X77.215 Y31.402 E4.2690
G1 X78.746 Y29.450 E4.3515
G1 X80.547 Y27.744 E4.4340
G1 X82.581 Y26.323 E4.5165
G1 X84.801 Y25.217 E4.5990
G1 X87.160 Y24.450 E4.6815
G1 X89.606 Y24.038 E4.7640
G1 X92.087 Y23.992 E4.8465
G1 X94.547 Y24.311 E4.9291
G1 X96.934 Y24.989 E5.0116
G1 X99.194 Y26.010 E5.0941
G1 X101.279 Y27.354 E5.1766
G1 X103.144 Y28.990 E5.2591
G1 X104.817 Y30.966 E5.3452
G1 X167.962 Y30.966 E7.4454
G1 X167.962 Y33.757 E7.5382
G1 X167.939 Y34.047 E7.5479
G1 X167.873 Y34.321 E7.5573
G1 X167.765 Y34.582 E7.5667
G1 X167.618 Y34.823 E7.5761
G1 X167.434 Y35.037 E7.5855
G1 X167.220 Y35.221 E7.5948
G1 X166.979 Y35.368 E7.6042
G1 X166.718 Y35.476 E7.6136
G1 X166.444 Y35.542 E7.6230
G1 X166.154 Y35.565 E7.6327
G1 X158.227 Y35.565 E7.8963
G1 X157.466 Y35.013 E7.9276
G1 X156.548 Y34.562 E7.9616
G1 X155.566 Y34.273 E7.9956
G1 X154.550 Y34.155 E8.0297
G1 X153.529 Y34.212 E8.0637
G1 X152.532 Y34.441 E8.0977
G1 X151.589 Y34.836 E8.1317
G1 X150.726 Y35.386 E8.1657
G1 X149.969 Y36.074 E8.1998
G1 X149.340 Y36.880 E8.2338
G1 X148.857 Y37.782 E8.2678
G1 X148.535 Y38.753 E8.3018
G1 X148.382 Y39.764 E8.3358
G1 X148.402 Y40.765 E8.3691
G1 X148.382 Y41.767 E8.4025
G1 X148.535 Y42.778 E8.4365
G1 X148.857 Y43.748 E8.4705
G1 X149.340 Y44.650 E8.5045
G1 X149.969 Y45.457 E8.5385
G1 X150.726 Y46.145 E8.5726
G1 X151.589 Y46.694 E8.6066
G1 X152.532 Y47.089 E8.6406
G1 X153.529 Y47.318 E8.6746
G1 X154.550 Y47.375 E8.7086
G1 X155.566 Y47.257 E8.7427
G1 X156.548 Y46.969 E8.7767
G1 X157.466 Y46.518 E8.8107
G1 X158.227 Y45.966 E8.8420
G1 X166.154 Y45.966 E9.1056
G1 X166.444 Y45.988 E9.1153
G1 X166.718 Y46.054 E9.1247
G1 X166.979 Y46.162 E9.1341
G1 X167.220 Y46.310 E9.1435
G1 X167.434 Y46.493 E9.1528
G1 X167.618 Y46.708 E9.1622
G1 X167.765 Y46.948 E9.1716
G1 X167.873 Y47.209 E9.1810
G1 X167.939 Y47.484 E9.1904
G1 X167.962 Y47.773 E9.2000
G1 X167.962 Y50.505 E9.2909
G0 X167.189 Y50.298 F7200
;segType:Loop
G0 X166.862 Y50.165
G1 X104.632 Y50.165 E11.3607 F3600
G1 X102.858 Y52.259 E11.4520
G1 X101.038 Y53.856 E11.5325
G1 X99.002 Y55.168 E11.6131
G1 X96.796 Y56.165 E11.6936
G1 X94.466 Y56.827 E11.7741
G1 X92.065 Y57.138 E11.8547
G1 X89.644 Y57.093 E11.9352
G1 X87.256 Y56.691 E12.0158
G1 X84.953 Y55.942 E12.0963
G1 X82.786 Y54.862 E12.1768
G1 X80.801 Y53.475 E12.2574
G1 X79.042 Y51.810 E12.3379
G1 X77.548 Y49.905 E12.4185
G1 X76.350 Y47.801 E12.4990
G1 X75.476 Y45.542 E12.5795
G1 X74.943 Y43.180 E12.6601
G1 X74.764 Y40.765 E12.7406
G1 X74.943 Y38.350 E12.8212
G1 X75.476 Y35.988 E12.9017
G1 X76.350 Y33.730 E12.9822
G1 X77.548 Y31.625 E13.0628
G1 X79.042 Y29.720 E13.1433
G1 X80.801 Y28.055 E13.2239
G1 X82.786 Y26.668 E13.3044
G1 X84.953 Y25.588 E13.3849
G1 X87.256 Y24.839 E13.4655
G1 X89.644 Y24.438 E13.5460
G1 X92.065 Y24.392 E13.6266
G1 X94.467 Y24.704 E13.7071
G1 X96.796 Y25.365 E13.7876
G1 X99.002 Y26.363 E13.8682
G1 X101.038 Y27.674 E13.9487
G1 X102.858 Y29.271 E14.0293
G1 X104.632 Y31.366 E14.1205
G1 X167.562 Y31.366 E16.2136
G1 X167.562 Y33.742 E16.2926
G1 X167.543 Y33.984 E16.3007
G1 X167.491 Y34.197 E16.3080
G1 X167.408 Y34.400 E16.3153
G1 X167.293 Y34.587 E16.3226
G1 X167.150 Y34.754 E16.3299
G1 X166.984 Y34.896 E16.3372
G1 X166.797 Y35.011 E16.3445
G1 X166.594 Y35.095 E16.3518
G1 X166.381 Y35.146 E16.3591
G1 X166.139 Y35.165 E16.3672
G1 X158.357 Y35.165 E16.6260
G1 X157.673 Y34.669 E16.6541
G1 X156.693 Y34.188 E16.6904
G1 X155.646 Y33.880 E16.7267
G1 X154.562 Y33.754 E16.7630
G1 X153.473 Y33.814 E16.7993
G1 X152.409 Y34.059 E16.8356
G1 X151.403 Y34.480 E16.8719
G1 X150.482 Y35.067 E16.9082
G1 X149.675 Y35.801 E16.9444
G1 X149.004 Y36.661 E16.9807
G1 X148.489 Y37.623 E17.0170
G1 X148.144 Y38.659 E17.0533
G1 X147.981 Y39.738 E17.0896
G1 X148.002 Y40.765 E17.1238
G1 X147.981 Y41.793 E17.1580
G1 X148.144 Y42.872 E17.1943
G1 X148.489 Y43.907 E17.2306
G1 X149.004 Y44.869 E17.2669
G1 X149.675 Y45.730 E17.3032
G1 X150.483 Y46.464 E17.3395
G1 X151.403 Y47.050 E17.3758
G1 X152.409 Y47.472 E17.4121
G1 X153.473 Y47.716 E17.4483
G1 X154.562 Y47.776 E17.4846
G1 X155.646 Y47.651 E17.5209
G1 X156.693 Y47.343 E17.5572
G1 X157.673 Y46.862 E17.5935
G1 X158.357 Y46.366 E17.6216
G1 X166.139 Y46.366 E17.8805
G1 X166.381 Y46.385 E17.8885
G1 X166.594 Y46.436 E17.8958
G1 X166.797 Y46.520 E17.9031
G1 X166.984 Y46.634 E17.9104
G1 X167.150 Y46.777 E17.9177
G1 X167.293 Y46.944 E17.9250
G1 X167.408 Y47.131 E17.9323
G1 X167.491 Y47.333 E17.9396
G1 X167.543 Y47.547 E17.9469
G1 X167.562 Y47.789 E17.9550
G1 X167.562 Y50.165 E18.0340
G1 X167.062 Y50.165 E18.0506
G0 X167.062 Y50.165 F7200
G0 X158.650 Y46.366
G0 X158.650 Y46.366
G0 X158.357 Y46.366
G0 X157.673 Y46.862
G0 X156.693 Y47.343
G0 X155.646 Y47.651
G0 X154.562 Y47.776
G0 X153.473 Y47.716
G0 X152.409 Y47.472
G0 X151.403 Y47.050
G0 X150.483 Y46.464
G0 X149.675 Y45.730
G0 X149.004 Y44.869
G0 X148.489 Y43.907
G0 X148.144 Y42.872
G0 X147.981 Y41.793
G0 X147.986 Y41.550
G0 X147.986 Y41.550
G0 X144.881 Y40.147
G0 X144.881 Y40.147
G0 X144.712 Y39.165
G0 X144.353 Y38.149
G0 X143.828 Y37.208
G0 X143.151 Y36.370
G0 X142.342 Y35.658
G0 X141.424 Y35.093
G0 X140.425 Y34.691
G0 X139.371 Y34.464
G0 X138.295 Y34.418
G0 X137.226 Y34.555
G0 X136.196 Y34.871
G0 X135.234 Y35.356
G0 X134.869 Y35.626
G0 X134.869 Y35.626
G0 X126.221 Y31.720
;segType:HShell
G0 X126.233 Y31.726
G1 X132.484 Y37.976 E18.3446 F3600
G0 X131.355 Y37.413 F7200
G1 X132.308 Y38.366 E18.3894 F3600
;segType:Perimeter
G0 X132.896 Y38.432 F7200
G1 X133.403 Y37.813 E18.4161 F2160
G1 X133.934 Y37.027 E18.4476
G1 X134.633 Y36.298 E18.4812
G1 X135.444 Y35.698 E18.5148
G1 X136.346 Y35.243 E18.5483
G1 X137.311 Y34.948 E18.5819
G1 X138.312 Y34.820 E18.6155
G1 X139.321 Y34.862 E18.6491
G1 X140.307 Y35.075 E18.6826
G1 X141.244 Y35.451 E18.7162
G1 X142.103 Y35.981 E18.7498
G1 X142.861 Y36.648 E18.7834
G1 X143.495 Y37.433 E18.8169
G1 X143.987 Y38.314 E18.8505
G1 X144.324 Y39.266 E18.8841
G1 X144.493 Y40.256 E18.9175
G1 X144.515 Y40.765 E18.9344
G1 X144.493 Y41.274 E18.9514
G1 X144.324 Y42.265 E18.9848
G1 X143.987 Y43.216 E19.0184
G1 X143.495 Y44.098 E19.0520
G1 X142.861 Y44.883 E19.0855
G1 X142.103 Y45.550 E19.1191
G1 X141.244 Y46.079 E19.1527
G1 X140.307 Y46.455 E19.1862
G1 X139.321 Y46.668 E19.2198
G1 X138.312 Y46.711 E19.2534
G1 X137.311 Y46.583 E19.2870
G1 X136.346 Y46.287 E19.3205
G1 X135.444 Y45.833 E19.3541
G1 X134.633 Y45.233 E19.3877
G1 X133.934 Y44.504 E19.4213
G1 X133.369 Y43.668 E19.4548
G1 X132.953 Y42.748 E19.4884
G1 X132.699 Y41.771 E19.5220
G1 X132.613 Y40.765 E19.5555
G1 X132.699 Y39.759 E19.5891
G1 X132.953 Y38.783 E19.6227
G1 X133.344 Y37.918 E19.6543
G0 X133.606 Y37.161 F7200
;segType:Loop
G0 X133.691 Y36.702
G1 X134.368 Y35.997 E19.6868 F3600
G1 X135.234 Y35.356 E19.7226
G1 X136.196 Y34.871 E19.7584
G1 X137.226 Y34.555 E19.7943
G1 X138.295 Y34.418 E19.8301
G1 X139.371 Y34.464 E19.8660
G1 X140.425 Y34.691 E19.9018
G1 X141.424 Y35.093 E19.9376
G1 X142.342 Y35.658 E19.9735
G1 X143.151 Y36.370 E20.0093
G1 X143.828 Y37.208 E20.0451
G1 X144.353 Y38.149 E20.0810
G1 X144.712 Y39.165 E20.1168
G1 X144.892 Y40.214 E20.1522
G1 X144.916 Y40.765 E20.1706
G1 X144.892 Y41.317 E20.1889
G1 X144.712 Y42.366 E20.2243
G1 X144.353 Y43.382 E20.2602
G1 X143.828 Y44.322 E20.2960
G1 X143.151 Y45.161 E20.3319
G1 X142.342 Y45.873 E20.3677
G1 X141.424 Y46.438 E20.4035
G1 X140.425 Y46.839 E20.4394
G1 X139.371 Y47.066 E20.4752
G1 X138.295 Y47.112 E20.5110
G1 X137.226 Y46.975 E20.5469
G1 X136.196 Y46.660 E20.5827
G1 X135.234 Y46.175 E20.6185
G1 X134.367 Y45.534 E20.6544
G1 X133.622 Y44.756 E20.6902
G1 X133.019 Y43.863 E20.7261
G1 X132.575 Y42.881 E20.7619
G1 X132.303 Y41.839 E20.7977
G1 X132.212 Y40.765 E20.8336
G1 X132.303 Y39.692 E20.8694
G1 X132.575 Y38.649 E20.9052
G1 X133.019 Y37.667 E20.9411
G1 X133.566 Y36.857 E20.9736
;segType:HShell
G0 X122.273 Y31.726 F7200
G1 X124.682 Y34.134 E21.0869 F3600
G0 X125.183 Y34.070 F7200
G1 X122.839 Y31.726 E21.1971 F3600
G0 X123.405 Y31.726 F7200
G1 X125.757 Y34.078 E21.3077 F3600
;segType:Perimeter
G0 X125.616 Y34.635 F7200
G1 X126.379 Y34.875 E21.3343 F2160
G1 X127.307 Y35.075 E21.3659
G1 X128.244 Y35.451 E21.3995
G1 X129.103 Y35.980 E21.4331
G1 X129.861 Y36.647 E21.4666
G1 X130.495 Y37.433 E21.5002
G1 X130.988 Y38.314 E21.5338
G1 X131.324 Y39.266 E21.5673
G1 X131.494 Y40.256 E21.6008
G1 X131.515 Y40.765 E21.6177
G1 X131.494 Y41.274 E21.6347
G1 X131.324 Y42.265 E21.6681
G1 X130.988 Y43.216 E21.7017
G1 X130.495 Y44.098 E21.7352
G1 X129.861 Y44.883 E21.7688
G1 X129.103 Y45.550 E21.8024
G1 X128.244 Y46.079 E21.8359
G1 X127.307 Y46.455 E21.8695
G1 X126.321 Y46.668 E21.9031
G1 X125.312 Y46.711 E21.9367
G1 X124.311 Y46.583 E21.9702
G1 X123.346 Y46.287 E22.0038
G1 X122.445 Y45.833 E22.0374
G1 X121.633 Y45.232 E22.0710
G1 X120.934 Y44.504 E22.1045
G1 X120.369 Y43.668 E22.1381
G1 X119.953 Y42.748 E22.1717
G1 X119.699 Y41.771 E22.2052
G1 X119.613 Y40.765 E22.2388
G1 X119.699 Y39.760 E22.2724
G1 X119.953 Y38.783 E22.3060
G1 X120.369 Y37.863 E22.3395
G1 X120.934 Y37.027 E22.3731
G1 X121.633 Y36.298 E22.4067
G1 X122.444 Y35.698 E22.4403
G1 X123.346 Y35.243 E22.4738
G1 X124.311 Y34.948 E22.5074
G1 X125.312 Y34.820 E22.5410
G1 X126.261 Y34.860 E22.5725
G0 X127.060 Y34.820 F7200
;segType:Loop
G0 X127.518 Y34.728
G1 X128.424 Y35.093 E22.6050 F3600
G1 X129.342 Y35.658 E22.6409
G1 X130.151 Y36.370 E22.6767
G1 X130.828 Y37.208 E22.7126
G1 X131.353 Y38.149 E22.7484
G1 X131.712 Y39.165 E22.7842
G1 X131.892 Y40.214 E22.8196
G1 X131.915 Y40.765 E22.8380
